chrisxuxuhui/mimic_robot/GMR/RetargetData/lafan1/csv/pm01/fight1_subject3_cut1.csv
frame,root pos x,root pos y,root pos z,root rot x,root rot y,root rot z,root rot w,j00_hip_pitch_l_joint,j01_hip_roll_l_joint,j02_hip_yaw_l_joint,j03_knee_pitch_l_joint,j04_ankle_pitch_l_joint,j05_ankle_roll_l_joint,j06_hip_pitch_r_joint,j07_hip_roll_r_joint,j08_hip_yaw_r_joint,j09_knee_pitch_r_joint,j10_ankle_pitch_r_joint,j11_ankle_roll_r_joint,j12_waist_yaw_joint,j13_shoulder_pitch_l_joint,j14_shoulder_roll_l_joint,j15_shoulder_yaw_l_joint,j16_elbow_pitch_l_joint,j17_elbow_yaw_l_joint,j18_shoulder_pitch_r_joint,j19_shoulder_roll_r_joint,j20_shoulder_yaw_r_joint,j21_elbow_pitch_r_joint,j22_elbow_yaw_r_joint,j23_head_yaw_joint
0,1.278176,0.336007,0.770187,0.138787,0.159762,-0.76716,0.605541,-0.904285,0.356634,-0.04892,0.96752,-0.341883,-0.2618,-1.039938,-0.360849,-0.051086,0.94956,-0.19841,0.2618,-0.006527,-0.076071,0.243314,-0.186735,-2.156372,0.498198,-0.141072,0.040646,0.160993,-2.043663,0.261373,0.0
1,1.282631,0.331912,0.754925,0.140914,0.143433,-0.758554,0.619811,-0.854115,0.319912,-0.034719,0.967193,-0.463667,-0.2618,-0.976131,-0.506795,-0.031894,0.941787,-0.168789,0.2618,-0.045727,-0.06151,0.242326,-0.1808,-2.15995,0.514404,-0.113887,0.033549,0.147397,-2.058057,0.268556,0.0
2,1.270096,0.336799,0.739496,0.139673,0.127636,-0.74814,0.635993,-0.870646,0.313005,-0.049482,1.013163,-0.49843,-0.2618,-0.88034,-0.619209,-0.062877,0.945346,-0.158315,0.090627,-0.094916,-0.057751,0.228459,-0.177451,-2.146612,0.529086,-0.076613,0.023081,0.148107,-2.079911,0.258222,0.0
3,1.251353,0.35102,0.722785,0.146145,0.120903,-0.747958,0.636069,-0.907304,0.332564,-0.048364,1.041257,-0.534165,-0.2618,-0.849963,-0.702116,-0.123667,0.970824,-0.149821,-0.004428,-0.112953,-0.078647,0.204342,-0.176122,-2.137054,0.540402,-0.078025,0.013209,0.157219,-2.087151,0.253243,0.0
4,1.229466,0.36552,0.709863,0.151947,0.11262,-0.759798,0.622041,-0.912406,0.363561,-0.045338,1.048326,-0.5514,-0.2618,-0.84358,-0.728817,-0.133969,0.983027,-0.091029,0.001799,-0.101982,-0.093098,0.168435,-0.170628,-2.137493,0.557098,-0.077071,-0.003217,0.177841,-2.092529,0.243999,0.0
5,1.194036,0.396883,0.708171,0.157326,0.114284,-0.789044,0.58275,-0.92872,0.458015,-0.018558,1.016757,-0.473836,-0.2618,-0.822113,-0.67938,-0.200038,0.926128,-0.192832,0.2618,-0.034619,-0.112098,0.139399,-0.162727,-2.152637,0.573817,-0.070644,-0.020402,0.205674,-2.108759,0.193774,0.0
6,1.154115,0.422421,0.715281,0.154114,0.118667,-0.813336,0.548317,-0.885147,0.557785,0.01265,0.921091,-0.352299,-0.2618,-0.803768,-0.568244,-0.211382,0.895084,-0.32569,0.2618,0.031729,-0.113898,0.14114,-0.163997,-2.187734,0.576602,-0.061845,-0.036218,0.230811,-2.119927,0.17193,0.0
7,1.116285,0.424654,0.723288,0.146116,0.114986,-0.828236,0.528634,-0.771359,0.619991,0.057822,0.821823,-0.223971,-0.2618,-0.794675,-0.50562,-0.194509,0.934446,-0.349103,0.2618,0.074525,-0.106806,0.143842,-0.17163,-2.1948,0.567794,-0.046569,-0.075106,0.263984,-2.122444,0.188381,0.0
8,1.071574,0.428712,0.731516,0.14038,0.117317,-0.844572,0.503218,-0.66876,0.704988,0.165641,0.741413,-0.073636,-0.2618,-0.783724,-0.424285,-0.200098,0.967368,-0.369717,0.2618,0.127509,-0.09403,0.138362,-0.179454,-2.1948,0.555303,-0.031203,-0.138732,0.301637,-2.141365,0.191157,0.0
9,1.019527,0.435885,0.745229,0.13273,0.121799,-0.847026,0.500094,-0.64786,0.756572,0.255107,0.696787,0.049452,-0.116033,-0.677668,-0.338871,-0.274745,0.925743,-0.411092,0.2618,0.139426,-0.080373,0.147287,-0.195174,-2.1948,0.528511,-0.001097,-0.196838,0.323694,-2.164048,0.202918,0.0
10,1.000748,0.431966,0.769752,0.130262,0.119075,-0.833586,0.523438,-0.709146,0.635437,0.129222,0.735169,0.023238,-0.252997,-0.575553,-0.325866,-0.363088,0.835718,-0.310804,0.2618,0.108075,-0.05642,0.168808,-0.227272,-2.1948,0.506221,0.048128,-0.242177,0.33144,-2.16501,0.236287,0.0
11,0.989159,0.423069,0.795337,0.131498,0.116666,-0.810698,0.55845,-0.769521,0.507792,0.131222,0.813869,-0.021983,-0.2618,-0.525882,-0.335449,-0.421379,0.796054,-0.116122,0.258711,0.055329,-0.023299,0.195465,-0.263385,-2.1948,0.495988,0.091116,-0.277619,0.328139,-2.154774,0.284152,0.0
12,0.974011,0.419454,0.815192,0.12935,0.12182,-0.78884,0.588353,-0.809051,0.388814,0.136704,0.879912,-0.066475,-0.2618,-0.550782,-0.332367,-0.420948,0.834636,0.095899,0.22476,0.01287,0.010517,0.224373,-0.290416,-2.1948,0.454452,0.107123,-0.287326,0.323744,-2.133106,0.320296,0.0
13,0.967627,0.414569,0.829275,0.125716,0.125523,-0.769217,0.613795,-0.805307,0.240872,0.121503,0.916915,-0.098047,-0.2618,-0.612916,-0.352089,-0.379564,0.920743,0.239656,0.231345,-0.029058,0.055137,0.251774,-0.306725,-2.1948,0.427897,0.115566,-0.276807,0.324521,-2.096889,0.332763,0.0
14,0.951779,0.405458,0.833325,0.121608,0.126944,-0.76063,0.624931,-0.75845,0.09494,0.052548,0.925127,-0.12795,-0.2618,-0.684442,-0.34913,-0.300729,1.018624,0.238751,0.162404,-0.048336,0.096451,0.269992,-0.315339,-2.193454,0.430888,0.128319,-0.259353,0.326507,-2.066277,0.336503,0.0
15,0.920483,0.399456,0.830235,0.118805,0.127889,-0.756162,0.630673,-0.709914,0.033961,0.052502,0.927698,-0.105163,-0.2618,-0.749727,-0.332303,-0.24371,1.085981,0.134682,0.176919,-0.066113,0.120827,0.272364,-0.311549,-2.175359,0.399648,0.140896,-0.240145,0.325909,-2.049453,0.347013,0.0
16,0.862336,0.395252,0.821913,0.115625,0.135147,-0.759704,0.625472,-0.660461,0.03449,0.028382,0.896211,-0.113745,-0.223783,-0.796766,-0.3009,-0.273518,1.100819,0.011844,0.128595,-0.068047,0.137372,0.272509,-0.296844,-2.159125,0.381728,0.14219,-0.201499,0.330259,-2.045184,0.354149,0.0
17,0.832775,0.393467,0.8048,0.113579,0.141299,-0.761028,0.622872,-0.590555,0.083956,0.121073,0.837089,-0.298666,-0.007267,-0.872442,-0.310127,-0.277759,1.074292,-0.091493,0.113733,-0.079794,0.154266,0.272667,-0.275953,-2.155731,0.399672,0.136332,-0.154791,0.327886,-2.045647,0.328282,0.0
18,0.809633,0.390891,0.786257,0.11734,0.143367,-0.766129,0.615405,-0.567395,0.116963,0.134347,0.842138,-0.453046,-0.026896,-0.966936,-0.325072,-0.260297,1.005761,-0.145324,0.11258,-0.087367,0.150101,0.250146,-0.2592,-2.160832,0.407874,0.126467,-0.121348,0.323907,-2.062036,0.288341,0.0
19,0.785426,0.383114,0.765908,0.115609,0.146206,-0.770808,0.609191,-0.579157,0.167732,0.120162,0.917351,-0.554983,-0.075745,-1.036134,-0.318836,-0.244218,0.919149,-0.173793,0.097228,-0.08994,0.145748,0.241339,-0.245895,-2.177764,0.429075,0.133816,-0.083356,0.31286,-2.085997,0.231771,0.0
20,0.761076,0.375191,0.748696,0.11757,0.152267,-0.772071,0.605722,-0.613237,0.223241,0.108991,0.99565,-0.607619,-0.116927,-1.102768,-0.300891,-0.238715,0.829468,-0.145505,0.092462,-0.088167,0.121691,0.242533,-0.24009,-2.194591,0.450723,0.1352,-0.05091,0.30383,-2.099223,0.184059,0.0
21,0.737504,0.36789,0.734728,0.124645,0.157524,-0.776417,0.59735,-0.619741,0.268277,0.11506,1.022212,-0.659244,-0.16174,-1.179532,-0.278225,-0.249597,0.766057,-0.079121,0.095894,-0.072337,0.078085,0.240798,-0.244537,-2.1948,0.458454,0.118409,-0.044555,0.312333,-2.097965,0.14829,0.0
22,0.71452,0.362112,0.726267,0.139766,0.157971,-0.784629,0.582982,-0.586096,0.290756,0.156217,0.980602,-0.6807,-0.205124,-1.261628,-0.263674,-0.284989,0.74315,-0.002174,0.014084,-0.05138,0.037059,0.236044,-0.251427,-2.1948,0.450603,0.087509,-0.070711,0.335735,-2.096535,0.137429,0.0
23,0.688107,0.349934,0.720353,0.154439,0.153582,-0.792002,0.570345,-0.530287,0.303487,0.202895,0.930459,-0.6807,-0.244305,-1.323224,-0.249769,-0.258686,0.821386,0.009218,-0.019803,-0.0417,0.020911,0.238734,-0.259673,-2.1948,0.462625,0.065187,-0.104885,0.357056,-2.100904,0.164661,0.0
24,0.658586,0.326195,0.715039,0.156832,0.14743,-0.799481,0.560802,-0.465069,0.321436,0.206426,0.920141,-0.644654,-0.2618,-1.344523,-0.239803,-0.22319,0.941967,-0.089982,-0.01941,-0.035543,0.034486,0.272225,-0.262846,-2.1948,0.460452,0.064746,-0.113752,0.370048,-2.093969,0.175578,0.0
25,0.625331,0.300279,0.718593,0.156984,0.141393,-0.806787,0.551778,-0.450208,0.341157,0.158359,0.954885,-0.450882,-0.2618,-1.313107,-0.215415,-0.207726,1.001349,-0.159422,-0.028699,-0.039793,0.04926,0.315549,-0.259219,-2.1948,0.429475,0.049212,-0.113189,0.384976,-2.066907,0.172599,0.0
26,0.57942,0.275472,0.724155,0.155537,0.132549,-0.819824,0.534909,-0.462731,0.367091,0.09881,1.022014,-0.188243,-0.261753,-1.249695,-0.173032,-0.213065,1.046923,-0.251455,-0.038159,-0.02618,0.060746,0.346006,-0.253196,-2.1948,0.427963,0.03755,-0.115963,0.391904,-2.026441,0.212396,0.0
27,0.538687,0.248016,0.738575,0.162203,0.118359,-0.832134,0.516948,-0.524439,0.371166,0.094011,1.132034,-0.048233,-0.036518,-1.169539,-0.146713,-0.213037,1.033274,-0.312828,-0.044285,0.002567,0.049456,0.344794,-0.250817,-2.1948,0.436831,0.043298,-0.134613,0.378703,-1.996727,0.224602,0.0
28,0.514251,0.227253,0.752367,0.168782,0.113164,-0.840798,0.501762,-0.600654,0.344591,0.084086,1.198497,-0.126608,-0.028789,-1.103502,-0.120939,-0.210886,0.985087,-0.327468,-0.038387,0.036264,0.031422,0.344703,-0.237415,-2.1948,0.404654,0.041897,-0.147985,0.367641,-1.981646,0.186638,0.0
29,0.49327,0.207772,0.766785,0.176352,0.11005,-0.846954,0.489344,-0.708584,0.301035,0.076344,1.229037,-0.168515,-0.05191,-1.041462,-0.106959,-0.223868,0.926717,-0.324826,-0.034049,0.072291,0.017335,0.334434,-0.216129,-2.1948,0.414428,0.029101,-0.162646,0.343658,-1.984033,0.206507,0.0
30,0.475644,0.189186,0.779678,0.18542,0.110696,-0.848616,0.482925,-0.832026,0.255658,0.079444,1.205552,-0.209729,-0.086065,-1.0013,-0.10213,-0.235939,0.884154,-0.30096,-0.022879,0.109404,-0.0018,0.325198,-0.188559,-2.1948,0.440907,0.008396,-0.158246,0.319483,-1.980388,0.214319,0.0
31,0.458129,0.169394,0.787713,0.189622,0.114126,-0.848901,0.479985,-0.946271,0.215786,0.080255,1.140001,-0.253395,-0.118005,-0.960624,-0.095615,-0.247291,0.860063,-0.288326,-0.006749,0.155746,-0.022468,0.319703,-0.152469,-2.1948,0.441172,-0.009516,-0.141652,0.294194,-1.976566,0.198816,0.0
32,0.4394,0.147838,0.789351,0.19063,0.117047,-0.849221,0.478314,-1.045107,0.183577,0.087557,1.051197,-0.285571,-0.12649,-0.91532,-0.090743,-0.258772,0.853946,-0.312988,0.010871,0.211916,-0.045285,0.298874,-0.116008,-2.1948,0.465272,-0.028779,-0.127166,0.267444,-1.980602,0.199799,0.0
33,0.420365,0.125093,0.784452,0.189983,0.118365,-0.849972,0.47691,-1.130097,0.156017,0.110113,0.956794,-0.287437,-0.107587,-0.857689,-0.087237,-0.279243,0.847916,-0.383563,0.011253,0.275766,-0.074212,0.264329,-0.074933,-2.1948,0.499245,-0.051424,-0.114061,0.23881,-1.988763,0.176583,0.0
34,0.399333,0.100706,0.773945,0.182367,0.121107,-0.855244,0.469716,-1.20409,0.136628,0.103227,0.878728,-0.219476,-0.152484,-0.763641,-0.070291,-0.327202,0.81921,-0.496975,0.007692,0.355426,-0.092339,0.224993,-0.035074,-2.1948,0.571005,-0.085684,-0.092573,0.199373,-1.986336,0.063268,0.0
35,0.374029,0.076477,0.763049,0.168881,0.12703,-0.857717,0.468683,-1.270929,0.107097,0.04815,0.840078,-0.115223,-0.200674,-0.681692,-0.044099,-0.34821,0.827811,-0.56035,0.020119,0.407095,-0.101178,0.191044,-0.011506,-2.1948,0.681325,-0.175621,-0.037737,0.160007,-1.951726,-0.086018,0.0
36,0.348297,0.053581,0.749887,0.154484,0.131857,-0.860553,0.467115,-1.324741,0.110959,0.031043,0.883183,-0.09213,-0.111159,-0.639304,-0.037714,-0.37944,0.907004,-0.573155,0.017385,0.426117,-0.16724,0.167588,-0.011498,-2.1948,0.712413,-0.312128,0.02019,0.125257,-1.922395,-0.122269,0.0
37,0.321275,0.026978,0.739099,0.139503,0.130482,-0.866447,0.461284,-1.339468,0.147692,0.015347,0.999299,-0.117318,0.082279,-0.659587,-0.065674,-0.38521,1.086253,-0.452589,-0.007581,0.462651,-0.356605,0.147913,0.015754,-2.1948,0.559548,-0.455504,0.048054,0.094098,-1.926695,-0.121281,0.0
38,0.29281,-0.006952,0.727033,0.125893,0.126292,-0.871721,0.456402,-1.307963,0.188051,-0.028879,1.113689,-0.273501,0.020992,-0.746392,-0.13328,-0.350395,1.356949,-0.313606,0.048225,0.498453,-0.5615,0.120178,0.12751,-2.1948,0.616572,-0.576238,0.065709,0.060971,-1.94542,-0.039949,0.0
39,0.265434,-0.031753,0.708422,0.119441,0.127239,-0.872002,0.457336,-1.324404,0.227909,-0.057278,1.233237,-0.387539,0.000357,-0.895155,-0.177116,-0.268024,1.567028,-0.323501,0.072289,0.492637,-0.737949,0.158234,0.260683,-2.177106,0.615679,-0.640618,0.110292,0.030912,-1.919658,0.040869,0.0
40,0.236514,-0.049543,0.691755,0.124787,0.133574,-0.860095,0.476259,-1.367985,0.213552,-0.126686,1.32014,-0.45655,-0.04377,-1.088622,-0.208023,-0.159046,1.655449,-0.333761,0.130518,0.421183,-0.893598,0.300105,0.294864,-2.101314,0.4139,-0.647923,0.1553,0.048836,-1.881073,0.065163,0.0
41,0.207395,-0.068064,0.681847,0.1411,0.143922,-0.844966,0.495388,-1.405449,0.188554,-0.181222,1.362995,-0.504708,-0.086697,-1.275503,-0.257359,-0.054105,1.60659,-0.324861,0.140154,0.360625,-0.944114,0.474165,0.206414,-2.01338,0.488304,-0.613146,0.16338,0.099923,-1.898366,0.178667,0.0
42,0.180813,-0.086075,0.675618,0.163191,0.156805,-0.832443,0.505786,-1.441193,0.173701,-0.219248,1.383157,-0.544433,-0.126468,-1.420156,-0.332015,-0.008176,1.442059,-0.329253,0.077702,0.326262,-0.863747,0.665739,0.100155,-2.050991,0.487671,-0.570783,0.149447,0.153293,-1.913526,0.282911,0.0
43,0.150099,-0.105049,0.67693,0.172819,0.162732,-0.825952,0.511327,-1.419203,0.193075,-0.246169,1.365975,-0.575595,-0.177348,-1.430435,-0.356101,0.017061,1.198914,-0.318657,0.041906,0.305804,-0.627492,0.85312,0.018425,-2.185674,0.38775,-0.497133,0.131944,0.205195,-1.895902,0.290287,0.0
44,0.120424,-0.126089,0.68406,0.171337,0.161914,-0.818801,0.523443,-1.34892,0.216298,-0.261382,1.317966,-0.594007,-0.219356,-1.342448,-0.31902,0.133362,0.985063,-0.230699,0.145331,0.249898,-0.309591,0.994585,-0.032248,-2.1948,0.401901,-0.416861,0.118964,0.278,-1.876712,0.361781,0.0
45,0.084759,-0.136004,0.69213,0.167962,0.159904,-0.814101,0.532409,-1.287088,0.253022,-0.285514,1.251203,-0.576322,-0.2618,-1.252024,-0.316968,0.121163,0.95363,-0.241196,0.2618,0.222608,-0.027197,1.063094,-0.032217,-2.1948,0.326945,-0.33364,0.095578,0.313733,-1.880181,0.37581,0.0
46,0.057612,-0.150286,0.693206,0.168787,0.149178,-0.813931,0.535512,-1.214366,0.283056,-0.269274,1.210892,-0.573696,-0.2618,-1.236512,-0.326508,0.120105,1.017194,-0.298705,0.2618,0.220286,0.173749,1.059376,-0.015074,-2.1948,0.368665,-0.245392,0.053371,0.313884,-1.898913,0.316041,0.0
47,0.028028,-0.16437,0.698604,0.166852,0.137712,-0.817922,0.533104,-1.124458,0.329717,-0.234487,1.153381,-0.544779,-0.2618,-1.189711,-0.319562,0.11995,1.046078,-0.351817,0.2618,0.22534,0.316672,0.99691,0.014137,-2.1948,0.455752,-0.171521,0.00523,0.300333,-1.935957,0.320738,0.0
48,-0.009004,-0.180843,0.710531,0.159615,0.122646,-0.820693,0.534737,-1.028626,0.371358,-0.205935,1.100705,-0.437528,-0.2618,-1.082408,-0.321689,0.081628,1.037704,-0.409451,0.2618,0.2193,0.366007,0.870615,0.01865,-2.1948,0.424237,-0.110928,-0.019486,0.287048,-1.949243,0.269405,0.0
49,-0.050465,-0.196354,0.727497,0.15654,0.106139,-0.826012,0.530974,-0.968929,0.399601,-0.16881,1.0799,-0.236373,-0.230088,-0.965839,-0.31707,0.030781,0.996859,-0.453104,0.2618,0.226163,0.337677,0.671688,0.010873,-2.192942,0.420137,-0.073568,-0.041626,0.27814,-1.954529,0.190887,0.0
50,-0.085902,-0.210522,0.749818,0.160665,0.091707,-0.828837,0.528021,-0.955719,0.439905,-0.034721,1.080607,-0.037,-0.071762,-0.849713,-0.315166,-0.024284,0.906644,-0.460164,0.258515,0.229852,0.285506,0.456771,0.01456,-2.191971,0.431959,-0.064895,-0.06794,0.270152,-1.977658,0.205351,0.0
51,-0.112097,-0.220691,0.765853,0.167254,0.087733,-0.831509,0.522419,-0.985081,0.393912,-0.009653,1.121063,-0.037513,0.062745,-0.782419,-0.294046,-0.046971,0.836568,-0.441509,0.241307,0.239562,0.223073,0.29521,0.02552,-2.193487,0.418097,-0.080219,-0.07119,0.26288,-1.993521,0.214925,0.0
52,-0.129369,-0.233423,0.775404,0.174387,0.087519,-0.827051,0.527178,-1.044497,0.277023,-0.03144,1.168917,-0.068433,0.013145,-0.738412,-0.291592,-0.06062,0.799074,-0.414345,0.251401,0.22661,0.160949,0.203164,0.019759,-2.189083,0.4245,-0.099104,-0.062728,0.249333,-2.003993,0.195714,0.0
53,-0.1527,-0.243564,0.774819,0.18258,0.092599,-0.810461,0.548856,-1.135524,0.212617,0.035883,1.1938,-0.120391,-0.026693,-0.713819,-0.285831,-0.064489,0.827704,-0.427672,0.26173,0.181856,0.077196,0.193235,-0.003322,-2.181822,0.44057,-0.129744,-0.052202,0.237558,-2.022879,0.203232,0.0
54,-0.177366,-0.252479,0.763078,0.189195,0.105121,-0.794595,0.567251,-1.240062,0.174302,0.13233,1.208008,-0.192948,-0.034635,-0.697934,-0.287266,-0.129222,0.887322,-0.462171,0.251024,0.157131,-0.027028,0.221748,-0.031855,-2.179929,0.424886,-0.163863,-0.040892,0.23515,-2.042369,0.206118,0.0
55,-0.204701,-0.26329,0.741451,0.187922,0.121129,-0.783159,0.580237,-1.343845,0.146553,0.213442,1.22556,-0.25446,-0.082337,-0.642099,-0.25686,-0.218796,0.907685,-0.585442,0.235721,0.162471,-0.144491,0.24398,-0.059293,-2.167449,0.416936,-0.192978,-0.02739,0.229036,-2.051449,0.165053,0.0
56,-0.231143,-0.273997,0.719639,0.180746,0.140821,-0.784003,0.576923,-1.444348,0.138567,0.265417,1.230081,-0.256389,-0.157083,-0.582778,-0.200105,-0.309106,0.903076,-0.6807,0.217162,0.220504,-0.264856,0.241609,-0.089704,-2.158395,0.448266,-0.227339,-0.013944,0.222203,-2.063684,0.139031,0.0
57,-0.259929,-0.291629,0.704323,0.166771,0.163492,-0.785911,0.572539,-1.49985,0.150082,0.32204,1.206276,-0.267928,-0.125896,-0.516163,-0.115186,-0.347237,0.887511,-0.6807,0.219442,0.288711,-0.366565,0.21474,-0.121478,-2.162791,0.440837,-0.265329,0.007758,0.212866,-2.095089,0.168331,0.0
58,-0.294383,-0.314971,0.68864,0.14797,0.182251,-0.781277,0.578357,-1.511524,0.172003,0.396729,1.197027,-0.30208,-0.056141,-0.433978,-0.03327,-0.403715,0.890673,-0.6807,0.205048,0.330074,-0.438217,0.165702,-0.150893,-2.153183,0.435573,-0.294358,0.03334,0.208603,-2.131577,0.17117,0.0
59,-0.341404,-0.349231,0.672658,0.119274,0.194189,-0.775784,0.588408,-1.496626,0.205696,0.415624,1.244279,-0.375217,0.2618,-0.304301,0.072262,-0.457166,0.872584,-0.6807,0.165691,0.367808,-0.491165,0.122483,-0.192527,-2.120848,0.448443,-0.299022,0.062616,0.200477,-2.163362,0.180134,0.0
60,-0.384642,-0.387105,0.664083,0.095414,0.20105,-0.756805,0.61459,-1.436109,0.249518,0.396222,1.288511,-0.555233,0.2618,-0.221828,0.159152,-0.484213,0.88602,-0.538107,0.120916,0.363181,-0.539663,0.082331,-0.22878,-2.089953,0.40629,-0.289304,0.061079,0.199845,-2.187796,0.200048,0.0
61,-0.40583,-0.430052,0.666284,0.084568,0.192708,-0.729505,0.650796,-1.365488,0.209773,0.323689,1.326918,-0.639523,0.2618,-0.253975,0.141446,-0.474414,1.029275,-0.205635,0.115806,0.328892,-0.57342,0.002054,-0.249334,-2.027576,0.434228,-0.250136,-0.006573,0.197725,-2.1948,0.170781,0.0
62,-0.424163,-0.476928,0.669282,0.076661,0.1875,-0.692143,0.692752,-1.304139,0.165467,0.248496,1.362143,-0.674694,0.2618,-0.38491,0.112303,-0.405174,1.266874,0.119165,0.224355,0.265812,-0.609627,-0.067724,-0.24626,-1.96607,0.453773,-0.22551,-0.090212,0.167332,-2.1948,0.109696,0.0
63,-0.443027,-0.51645,0.672932,0.073759,0.18805,-0.657405,0.725958,-1.263802,0.13741,0.181802,1.37454,-0.6807,0.261155,-0.560899,0.080764,-0.343075,1.48634,0.103967,0.184669,0.208204,-0.648763,-0.119755,-0.231657,-1.922075,0.452718,-0.224965,-0.165183,0.1237,-2.1948,0.046654,0.0
64,-0.459284,-0.558489,0.674418,0.075457,0.187677,-0.623419,0.75527,-1.223589,0.114321,0.120987,1.384916,-0.6807,0.209731,-0.746064,-0.027504,-0.297118,1.67137,-0.011327,0.096538,0.134986,-0.668388,-0.166738,-0.210387,-1.889695,0.488604,-0.216186,-0.226518,0.095179,-2.1948,-0.029275,0.0
65,-0.481242,-0.600159,0.672271,0.083266,0.183826,-0.576727,0.791619,-1.196231,0.071766,0.048833,1.39733,-0.6807,0.149622,-0.960125,-0.143041,-0.194904,1.796945,-0.172798,-0.037675,0.028589,-0.674235,-0.217614,-0.196283,-1.877767,0.469973,-0.17914,-0.279484,0.075532,-2.1948,-0.074586,0.0
66,-0.512596,-0.648214,0.670804,0.081338,0.185081,-0.53041,0.823282,-1.189737,0.06822,-0.066279,1.411819,-0.6807,0.046381,-1.145625,-0.208175,-0.062587,1.802703,-0.299862,-0.087654,-0.069042,-0.667867,-0.237488,-0.21259,-1.865357,0.45744,-0.127354,-0.288147,0.068339,-2.1948,-0.076613,0.0
67,-0.54327,-0.701672,0.671616,0.072812,0.188665,-0.495371,0.844814,-1.172176,0.102717,-0.186421,1.398826,-0.6807,-0.061436,-1.280428,-0.255455,0.067225,1.690231,-0.363947,-0.112102,-0.133311,-0.651898,-0.232491,-0.251031,-1.844079,0.471935,-0.064096,-0.266056,0.075231,-2.1948,-0.090269,0.0
68,-0.56943,-0.756246,0.676311,0.061614,0.19112,-0.474296,0.857158,-1.128608,0.171522,-0.280554,1.342848,-0.6807,-0.171384,-1.34723,-0.29605,0.157336,1.464798,-0.381122,-0.158135,-0.162691,-0.633096,-0.20871,-0.29024,-1.832561,0.470959,-0.013006,-0.241282,0.08447,-2.1948,-0.051162,0.0
69,-0.590347,-0.814247,0.687363,0.046638,0.184294,-0.46156,0.8665,-1.019605,0.27466,-0.325602,1.221412,-0.6807,-0.2618,-1.289203,-0.336813,0.165486,1.139998,-0.286283,-0.179061,-0.173545,-0.598331,-0.175426,-0.319557,-1.836848,0.456708,0.040434,-0.217589,0.109577,-2.1948,-0.034042,0.0
70,-0.605559,-0.858677,0.697366,0.036125,0.180901,-0.436236,0.88072,-0.947693,0.330759,-0.372686,1.106286,-0.660204,-0.2618,-1.168699,-0.357281,0.173414,0.847613,-0.054398,-0.113748,-0.205072,-0.533178,-0.144501,-0.367588,-1.867895,0.454943,0.064597,-0.194016,0.119283,-2.1948,-0.029896,0.0
71,-0.636393,-0.913033,0.704854,0.025939,0.172142,-0.425446,0.888082,-0.866094,0.429501,-0.398493,0.973311,-0.553623,-0.2618,-1.077628,-0.337574,0.187881,0.876437,-0.078786,0.2618,-0.215336,-0.501877,-0.120964,-0.364559,-1.890872,0.472745,0.042041,-0.208469,0.109744,-2.1948,-0.018796,0.0
72,-0.677514,-0.987152,0.716167,0.010331,0.146194,-0.428259,0.891692,-0.682578,0.587179,-0.297132,0.791494,-0.360587,-0.2618,-0.921883,-0.286728,0.076825,0.943235,-0.26911,0.2618,-0.190541,-0.490781,-0.116423,-0.315305,-1.894376,0.494416,0.033538,-0.27681,0.08964,-2.1948,-0.033541,0.0
73,-0.716333,-1.053962,0.73124,-0.001624,0.138742,-0.416882,0.898308,-0.646997,0.706223,-0.12538,0.711866,-0.117061,-0.120388,-0.810018,-0.218127,-0.043542,0.984729,-0.359594,0.260965,-0.16063,-0.484671,-0.121864,-0.307841,-1.895899,0.502921,0.016359,-0.365425,0.043989,-2.1948,0.004981,0.0
74,-0.750231,-1.094511,0.750127,-0.007179,0.148568,-0.403661,0.902737,-0.776922,0.707038,-0.074362,0.831598,-0.078425,-0.104755,-0.781975,-0.147738,-0.122823,0.985057,-0.311694,0.193508,-0.146929,-0.476287,-0.123455,-0.316892,-1.915389,0.496009,-0.030947,-0.507652,0.002042,-2.1948,0.077118,0.0
75,-0.778246,-1.130979,0.769765,-0.007224,0.160382,-0.366861,0.916318,-0.962478,0.602933,-0.108964,1.075923,-0.094749,-0.180712,-0.813891,-0.115946,-0.149478,1.029136,-0.132633,0.210878,-0.20138,-0.453662,-0.133022,-0.317966,-1.937416,0.469417,-0.085935,-0.729055,-0.038925,-2.1948,0.19365,0.0
76,-0.829277,-1.186333,0.787847,-0.013223,0.182422,-0.321901,0.928939,-1.143093,0.56727,-0.072388,1.210145,-0.027554,-0.251373,-0.896113,-0.035954,-0.105733,1.109515,0.034495,0.2618,-0.277673,-0.406559,-0.087374,-0.319683,-1.969392,0.465763,-0.128371,-0.935954,-0.095878,-2.185498,0.501166,0.0
77,-0.868601,-1.218098,0.800331,-0.017446,0.203013,-0.274077,0.939874,-1.233257,0.436331,-0.050573,1.255729,0.040477,-0.2618,-0.964428,-0.058897,-0.072373,1.13749,0.060757,0.2618,-0.348043,-0.343634,-0.028643,-0.335954,-2.018605,0.471627,-0.238732,-1.093973,-0.134011,-1.856693,0.699495,0.0
78,-0.879573,-1.234253,0.797498,-0.02962,0.229446,-0.246823,0.94104,-1.25181,0.270051,-0.066164,1.263947,0.020697,-0.2618,-1.021253,-0.205029,-0.119373,1.117741,0.06317,0.2618,-0.318327,-0.293402,0.019598,-0.422506,-2.078686,0.457372,-0.249125,-1.230731,-0.345795,-1.191088,0.44599,0.0
79,-0.89532,-1.294458,0.785513,-0.045756,0.241281,-0.235886,0.940238,-1.223881,0.272291,-0.049022,1.244468,-0.080878,-0.154144,-1.002112,-0.270909,-0.164446,1.046193,-0.007639,0.240105,-0.307362,-0.236557,0.069925,-0.445816,-2.117371,0.437919,-0.372869,-1.245508,-0.354544,-0.921727,0.859201,0.0
80,-0.927548,-1.336882,0.7737,-0.052608,0.251553,-0.216482,0.941854,-1.224336,0.370643,0.070667,1.201946,-0.26382,-0.031383,-1.00489,-0.335144,-0.195312,0.899602,0.019181,0.158396,-0.342314,-0.204335,0.107827,-0.440521,-2.143899,0.404541,-0.39005,-1.074793,-0.311463,-1.203233,0.61412,0.0
81,-0.942027,-1.373596,0.765315,-0.04678,0.240719,-0.196783,0.949285,-1.20659,0.34087,-0.037101,1.185654,-0.335729,-0.106112,-0.944128,-0.341822,-0.049095,0.716238,0.131859,0.075358,-0.44968,-0.155087,0.084577,-0.374027,-2.16193,0.403504,-0.44186,-0.873508,-0.092741,-1.564007,0.705602,0.0
82,-0.9421,-1.415647,0.749909,-0.029564,0.22164,-0.169166,0.959888,-1.201993,0.279209,-0.171586,1.238299,-0.29889,-0.172766,-0.845163,-0.343746,0.154194,0.636176,0.220572,0.203726,-0.542633,-0.154916,0.023406,-0.314232,-2.161223,0.420082,-0.280926,-0.746801,-0.017056,-1.889134,0.542866,0.0
83,-0.968983,-1.488321,0.72598,-0.012759,0.201773,-0.170846,0.964332,-1.24311,0.311813,-0.282474,1.288326,-0.24339,-0.203831,-0.797267,-0.351127,0.107365,0.75689,-0.199148,0.2618,-0.52029,-0.232835,-0.045531,-0.287806,-2.136802,0.432363,-0.09999,-0.702227,0.034244,-2.151225,0.490476,0.0
84,-0.997688,-1.526963,0.693582,-0.009152,0.196039,-0.180868,0.963728,-1.345662,0.353481,-0.348627,1.371807,-0.26363,-0.157756,-0.919816,-0.308291,0.148093,0.982625,-0.444271,0.2618,-0.42904,-0.297186,-0.103524,-0.338674,-2.093785,0.417877,-0.052336,-0.665957,0.102745,-2.1948,0.753611,0.0
85,-1.008891,-1.558073,0.668496,-0.004495,0.185443,-0.197641,0.962564,-1.34093,0.427772,-0.365401,1.386738,-0.332733,-0.215288,-1.025768,-0.255135,0.222495,1.191683,-0.527477,0.2618,-0.390292,-0.309266,-0.130901,-0.33595,-2.058638,0.424611,0.016914,-0.645561,0.184357,-2.1948,0.698073,0.0
86,-1.010185,-1.571342,0.659517,0.001667,0.165406,-0.21104,0.96338,-1.232691,0.481807,-0.331281,1.344771,-0.388984,-0.2618,-1.02927,-0.244845,0.257197,1.263178,-0.569106,0.2618,-0.381898,-0.319085,-0.146419,-0.308587,-2.027629,0.437014,0.039756,-0.677768,0.194548,-2.1948,0.597674,0.0
87,-1.022901,-1.574357,0.658163,0.003377,0.157788,-0.222354,0.962107,-1.187915,0.513465,-0.311924,1.298619,-0.416501,-0.2618,-1.030799,-0.224426,0.271587,1.263405,-0.607046,0.2618,-0.363168,-0.323179,-0.14633,-0.312221,-2.02073,0.43978,0.006032,-0.71947,0.161662,-2.1948,0.56147,0.0
88,-1.035244,-1.578089,0.66569,-1.4e-05,0.157026,-0.226038,0.961379,-1.156058,0.548693,-0.279732,1.223209,-0.430093,-0.2618,-1.034503,-0.201296,0.256221,1.253338,-0.584865,0.2618,-0.356939,-0.315563,-0.118364,-0.330953,-2.044036,0.444217,-0.026592,-0.770722,0.135002,-2.1948,0.503174,0.0
89,-1.044662,-1.58276,0.682342,-0.007013,0.161449,-0.220558,0.961893,-1.141638,0.575985,-0.241905,1.132706,-0.395849,-0.2618,-1.031018,-0.18362,0.209016,1.227454,-0.50307,0.2618,-0.35525,-0.305487,-0.081437,-0.341903,-2.07408,0.422405,-0.061273,-0.862468,0.103603,-2.1948,0.513717,0.0
90,-1.053764,-1.595052,0.713874,-0.017657,0.162569,-0.207832,0.964399,-1.067173,0.604976,-0.174341,0.958505,-0.273889,-0.2618,-0.979039,-0.153383,0.15242,1.151647,-0.348935,0.2618,-0.359045,-0.288567,-0.068147,-0.335945,-2.082209,0.408397,-0.065393,-0.979246,0.048987,-2.1948,0.569936,0.0
91,-1.071454,-1.615691,0.741852,-0.031561,0.173229,-0.189859,0.965893,-1.038346,0.633094,-0.128016,0.766333,-0.118025,-0.2618,-0.965202,-0.103528,0.097959,1.09705,-0.190626,0.2618,-0.363948,-0.294653,-0.053861,-0.32741,-2.075626,0.406883,-0.09028,-1.082085,-0.02803,-2.092151,0.710492,0.0
92,-1.096444,-1.645803,0.758405,-0.052506,0.190535,-0.162116,0.966777,-1.079464,0.671245,-0.07066,0.613095,-0.010186,-0.2618,-0.984013,-0.062557,0.027033,1.088322,-0.102482,0.2618,-0.332894,-0.324357,-0.043627,-0.371826,-2.057878,0.399446,-0.174401,-1.159506,-0.13939,-1.633499,0.683506,0.0
93,-1.112561,-1.6489,0.770304,-0.05285,0.205447,-0.119059,0.96996,-1.143586,0.583752,-0.111242,0.681391,-0.048782,-0.2618,-0.998584,-0.09822,0.042602,1.041078,-0.119898,0.2618,-0.309074,-0.3803,-0.073675,-0.434822,-2.02951,0.389271,-0.124225,-1.339031,-0.392196,-1.078469,0.476869,0.0
94,-1.1198,-1.643002,0.77438,-0.050362,0.204137,-0.090098,0.973486,-1.141853,0.492431,-0.201287,0.866989,-0.090931,-0.2618,-0.980831,-0.181031,0.064339,0.975261,-0.1233,0.2618,-0.337403,-0.394445,-0.081218,-0.424628,-2.00657,0.360138,-0.248688,-1.260567,-0.352855,-1.048458,0.921962,0.0
95,-1.123817,-1.636781,0.765837,-0.051362,0.203758,-0.066129,0.975434,-1.097456,0.435358,-0.242472,1.018804,-0.131641,-0.2618,-0.957267,-0.256318,0.101494,0.897181,-0.136902,0.2618,-0.390957,-0.372506,-0.06267,-0.3986,-2.011207,0.34023,-0.270502,-1.064609,-0.261063,-1.321198,0.636001,0.0
96,-1.130739,-1.635174,0.748801,-0.052804,0.19322,-0.04168,0.978847,-0.982392,0.426153,-0.223956,1.006309,-0.334235,-0.2618,-0.91495,-0.346042,0.086791,0.832387,-0.157389,0.193493,-0.493601,-0.299639,-0.035506,-0.322956,-2.032615,0.358358,-0.258871,-0.896647,-0.093828,-1.619678,0.848392,0.0
97,-1.137343,-1.64392,0.734428,-0.045037,0.185502,-0.019155,0.981424,-0.954322,0.41787,-0.205019,0.979119,-0.453357,-0.2618,-0.889276,-0.434225,0.043865,0.79954,-0.14335,0.109914,-0.553539,-0.272866,-0.035667,-0.28257,-2.033855,0.359698,-0.118516,-0.757769,-0.06752,-1.85423,0.790364,0.0
98,-1.137639,-1.65404,0.719313,-0.034016,0.170028,0.007861,0.984821,-0.980576,0.394801,-0.231224,1.037947,-0.463853,-0.2618,-0.843523,-0.498355,0.052187,0.820482,-0.101972,0.108044,-0.596772,-0.261358,-0.042002,-0.268797,-2.035906,0.373746,0.032744,-0.70162,-0.04937,-2.042046,0.710873,0.0
99,-1.1466,-1.672111,0.705751,-0.027711,0.159318,-0.012318,0.986761,-0.962159,0.433547,-0.231095,1.050133,-0.484466,-0.2618,-0.872416,-0.526954,0.007353,0.869685,-0.164643,0.261798,-0.54267,-0.27144,-0.040397,-0.277203,-2.034437,0.418066,0.094824,-0.692859,-0.03733,-2.177209,0.771608,0.0
100,-1.162099,-1.6991,0.694768,-0.025042,0.147139,-0.055826,0.987222,-0.911812,0.524751,-0.183493,1.029527,-0.490275,-0.2618,-0.936774,-0.486121,0.01043,0.940508,-0.282867,0.2618,-0.456737,-0.286916,-0.058568,-0.266581,-2.018923,0.464862,0.085227,-0.703357,-0.013429,-2.189298,0.654053,0.0
101,-1.175994,-1.734412,0.697236,-0.026891,0.142714,-0.073655,0.986653,-0.886525,0.592271,-0.174551,0.952953,-0.401567,-0.2618,-0.953469,-0.406888,0.03986,0.981377,-0.332711,0.2618,-0.420849,-0.313599,-0.081013,-0.262688,-2.014639,0.498478,0.025403,-0.704706,-0.03443,-2.1948,0.506763,0.0
102,-1.183276,-1.773132,0.710169,-0.030604,0.139183,-0.069948,0.987319,-0.826683,0.640776,-0.148222,0.804328,-0.259544,-0.2618,-0.904587,-0.357768,-0.02002,0.984364,-0.373085,0.2618,-0.430515,-0.352567,-0.091134,-0.25629,-2.009018,0.519196,-0.052951,-0.67841,-0.063591,-2.1948,0.45156,0.0
103,-1.192893,-1.826687,0.728752,-0.038217,0.137715,-0.072547,0.987072,-0.722532,0.719901,-0.023682,0.601646,-0.048985,-0.2618,-0.846877,-0.280725,-0.115387,0.967363,-0.395473,0.24825,-0.415772,-0.402606,-0.104356,-0.243108,-1.981779,0.514183,-0.103248,-0.624473,-0.075984,-2.1948,0.365855,0.0
104,-1.20662,-1.889483,0.745737,-0.053067,0.146374,-0.069398,0.985364,-0.723743,0.771931,0.138003,0.523262,0.026778,-0.198783,-0.808086,-0.173883,-0.222993,0.940154,-0.391375,0.16846,-0.400464,-0.447328,-0.109519,-0.251522,-1.966073,0.516249,-0.156459,-0.557989,-0.084236,-2.1948,0.264444,0.0
105,-1.227633,-1.918671,0.767942,-0.057951,0.15949,-0.044165,0.984507,-0.84411,0.682892,0.124637,0.64798,-0.046806,-0.237254,-0.817519,-0.139945,-0.289539,0.892807,-0.270682,0.132265,-0.42755,-0.488163,-0.115521,-0.264966,-1.954088,0.5065,-0.21045,-0.498858,-0.094118,-2.1948,0.164228,0.0
106,-1.247152,-1.943438,0.78328,-0.062541,0.171333,-0.014917,0.983113,-0.936737,0.597395,0.140707,0.827726,-0.106202,-0.2618,-0.875873,-0.134008,-0.305193,0.912714,-0.114097,0.207452,-0.462477,-0.517255,-0.100983,-0.280643,-1.935685,0.484393,-0.225595,-0.418942,-0.09641,-2.1948,0.062411,0.0
107,-1.270898,-1.998753,0.794173,-0.072021,0.173951,-0.014632,0.982008,-0.959052,0.525209,0.053694,0.937763,-0.120828,-0.2618,-0.943838,-0.066537,-0.23742,0.97172,0.002926,0.2618,-0.443366,-0.522848,-0.066732,-0.295641,-1.922846,0.485581,-0.211376,-0.347419,-0.078429,-2.1948,0.026888,0.0
108,-1.283693,-2.033089,0.798807,-0.077064,0.170323,-0.005121,0.982357,-0.92308,0.414489,-0.009733,1.041517,-0.17508,-0.2618,-0.974033,-0.041695,-0.108915,1.009392,0.016943,0.2618,-0.448875,-0.510895,-0.021678,-0.315765,-1.926836,0.490603,-0.188596,-0.292113,-0.057113,-2.1948,-0.043066,0.0
109,-1.289269,-2.055789,0.792679,-0.086488,0.169275,0.005965,0.981749,-0.877569,0.338126,-0.013918,1.121252,-0.176328,-0.2618,-0.983745,-0.125838,-0.104767,1.036205,-0.016979,0.2618,-0.463115,-0.485814,0.041493,-0.345749,-1.946393,0.503188,-0.178645,-0.224327,-0.049647,-2.1948,-0.158257,0.0
110,-1.291334,-2.083288,0.776623,-0.09182,0.162693,0.033543,0.981822,-0.793343,0.347002,0.069444,1.092927,-0.326074,-0.139881,-0.958645,-0.27779,-0.163386,1.046756,-0.081488,0.2618,-0.519848,-0.438643,0.10163,-0.351543,-1.974707,0.525253,-0.189254,-0.168688,-0.068024,-2.1948,-0.203384,0.0
111,-1.292068,-2.101819,0.762227,-0.086709,0.152502,0.055877,0.982905,-0.757692,0.34649,0.046867,1.079818,-0.463159,-0.168178,-0.899795,-0.414464,-0.161387,0.981946,-0.078753,0.256628,-0.57171,-0.411359,0.117579,-0.345891,-1.979041,0.518712,-0.219431,-0.137465,-0.107961,-2.1948,-0.264257,0.0
112,-1.281914,-2.120397,0.748918,-0.083653,0.131798,0.075036,0.984886,-0.767578,0.355264,-0.046012,1.150237,-0.460072,-0.225945,-0.762864,-0.500718,-0.139327,0.884541,-0.016149,0.187375,-0.619147,-0.369218,0.115989,-0.32153,-1.975175,0.518969,-0.223741,-0.1402,-0.152967,-2.1948,-0.357043,0.0
113,-1.277435,-2.144766,0.73323,-0.078122,0.119185,0.084715,0.986162,-0.800209,0.37943,-0.10404,1.216596,-0.456454,-0.2618,-0.681722,-0.561727,-0.118642,0.832457,0.06851,0.113872,-0.635367,-0.351554,0.099419,-0.30076,-1.975035,0.525923,-0.258496,-0.16749,-0.211408,-2.1948,-0.336715,0.0
114,-1.27949,-2.169336,0.717521,-0.06897,0.104772,0.066419,0.989876,-0.781259,0.416374,-0.11108,1.252776,-0.481933,-0.2618,-0.661947,-0.616908,-0.110463,0.802378,0.163274,0.215423,-0.601792,-0.351328,0.050468,-0.273098,-1.955959,0.498561,-0.319231,-0.231968,-0.241135,-2.176709,-0.312764,0.0
115,-1.279083,-2.194256,0.704926,-0.05921,0.086137,0.03182,0.994013,-0.720668,0.469502,-0.080923,1.27576,-0.483996,-0.2618,-0.680906,-0.595658,-0.011143,0.798396,0.267367,0.2618,-0.553547,-0.361873,-0.014238,-0.263533,-1.928811,0.501527,-0.455162,-0.340429,-0.229816,-2.054248,-0.248825,0.0
116,-1.280809,-2.229298,0.700314,-0.05169,0.073255,-0.014331,0.99587,-0.687139,0.533943,-0.062361,1.291871,-0.381278,-0.2618,-0.696005,-0.583723,-0.052582,0.835859,0.093823,0.2618,-0.505942,-0.373424,-0.029759,-0.271844,-1.957539,0.493008,-0.569325,-0.379378,-0.174958,-2.024538,0.019576,0.0
117,-1.27126,-2.269369,0.695819,-0.041281,0.050694,-0.057595,0.996197,-0.623185,0.573536,-0.079688,1.313628,-0.210275,-0.2618,-0.655366,-0.554273,-0.047247,0.871168,-0.116713,0.2618,-0.468796,-0.361433,-0.016066,-0.276898,-2.001585,0.480555,-0.570726,-0.34094,-0.077704,-2.0699,0.097148,0.0
118,-1.255333,-2.320746,0.689665,-0.037429,0.026786,-0.109145,0.99296,-0.527177,0.604637,-0.123065,1.345622,-0.142243,-0.2618,-0.685397,-0.478715,0.051259,1.000178,-0.250207,0.2618,-0.418235,-0.299266,0.03311,-0.28862,-2.063447,0.500554,-0.491715,-0.275888,0.062611,-2.166613,0.184808,0.0
119,-1.248299,-2.345959,0.677303,-0.031679,0.016561,-0.163552,0.985887,-0.48503,0.576269,-0.151441,1.419297,-0.234343,-0.2618,-0.79998,-0.418396,0.156564,1.135452,-0.293651,0.2618,-0.36111,-0.225923,0.104683,-0.2944,-2.15797,0.499762,-0.457569,-0.194134,0.176912,-2.1948,0.421985,0.0
120,-1.246455,-2.354945,0.672565,-0.016278,0.012993,-0.192966,0.980984,-0.519232,0.539805,-0.134992,1.432018,-0.285043,-0.2618,-0.857755,-0.401079,0.228752,1.173026,-0.33741,0.2618,-0.346817,-0.183906,0.134072,-0.284306,-2.194215,0.490621,-0.418898,-0.122906,0.224319,-2.1948,0.411222,0.0
121,-1.246225,-2.372059,0.667769,-0.007864,0.005875,-0.201942,0.979348,-0.572898,0.552698,-0.117974,1.360916,-0.30083,-0.2618,-0.833775,-0.389999,0.24916,1.187322,-0.440571,0.2618,-0.365311,-0.139698,0.130033,-0.264137,-2.191504,0.51303,-0.384615,-0.090754,0.234248,-2.1948,0.398405,0.0
122,-1.239691,-2.383985,0.666062,-0.007683,-0.005337,-0.203004,0.979133,-0.583882,0.571432,-0.133731,1.376047,-0.285845,-0.2618,-0.795206,-0.3968,0.23499,1.208004,-0.482476,0.2618,-0.37708,-0.115235,0.10512,-0.252447,-2.180307,0.516334,-0.364948,-0.097382,0.223784,-2.1948,0.382747,0.0
123,-1.233736,-2.382766,0.665317,-0.015487,-0.010314,-0.202364,0.979134,-0.591242,0.597891,-0.132819,1.369506,-0.260997,-0.2618,-0.775806,-0.398153,0.21567,1.218292,-0.467686,0.2618,-0.364613,-0.101837,0.071679,-0.252161,-2.182055,0.507005,-0.381279,-0.117008,0.205809,-2.1948,0.311308,0.0
124,-1.230256,-2.382313,0.665954,-0.033892,-0.010511,-0.193071,0.980543,-0.588287,0.631296,-0.165541,1.346167,-0.278318,-0.2618,-0.714807,-0.382677,0.160235,1.197183,-0.469423,0.2618,-0.325308,-0.102655,0.042101,-0.262494,-2.181492,0.539063,-0.430889,-0.166605,0.179954,-2.1948,0.315608,0.0
125,-1.228367,-2.378044,0.667984,-0.058812,-0.006744,-0.168445,0.983932,-0.600635,0.667568,-0.213342,1.298455,-0.350962,-0.2618,-0.638413,-0.368721,0.072264,1.162414,-0.454383,0.2618,-0.265757,-0.132575,0.007406,-0.279225,-2.165857,0.544016,-0.458008,-0.250705,0.150133,-2.1948,0.321009,0.0
126,-1.228112,-2.376165,0.66906,-0.087182,0.000945,-0.136033,0.98686,-0.666846,0.735274,-0.238526,1.255885,-0.442602,-0.2618,-0.593721,-0.347363,-0.020206,1.16267,-0.399107,0.2618,-0.180103,-0.186117,-0.047591,-0.291013,-2.130812,0.531842,-0.456705,-0.379651,0.106227,-2.1948,0.298342,0.0
127,-1.225382,-2.374555,0.673338,-0.108694,0.011645,-0.092108,0.98973,-0.763043,0.780733,-0.256071,1.201798,-0.527303,-0.2618,-0.580152,-0.331804,-0.072096,1.185278,-0.29102,0.2618,-0.112555,-0.247036,-0.116441,-0.279895,-2.064889,0.536489,-0.430157,-0.541455,0.050973,-2.1948,0.235239,0.0
128,-1.216705,-2.374556,0.679804,-0.122281,0.023239,-0.056029,0.99064,-0.819625,0.76472,-0.32559,1.148095,-0.553777,-0.2618,-0.570448,-0.303786,-0.069549,1.189255,-0.189368,0.2618,-0.064673,-0.283163,-0.172082,-0.244985,-2.003552,0.502594,-0.346361,-0.672839,0.013196,-2.1948,0.181821,0.0
129,-1.207493,-2.376074,0.683448,-0.133739,0.031249,-0.041996,0.989633,-0.853133,0.765617,-0.376298,1.124372,-0.552835,-0.2618,-0.561719,-0.266321,-0.055848,1.181713,-0.12716,0.2618,-0.015434,-0.279467,-0.20213,-0.226991,-1.96668,0.483812,-0.252887,-0.723871,-0.011674,-2.1948,0.21131,0.0
130,-1.199931,-2.371601,0.682376,-0.144063,0.033297,-0.040634,0.988173,-0.855284,0.777923,-0.394222,1.12462,-0.579207,-0.2618,-0.568106,-0.25127,-0.063529,1.189492,-0.065454,0.2618,0.022108,-0.265044,-0.220603,-0.226241,-1.942701,0.479468,-0.184479,-0.702437,-0.018852,-2.1948,0.237884,0.0
131,-1.189151,-2.363223,0.677832,-0.15079,0.028621,-0.045545,0.987101,-0.80444,0.796914,-0.368672,1.135917,-0.632137,-0.2618,-0.596603,-0.252266,-0.053082,1.22772,0.033534,0.2618,0.03757,-0.259599,-0.232173,-0.229468,-1.922885,0.460097,-0.14727,-0.655863,-0.000119,-2.1948,0.253623,0.0
132,-1.180505,-2.359897,0.676187,-0.154832,0.024656,-0.054003,0.986156,-0.747275,0.819784,-0.328906,1.135896,-0.658127,-0.2618,-0.654228,-0.243946,-0.01165,1.282085,0.145842,0.250127,0.028192,-0.265951,-0.229269,-0.242103,-1.918349,0.445815,-0.147074,-0.587601,0.015907,-2.1948,0.280119,0.0
133,-1.176975,-2.362049,0.678418,-0.155506,0.026657,-0.060008,0.98565,-0.719044,0.835044,-0.297807,1.11891,-0.65557,-0.2618,-0.718326,-0.235594,0.025007,1.329006,0.209102,0.233188,-0.007747,-0.280537,-0.209777,-0.265369,-1.937404,0.441577,-0.158322,-0.51261,0.020273,-2.1948,0.265767,0.0
134,-1.177866,-2.369569,0.683475,-0.150352,0.032441,-0.064566,0.985988,-0.692746,0.840583,-0.257962,1.08084,-0.634246,-0.2618,-0.759185,-0.253368,0.022092,1.342468,0.148592,0.238659,-0.056402,-0.314782,-0.188879,-0.276603,-1.966965,0.43248,-0.186689,-0.476332,0.025458,-2.1948,0.268247,0.0
135,-1.179575,-2.383679,0.689723,-0.140986,0.037431,-0.070871,0.986762,-0.639782,0.845972,-0.195045,1.024323,-0.59256,-0.2618,-0.774697,-0.296223,-0.034612,1.307024,0.043004,0.247951,-0.097312,-0.357874,-0.171871,-0.276958,-1.987576,0.432565,-0.233641,-0.462199,0.031756,-2.1948,0.301559,0.0
136,-1.177277,-2.400412,0.699522,-0.124971,0.037363,-0.078423,0.98835,-0.508246,0.842791,-0.063647,0.939803,-0.523958,-0.2618,-0.754487,-0.372785,-0.160248,1.241848,-0.022207,0.144506,-0.143022,-0.394238,-0.165189,-0.254926,-1.999882,0.449199,-0.285617,-0.454409,0.051688,-2.1948,0.316412,0.0
137,-1.176863,-2.421857,0.709253,-0.104023,0.037316,-0.098265,0.989005,-0.385511,0.837469,0.081313,0.880462,-0.406436,-0.2618,-0.728527,-0.440127,-0.310093,1.18626,0.004847,0.130823,-0.174185,-0.425743,-0.157777,-0.238258,-2.016948,0.457604,-0.354062,-0.453702,0.084528,-2.1948,0.293858,0.0
138,-1.177784,-2.450457,0.7147,-0.079882,0.036271,-0.13797,0.986543,-0.311027,0.845511,0.209523,0.899106,-0.235343,-0.2618,-0.68589,-0.465345,-0.451015,1.169354,-0.158815,0.053616,-0.180261,-0.447906,-0.132345,-0.226406,-2.043322,0.473865,-0.441529,-0.439666,0.141035,-2.1948,0.313714,0.0
139,-1.174142,-2.487798,0.715533,-0.062314,0.034062,-0.191073,0.979004,-0.26047,0.865039,0.28667,0.954182,-0.010311,-0.2618,-0.609004,-0.403529,-0.521966,1.108525,-0.40441,0.013869,-0.159468,-0.44474,-0.061237,-0.226462,-2.088118,0.500562,-0.504434,-0.389904,0.19659,-2.1948,0.334082,0.0
140,-1.159118,-2.52277,0.722996,-0.050649,0.028248,-0.230971,0.971231,-0.214955,0.87185,0.357079,0.99782,0.188252,-0.161268,-0.558033,-0.338744,-0.465078,1.063016,-0.472153,0.075754,-0.146431,-0.413759,0.029842,-0.231116,-2.138409,0.493941,-0.518931,-0.324407,0.240796,-2.1948,0.30339,0.0
141,-1.140709,-2.542555,0.734714,-0.033522,0.021242,-0.282095,0.958565,-0.231987,0.715079,0.202237,1.0827,0.182466,-0.063603,-0.54377,-0.312444,-0.391847,1.023502,-0.470635,0.076826,-0.09872,-0.362399,0.093758,-0.226818,-2.179096,0.476203,-0.516537,-0.265934,0.27454,-2.1948,0.317924,0.0
142,-1.123951,-2.55627,0.752106,-0.014389,0.023257,-0.319558,0.947172,-0.322259,0.559282,0.086778,1.174927,0.128092,-0.110761,-0.520397,-0.290884,-0.332527,0.936623,-0.451881,0.095231,-0.068355,-0.30852,0.143619,-0.217671,-2.194176,0.517714,-0.495841,-0.206831,0.28456,-2.1948,0.33687,0.0
143,-1.106793,-2.575074,0.769873,0.003519,0.025447,-0.338752,0.940525,-0.417673,0.491672,0.106436,1.226069,0.061484,-0.089761,-0.464969,-0.283187,-0.31712,0.838906,-0.435069,0.104001,-0.06037,-0.268037,0.180607,-0.208306,-2.194645,0.531233,-0.44827,-0.150855,0.285323,-2.1948,0.341322,0.0
144,-1.088408,-2.587326,0.785934,0.024088,0.029276,-0.355461,0.933922,-0.515389,0.40442,0.13871,1.232904,-0.035974,-0.037964,-0.427534,-0.297616,-0.300772,0.747531,-0.401663,0.130022,-0.046419,-0.232644,0.194415,-0.1996,-2.194796,0.504449,-0.399519,-0.098025,0.282991,-2.189363,0.360664,0.0
145,-1.069736,-2.594573,0.795387,0.044118,0.038865,-0.374608,0.925317,-0.629916,0.302508,0.145229,1.200523,-0.101644,-0.040204,-0.440823,-0.321861,-0.261364,0.702353,-0.368422,0.177144,-0.0213,-0.194733,0.197965,-0.193531,-2.194799,0.517742,-0.376838,-0.049552,0.27748,-2.168355,0.367625,0.0
146,-1.050744,-2.603317,0.794745,0.059426,0.051888,-0.394491,0.915507,-0.750409,0.223551,0.131552,1.136351,-0.14061,-0.091711,-0.492954,-0.345099,-0.212822,0.72073,-0.36415,0.221783,-0.00286,-0.157993,0.203293,-0.189574,-2.194791,0.514258,-0.373732,-0.005784,0.278844,-2.152024,0.352381,0.0
147,-1.031283,-2.616385,0.784969,0.070858,0.062588,-0.417505,0.903743,-0.858799,0.183199,0.111782,1.054062,-0.191482,-0.113922,-0.565523,-0.376887,-0.184952,0.793494,-0.387656,0.249688,0.015976,-0.114551,0.212673,-0.181459,-2.194799,0.49437,-0.375128,0.031613,0.280861,-2.136702,0.344791,0.0
148,-1.009301,-2.633006,0.768275,0.080266,0.068921,-0.444371,0.889574,-0.956149,0.175914,0.079027,0.974092,-0.225874,-0.132506,-0.644443,-0.391309,-0.109338,0.886684,-0.434159,0.249284,0.038553,-0.051525,0.223056,-0.167185,-2.194799,0.491501,-0.368915,0.067649,0.281619,-2.111532,0.327345,0.0
149,-0.987627,-2.653181,0.748503,0.08814,0.071561,-0.468175,0.876312,-1.033814,0.167683,-0.003626,0.881785,-0.233486,-0.142088,-0.699988,-0.401577,-0.03232,0.97637,-0.507201,0.2618,0.050087,0.006333,0.234168,-0.153981,-2.194799,0.487077,-0.356668,0.098723,0.285427,-2.082147,0.281953,0.0
150,-0.966146,-2.677336,0.730236,0.092107,0.069088,-0.489932,0.864124,-1.067188,0.153465,-0.1286,0.801265,-0.129341,-0.226654,-0.714152,-0.408319,0.03522,1.041234,-0.575599,0.2618,0.058593,0.050556,0.256388,-0.144455,-2.1948,0.465172,-0.335045,0.121917,0.289438,-2.050012,0.223468,0.0
151,-0.946115,-2.698889,0.720986,0.09535,0.062578,-0.508378,0.853548,-1.062263,0.120709,-0.22019,0.814871,0.015229,-0.254488,-0.69261,-0.423333,0.075431,1.057806,-0.614769,0.2618,0.058917,0.076817,0.27834,-0.139792,-2.1948,0.467047,-0.313547,0.121416,0.301229,-2.02819,0.187671,0.0
152,-0.922321,-2.711356,0.715771,0.093835,0.058004,-0.509947,0.853103,-1.056754,0.122449,-0.183663,0.89786,-0.076995,-0.247766,-0.65916,-0.457055,0.077193,1.064259,-0.598971,0.2618,0.022607,0.044387,0.317905,-0.144347,-2.1948,0.502043,-0.318817,0.117529,0.315826,-2.025945,0.173477,0.0
153,-0.889486,-2.724749,0.724161,0.087136,0.042791,-0.502324,0.859213,-1.004613,0.101446,-0.13772,0.950144,-0.106404,-0.198943,-0.552607,-0.509537,0.032067,1.022678,-0.494718,0.2618,-0.017694,-0.044782,0.357406,-0.148149,-2.1948,0.473225,-0.316947,0.108457,0.314929,-2.034383,0.175483,0.0
154,-0.834816,-2.736293,0.745307,0.081421,0.012779,-0.481217,0.872719,-0.861585,0.011142,-0.120839,0.935578,-0.099794,-0.17048,-0.386437,-0.585648,-0.021857,0.949137,-0.253499,0.2618,-0.051836,-0.099197,0.334797,-0.155334,-2.1948,0.460766,-0.275139,0.066573,0.307877,-2.050791,0.197692,0.0
155,-0.794465,-2.746204,0.771331,0.065994,-0.0031,-0.453148,0.888984,-0.757963,-0.04599,-0.142994,0.889724,-0.010954,-0.161581,-0.263671,-0.60648,-0.14254,0.922621,0.007913,0.206964,-0.063918,-0.113062,0.271659,-0.161957,-2.1948,0.481269,-0.223545,0.012305,0.297867,-2.076565,0.242845,0.0
156,-0.771276,-2.753552,0.794835,0.04017,-0.00091,-0.41759,0.907747,-0.73277,-0.06152,-0.207324,0.867729,0.127087,-0.182957,-0.249148,-0.4841,-0.132354,1.007844,0.110906,0.124771,-0.051976,-0.130804,0.203952,-0.176162,-2.1948,0.419315,-0.174679,-0.029639,0.268749,-2.098742,0.290664,0.0
157,-0.753278,-2.757794,0.811193,0.00905,0.014151,-0.390948,0.92026,-0.777515,-0.030891,-0.268266,0.903169,0.220462,-0.2618,-0.306332,-0.277797,-0.04828,1.11857,0.107267,0.114927,0.001488,-0.150752,0.139874,-0.194481,-2.1948,0.385106,-0.135606,-0.090939,0.246503,-2.122192,0.297252,0.0
158,-0.716217,-2.745447,0.820311,-0.018457,0.02997,-0.380093,0.924278,-0.849377,0.066071,-0.167407,0.98869,0.190934,-0.2618,-0.36805,-0.288647,-0.205263,1.188433,0.094853,0.126213,0.096153,-0.176585,0.067638,-0.208487,-2.183807,0.399086,-0.103782,-0.207633,0.233595,-2.166381,0.308468,0.0
159,-0.707548,-2.760837,0.826075,-0.04659,0.045019,-0.373006,0.925564,-0.911703,0.185973,-0.181179,1.029824,0.11527,-0.2618,-0.413438,-0.207131,-0.327091,1.205087,0.020406,0.086373,0.185438,-0.215154,0.007205,-0.205985,-2.150869,0.370886,-0.081211,-0.307238,0.216445,-2.1948,0.30374,0.0
160,-0.70854,-2.790603,0.822854,-0.070396,0.059856,-0.354728,0.930392,-0.967479,0.297675,-0.249076,0.979312,0.082107,-0.261313,-0.468648,-0.053032,-0.342932,1.158003,-0.055164,0.180698,0.226318,-0.239989,-0.035552,-0.192667,-2.121534,0.362188,-0.078696,-0.347657,0.199214,-2.1948,0.258014,0.0
161,-0.694209,-2.812283,0.812201,-0.077873,0.061463,-0.331562,0.938203,-0.950929,0.358614,-0.238123,0.907263,0.179532,-0.16604,-0.519865,0.017477,-0.298024,1.08335,-0.143386,0.2618,0.235979,-0.23907,-0.084283,-0.171287,-2.073901,0.352246,-0.058419,-0.372198,0.172307,-2.1948,0.224199,0.0
162,-0.667501,-2.824067,0.788216,-0.080629,0.060379,-0.296951,0.949565,-0.885584,0.328015,-0.249679,0.929814,-0.071846,-0.173063,-0.578504,0.006687,-0.238114,1.03777,-0.196246,0.2618,0.20859,-0.23086,-0.108562,-0.157536,-2.021657,0.309816,-0.040652,-0.361012,0.150158,-2.1948,0.22545,0.0
163,-0.63982,-2.830397,0.763451,-0.083573,0.060692,-0.252376,0.962101,-0.893523,0.289473,-0.256532,1.01188,-0.305819,-0.132498,-0.634453,-0.025942,-0.164398,1.00553,-0.192739,0.167383,0.156589,-0.210672,-0.107316,-0.15832,-2.003926,0.315086,-0.020753,-0.32909,0.128146,-2.1948,0.177781,0.0
164,-0.615253,-2.840781,0.752188,-0.087338,0.05704,-0.205149,0.973156,-0.903567,0.229869,-0.328528,1.083167,-0.375127,-0.136564,-0.653681,-0.041667,-0.08283,1.087846,-0.181944,0.186746,0.104077,-0.176009,-0.082364,-0.169614,-2.054883,0.338028,-0.002995,-0.311854,0.102877,-2.1948,0.133581,0.0
165,-0.59971,-2.852418,0.74791,-0.08826,0.052715,-0.180947,0.978105,-0.898061,0.214296,-0.353286,1.116729,-0.395458,-0.145557,-0.671896,-0.055862,-0.071081,1.199662,-0.167506,0.151263,0.10603,-0.164946,-0.054101,-0.176356,-2.114457,0.361556,-0.0018,-0.317955,0.09088,-2.1948,0.132266,0.0
166,-0.594569,-2.863188,0.761369,-0.094044,0.05136,-0.168224,0.979907,-0.864934,0.237528,-0.359217,1.057256,-0.355569,-0.16528,-0.679041,-0.070165,-0.12595,1.233263,-0.099448,0.121832,0.126072,-0.154885,-0.020481,-0.171547,-2.152192,0.367756,-0.003662,-0.324226,0.092551,-2.1948,0.188448,0.0
167,-0.598021,-2.879257,0.791062,-0.098082,0.051567,-0.153956,0.981844,-0.804993,0.263699,-0.375013,0.91328,-0.209971,-0.199498,-0.638402,-0.07737,-0.220756,1.155091,-0.102467,0.125613,0.145527,-0.14341,-0.009457,-0.171098,-2.151333,0.375101,0.018677,-0.339883,0.106919,-2.1948,0.251042,0.0
168,-0.6033,-2.898901,0.827537,-0.098508,0.053028,-0.134747,0.984544,-0.731873,0.28355,-0.388301,0.721668,0.023011,-0.227732,-0.583084,-0.058727,-0.290578,1.015194,-0.084073,0.10396,0.15662,-0.13749,-0.018752,-0.182364,-2.11332,0.38751,0.058816,-0.356477,0.132358,-2.1948,0.252702,0.0
169,-0.604684,-2.906399,0.85713,-0.091734,0.055631,-0.104355,0.988737,-0.680938,0.292498,-0.294333,0.562853,0.193428,-0.2618,-0.550267,-0.074114,-0.335836,0.882824,0.01178,0.117865,0.141209,-0.127706,-0.03757,-0.203984,-2.079668,0.394686,0.091808,-0.369934,0.15675,-2.1948,0.285848,0.0
170,-0.610937,-2.917479,0.871316,-0.084885,0.06253,-0.057815,0.992745,-0.70744,0.302703,-0.089584,0.559084,0.22416,-0.2618,-0.563846,-0.079946,-0.320636,0.804565,0.103984,0.188719,0.084696,-0.123867,-0.04854,-0.227287,-2.071636,0.388018,0.107775,-0.364284,0.177501,-2.1948,0.345351,0.0
171,-0.616766,-2.940727,0.87027,-0.085633,0.068652,-0.007167,0.993933,-0.763245,0.290684,-0.07021,0.665055,0.17606,-0.2618,-0.592231,-0.045481,-0.247308,0.7775,0.113624,0.243845,0.014576,-0.119221,-0.032738,-0.247448,-2.069465,0.388063,0.122895,-0.320493,0.191236,-2.193704,0.357073,0.0
172,-0.616896,-2.960247,0.859582,-0.083673,0.063176,0.03217,0.993968,-0.778091,0.260131,-0.110618,0.816141,0.093055,-0.210909,-0.602666,-0.028687,-0.167778,0.794915,0.090188,0.25666,-0.034614,-0.100406,-0.009621,-0.253858,-2.067029,0.388346,0.143644,-0.274932,0.200854,-2.180721,0.35739,0.0
173,-0.617285,-2.971976,0.840788,-0.076828,0.052768,0.053916,0.994186,-0.740159,0.232054,-0.113705,0.951739,-0.010399,-0.178376,-0.613588,-0.054559,-0.132844,0.862535,0.076639,0.207779,-0.048098,-0.083436,0.011864,-0.256514,-2.062743,0.377602,0.152059,-0.243858,0.209207,-2.169297,0.376347,0.0
174,-0.617178,-2.98267,0.811673,-0.06931,0.039699,0.067431,0.994522,-0.682043,0.207476,-0.103614,1.061048,-0.050011,-0.131348,-0.627587,-0.100334,-0.126613,0.972322,0.046409,0.119777,-0.047222,-0.069452,0.032356,-0.250495,-2.050744,0.363943,0.160717,-0.223435,0.211043,-2.177056,0.373016,0.0
175,-0.619268,-2.996037,0.778459,-0.05898,0.027876,0.087823,0.993998,-0.616325,0.203068,-0.073154,1.080938,-0.292473,-0.078327,-0.635777,-0.107909,-0.059012,1.062654,-0.009651,0.123595,-0.064659,-0.065393,0.046013,-0.239201,-2.02341,0.384024,0.164576,-0.211754,0.196383,-2.192476,0.337849,0.0
176,-0.623838,-3.009708,0.748607,-0.046013,0.017739,0.101599,0.993602,-0.630783,0.193952,-0.079951,1.159151,-0.440665,-0.079652,-0.620518,-0.139701,-0.070471,1.145476,-0.249304,0.158257,-0.080182,-0.078086,0.043999,-0.214751,-1.974744,0.433842,0.16342,-0.20546,0.154909,-2.1948,0.288558,0.0
177,-0.631,-3.022422,0.733119,-0.04003,0.013702,0.105499,0.993519,-0.684496,0.192602,-0.105615,1.23385,-0.457501,-0.087268,-0.634336,-0.155301,-0.106285,1.197202,-0.357294,0.123106,-0.075401,-0.10317,0.046167,-0.168523,-1.928865,0.475896,0.156817,-0.185492,0.078874,-2.148031,0.16407,0.0
178,-0.642564,-3.037235,0.738269,-0.038604,0.01206,0.098569,0.994308,-0.689109,0.213323,-0.103891,1.201697,-0.434288,-0.111249,-0.630721,-0.146801,-0.159352,1.16603,-0.367126,0.051605,-0.051185,-0.122319,0.044789,-0.08797,-1.901734,0.477569,0.115316,-0.165564,-0.040809,-2.018412,-0.032289,0.0
179,-0.657252,-3.054442,0.765079,-0.038389,0.007188,0.099806,0.99424,-0.615288,0.234285,-0.073626,1.037126,-0.373745,-0.124543,-0.58089,-0.110076,-0.169834,1.042446,-0.268896,0.059371,-0.057944,-0.12392,0.043743,0.012365,-1.865477,0.424379,0.039781,-0.14248,-0.156633,-1.833416,-0.173992,0.0
180,-0.673434,-3.070757,0.809393,-0.030292,0.002025,0.106216,0.993879,-0.473947,0.226948,-0.010582,0.754592,-0.192117,-0.119841,-0.50496,-0.093502,-0.164204,0.850305,-0.05671,0.144862,-0.08702,-0.118486,0.045005,0.097811,-1.784701,0.405078,-0.044468,-0.137603,-0.241261,-1.638653,-0.230709,0.0
181,-0.693159,-3.104428,0.849227,-0.022488,0.003741,0.106081,0.994096,-0.330847,0.244199,0.105217,0.437534,0.026083,-0.220877,-0.47351,-0.088353,-0.167611,0.693078,0.171329,0.2618,-0.121762,-0.116506,0.083576,0.162098,-1.692625,0.424964,-0.140243,-0.124165,-0.283365,-1.486092,-0.193053,0.0
182,-0.722987,-3.143545,0.873667,-0.013018,0.002151,0.102645,0.994631,-0.255151,0.263272,0.216983,0.33145,0.003013,-0.2618,-0.467915,-0.13368,-0.23469,0.629937,0.218999,0.2618,-0.162439,-0.126244,0.152221,0.207187,-1.60555,0.463701,-0.225637,-0.111153,-0.290467,-1.380662,-0.25597,0.0
183,-0.743114,-3.152406,0.890079,0.003173,-0.004016,0.105886,0.994365,-0.196299,0.221872,0.187123,0.371769,0.001408,-0.2618,-0.450545,-0.2315,-0.258014,0.671489,0.132748,0.2618,-0.22799,-0.151145,0.218832,0.252575,-1.511849,0.473258,-0.300858,-0.071359,-0.282172,-1.322735,-0.352361,0.0
184,-0.756948,-3.146399,0.896018,0.031072,-0.014327,0.102464,0.994148,-0.131202,0.123993,0.106996,0.467348,0.059731,-0.2618,-0.438851,-0.367245,-0.218655,0.777113,0.110153,0.2618,-0.263696,-0.15834,0.240197,0.279544,-1.450832,0.556559,-0.33331,-0.041331,-0.283764,-1.336178,-0.350644,0.0
185,-0.771967,-3.130854,0.890618,0.060734,-0.022687,0.102835,0.992583,-0.091104,0.001275,0.030689,0.578444,0.129835,-0.2618,-0.422342,-0.503862,-0.147494,0.872458,0.121779,0.2618,-0.277619,-0.154268,0.219281,0.273753,-1.479891,0.599324,-0.330694,-0.037846,-0.264804,-1.413415,-0.405263,0.0
186,-0.784046,-3.125471,0.876769,0.082198,-0.029592,0.102513,0.990888,-0.057475,-0.068019,0.015492,0.653721,0.22503,-0.2618,-0.383726,-0.602762,-0.104934,0.946298,0.171346,0.2618,-0.278367,-0.144014,0.196957,0.282497,-1.575058,0.507881,-0.315677,-0.043617,-0.233476,-1.500438,-0.469577,0.0
187,-0.792689,-3.141366,0.853943,0.096022,-0.031933,0.102896,0.989531,-0.026757,-0.072466,0.02382,0.646888,0.314443,-0.2618,-0.337903,-0.648745,-0.09006,1.025972,0.195283,0.2618,-0.27418,-0.137425,0.175777,0.282397,-1.67606,0.498294,-0.307763,-0.047881,-0.211954,-1.562095,-0.36479,0.0
188,-0.806792,-3.165656,0.822667,0.091883,-0.026899,0.101962,0.990171,-0.015209,-0.086809,-0.113651,0.616651,0.25176,-0.215027,-0.324751,-0.618061,-0.070694,1.092574,0.237498,0.155372,-0.260541,-0.136451,0.192742,0.266689,-1.762321,0.560142,-0.312148,-0.042687,-0.176109,-1.604312,-0.290326,0.0
189,-0.829358,-3.191032,0.784042,0.076401,-0.009529,0.097132,0.992289,-0.063827,-0.014396,-0.085092,0.706732,-0.15861,-0.200671,-0.332892,-0.548308,-0.087372,1.088793,0.184002,0.182655,-0.225845,-0.164623,0.243028,0.249009,-1.81685,0.629058,-0.326688,-0.04192,-0.131752,-1.618644,-0.331362,0.0
190,-0.856796,-3.227006,0.750895,0.057649,0.020067,0.077994,0.995083,-0.205954,0.091621,-0.044981,0.835136,-0.393416,-0.258676,-0.340117,-0.491198,-0.176424,1.104489,-0.321697,0.220912,-0.139526,-0.23422,0.290099,0.229807,-1.859465,0.680822,-0.340624,-0.069625,-0.082026,-1.655333,-0.372372,0.0
191,-0.873651,-3.253358,0.744043,0.034781,0.041033,0.054121,0.997084,-0.291685,0.180079,-0.039537,0.873214,-0.445627,-0.2618,-0.34698,-0.395358,-0.21901,1.030275,-0.518744,0.227608,-0.026125,-0.275828,0.316625,0.2205,-1.915661,0.643136,-0.325354,-0.118088,-0.044146,-1.712113,-0.429282,0.0
192,-0.878552,-3.2826,0.759237,0.005547,0.048478,0.033205,0.998257,-0.308092,0.277898,-0.043933,0.828526,-0.356379,-0.2618,-0.348223,-0.265438,-0.232922,0.959112,-0.472533,0.162548,0.077542,-0.257893,0.324624,0.230875,-1.949984,0.620037,-0.281242,-0.157478,-0.032466,-1.743054,-0.431659,0.0
193,-0.880301,-3.325163,0.791358,-0.025102,0.052195,0.020191,0.998117,-0.321347,0.386985,-0.038583,0.742037,-0.122656,-0.232292,-0.314812,-0.120475,-0.283637,0.831906,-0.293497,0.067095,0.169755,-0.220856,0.304603,0.243125,-1.937947,0.632193,-0.223503,-0.201841,-0.026529,-1.738525,-0.429165,0.0
194,-0.885404,-3.357354,0.830178,-0.04366,0.058092,0.026817,0.996995,-0.369057,0.474149,0.105253,0.679847,0.099314,-0.162653,-0.270559,-0.020611,-0.331498,0.654569,-0.039365,0.038209,0.234418,-0.191333,0.255049,0.238097,-1.893204,0.69327,-0.160954,-0.276597,-0.027852,-1.721034,-0.429517,0.0
195,-0.895189,-3.382266,0.860266,-0.064637,0.068337,0.046932,0.994459,-0.471152,0.500444,0.166791,0.72037,0.076994,-0.200336,-0.265949,0.057649,-0.327088,0.526663,0.197098,0.179006,0.266063,-0.184833,0.233176,0.238058,-1.839666,0.6911,-0.129072,-0.337161,-0.026186,-1.69692,-0.419662,0.0
196,-0.908267,-3.419373,0.880936,-0.087253,0.075425,0.057606,0.991655,-0.554881,0.471936,0.08001,0.771143,0.050618,-0.261799,-0.278553,0.126238,-0.3106,0.474018,0.268826,0.261799,0.290993,-0.167259,0.234636,0.260608,-1.792527,0.627461,-0.126971,-0.371762,-0.021001,-1.667203,-0.379177,0.0
197,-0.912645,-3.436997,0.895817,-0.094652,0.075798,0.075253,0.989764,-0.541154,0.391535,0.069086,0.783947,0.072193,-0.2618,-0.25969,0.112154,-0.34635,0.453342,0.265394,0.2618,0.28104,-0.110468,0.220719,0.283292,-1.755448,0.624898,-0.119674,-0.397497,-0.015626,-1.650189,-0.34764,0.0
198,-0.911747,-3.444322,0.902176,-0.091694,0.072162,0.090706,0.989018,-0.455156,0.273212,0.075635,0.739223,0.127543,-0.2618,-0.236008,0.063117,-0.30987,0.442954,0.236828,0.2618,0.259447,-0.023309,0.187645,0.312288,-1.733543,0.636628,-0.106148,-0.411941,-0.018337,-1.655879,-0.381671,0.0
199,-0.913121,-3.451471,0.897381,-0.086942,0.069268,0.09654,0.989102,-0.355018,0.146012,0.060094,0.661157,0.165786,-0.2618,-0.225632,-0.00856,-0.290222,0.434435,0.195093,0.2618,0.243794,0.054762,0.148609,0.343106,-1.722674,0.61691,-0.108896,-0.407078,-0.03903,-1.681702,-0.383849,0.0
200,-0.913626,-3.474287,0.883105,-0.085829,0.070703,0.094854,0.989261,-0.273904,0.061353,0.05386,0.585993,0.163941,-0.2618,-0.235458,-0.07944,-0.344013,0.435693,0.161212,0.2618,0.234705,0.10535,0.11726,0.3681,-1.724808,0.625727,-0.140269,-0.379814,-0.067699,-1.71277,-0.373083,0.0
201,-0.912493,-3.511526,0.862653,-0.085995,0.073865,0.095418,0.988961,-0.20502,0.044328,0.146876,0.520026,0.074946,-0.045839,-0.266478,-0.147945,-0.429714,0.476144,0.15039,0.196786,0.215774,0.133668,0.10515,0.398785,-1.729405,0.646609,-0.187044,-0.342781,-0.084935,-1.750921,-0.389398,0.0
202,-0.92022,-3.530682,0.831034,-0.079301,0.079931,0.108727,0.987674,-0.172457,0.040896,0.280424,0.515224,-0.221325,0.092109,-0.342935,-0.25354,-0.42663,0.572377,0.168499,0.104734,0.169839,0.140601,0.109009,0.417904,-1.74836,0.656807,-0.233596,-0.313381,-0.10115,-1.799798,-0.450262,0.0
203,-0.924273,-3.554266,0.799273,-0.070106,0.08198,0.125879,0.986164,-0.203268,0.042709,0.218837,0.597039,-0.468316,0.069051,-0.426528,-0.265083,-0.196814,0.720224,0.04769,0.261799,0.110321,0.131528,0.139801,0.431211,-1.781815,0.67081,-0.258196,-0.261573,-0.12546,-1.851603,-0.453652,0.0
204,-0.924011,-3.583481,0.776431,-0.06108,0.08608,0.122776,0.986806,-0.267757,0.067789,0.189263,0.716066,-0.595078,0.036417,-0.484234,-0.272376,-0.167845,0.84336,-0.147709,0.2618,0.088076,0.094835,0.187245,0.445242,-1.801992,0.693561,-0.257524,-0.189976,-0.142224,-1.881384,-0.453735,0.0
205,-0.926319,-3.587552,0.769068,-0.05347,0.094044,0.105449,0.988523,-0.340736,0.077552,0.226594,0.823806,-0.58418,0.043068,-0.4992,-0.292616,-0.220713,0.842074,-0.25211,0.2618,0.094476,0.033256,0.248819,0.441749,-1.802816,0.731019,-0.235456,-0.1097,-0.134131,-1.883756,-0.484412,0.0
206,-0.918458,-3.589369,0.787611,-0.045095,0.092682,0.099518,0.989683,-0.368951,0.074549,0.214154,0.852035,-0.39476,0.042475,-0.412555,-0.281798,-0.263184,0.710315,-0.201936,0.2618,0.081529,0.002532,0.310433,0.401108,-1.800437,0.725598,-0.168999,-0.049092,-0.110703,-1.859715,-0.490993,0.0
207,-0.907941,-3.583275,0.815983,-0.028033,0.091457,0.079521,0.992233,-0.372514,0.044776,0.226735,0.82244,-0.107431,0.031029,-0.410872,-0.295188,-0.1946,0.636818,0.022829,0.2618,0.084766,0.022018,0.351202,0.359626,-1.819021,0.699711,-0.091341,-0.025239,-0.080864,-1.824165,-0.421598,0.0
208,-0.903504,-3.583655,0.843368,-0.012424,0.101988,0.030098,0.994253,-0.441003,0.052883,0.273893,0.847801,0.158603,-0.031504,-0.524231,-0.303926,-0.093956,0.633552,0.238429,0.2618,0.130428,0.042116,0.409921,0.333268,-1.847426,0.698518,-0.056426,-0.016537,-0.036543,-1.775984,-0.350431,0.0
209,-0.898548,-3.578548,0.860833,0.008563,0.114631,-0.005125,0.993358,-0.549415,0.049129,0.28473,0.932488,0.308817,-0.075703,-0.621074,-0.373733,-0.143298,0.681277,0.301669,0.2618,0.144939,0.049212,0.472899,0.296946,-1.886694,0.695416,-0.0429,-0.027121,0.00249,-1.730144,-0.359865,0.0
210,-0.891323,-3.575446,0.861841,0.024085,0.119707,-0.00457,0.992507,-0.631077,0.056786,0.280216,1.006617,0.225948,-0.045781,-0.665405,-0.400224,-0.123517,0.785506,0.243263,0.24746,0.104039,0.034707,0.548154,0.260302,-1.910865,0.696029,-0.022365,-0.02081,0.012282,-1.701853,-0.368073,0.0
211,-0.885553,-3.591034,0.857877,0.031762,0.119147,0.000456,0.992368,-0.720402,0.093895,0.234464,1.03665,0.137806,-0.020733,-0.641273,-0.318465,-0.033621,0.844888,0.148134,0.2618,0.067552,0.00835,0.606859,0.242254,-1.913252,0.692093,0.004555,0.002254,0.007078,-1.692143,-0.360005,0.0
212,-0.874363,-3.582116,0.840718,0.039982,0.119485,0.003608,0.992024,-0.793365,0.072766,0.182196,1.003598,0.035339,0.003031,-0.595061,-0.283866,-0.001829,0.844915,0.14339,0.253725,0.049138,-0.022108,0.620734,0.236863,-1.916049,0.688644,0.030994,0.010718,0.00315,-1.699249,-0.370542,0.0
213,-0.869751,-3.578294,0.816602,0.040303,0.128014,-0.013709,0.990858,-0.884029,0.065374,0.100544,0.912868,-0.062652,-0.053109,-0.559466,-0.297214,-0.092551,0.828841,-0.081745,0.138022,0.086911,-0.062463,0.600362,0.2414,-1.924057,0.693535,0.039765,0.012036,-0.000363,-1.705791,-0.400755,0.0
214,-0.861894,-3.58126,0.787371,0.036481,0.132239,-0.03686,0.98986,-0.964261,0.059236,-0.05174,0.831552,-0.07642,-0.211674,-0.529296,-0.298668,-0.151195,0.848645,-0.3487,0.157543,0.152662,-0.09644,0.550201,0.239223,-1.942278,0.695665,0.051612,-0.004754,-0.003135,-1.715979,-0.400603,0.0
215,-0.856959,-3.587826,0.768979,0.043142,0.130744,-0.051406,0.989142,-1.012555,0.03873,-0.15006,0.855989,-0.024464,-0.248191,-0.520668,-0.300372,-0.121786,0.871048,-0.507953,0.188742,0.199049,-0.108329,0.424691,0.2549,-1.968138,0.711903,0.065102,-0.065168,0.008849,-1.740505,-0.371576,0.0
216,-0.844121,-3.589249,0.740908,0.033086,0.124492,-0.062821,0.989677,-1.049498,0.077164,-0.151916,0.996963,-0.204767,-0.211417,-0.556746,-0.290563,-0.079376,1.006543,-0.593109,0.201979,0.234864,-0.103021,0.307234,0.272894,-2.020541,0.764311,0.066208,-0.103524,0.019312,-1.786669,-0.381338,0.0
217,-0.840508,-3.591254,0.730101,0.021842,0.1299,-0.073196,0.98858,-1.084442,0.125381,-0.127198,1.04346,-0.285087,-0.170609,-0.599528,-0.275372,-0.091168,1.06879,-0.601202,0.180051,0.238712,-0.107326,0.200408,0.269786,-2.081595,0.807694,0.016089,-0.148677,0.044706,-1.836164,-0.392264,0.0
218,-0.829109,-3.593472,0.742166,0.009112,0.122472,-0.096393,0.987738,-1.023531,0.182052,-0.126605,1.010001,-0.292741,-0.196737,-0.499252,-0.227251,-0.10166,0.943434,-0.594696,0.187593,0.26458,-0.07985,0.138434,0.23026,-2.135348,0.764197,-0.017325,-0.198218,0.058592,-1.876742,-0.3712,0.0
219,-0.819893,-3.602544,0.774752,-0.006297,0.109629,-0.097563,0.989153,-0.909438,0.226065,-0.115089,0.872336,-0.175511,-0.205255,-0.356149,-0.169425,-0.153658,0.758429,-0.444033,0.16857,0.261456,-0.04,0.108273,0.178141,-2.140341,0.690017,-0.013252,-0.248969,0.066545,-1.922599,-0.270315,0.0
220,-0.821355,-3.610368,0.811,-0.021872,0.109119,-0.123839,0.986042,-0.843538,0.296871,-0.084035,0.738249,0.040874,-0.227964,-0.321509,-0.097859,-0.124995,0.623149,-0.214495,0.137763,0.316457,-0.017277,0.077216,0.149012,-2.13053,0.528834,-0.023466,-0.343973,0.079613,-1.98674,-0.023803,0.0
221,-0.827311,-3.617331,0.841974,-0.039371,0.11376,-0.15261,0.980928,-0.836444,0.380634,-0.064265,0.653263,0.262677,-0.2618,-0.332889,-0.064487,-0.151463,0.554703,-0.062529,0.2618,0.373387,0.002708,0.063894,0.119959,-2.129236,0.40756,-0.057157,-0.457291,0.080147,-2.07403,0.299405,0.0
222,-0.827804,-3.6184,0.863168,-0.049804,0.116482,-0.173087,0.976725,-0.873016,0.448238,-0.047138,0.680626,0.355733,-0.2618,-0.34252,-0.116234,-0.320759,0.55007,-0.035842,0.2618,0.407238,0.028451,0.051241,0.081111,-2.104163,0.539568,-0.108015,-0.554212,0.071985,-2.15153,0.270177,0.0
223,-0.816434,-3.627547,0.874387,-0.059356,0.111472,-0.179161,0.97568,-0.884152,0.496831,-0.069369,0.745693,0.331291,-0.2618,-0.330538,-0.16551,-0.388514,0.580197,0.000672,0.183963,0.411713,0.053195,0.043712,0.071477,-2.084852,0.514674,-0.154234,-0.591187,0.081033,-2.179264,0.024002,0.0
224,-0.807048,-3.636691,0.876965,-0.064253,0.10743,-0.160229,0.97911,-0.906375,0.491034,-0.136559,0.772966,0.278278,-0.2618,-0.326006,-0.207927,-0.36154,0.60487,0.045956,0.122232,0.368977,0.065282,0.039947,0.054531,-2.067287,0.491558,-0.1837,-0.563361,0.07731,-2.194702,-0.131689,0.0
225,-0.801899,-3.635661,0.869452,-0.060115,0.107732,-0.137694,0.982762,-0.920463,0.443374,-0.192716,0.751791,0.21873,-0.2618,-0.338902,-0.270685,-0.29493,0.604317,0.079517,0.180694,0.314678,0.072771,0.02143,0.033649,-2.048157,0.519877,-0.209264,-0.502253,0.068258,-2.1948,-0.117689,0.0
226,-0.796561,-3.629031,0.852465,-0.049225,0.106162,-0.122816,0.985506,-0.890564,0.378657,-0.22751,0.703961,0.222965,-0.2618,-0.350572,-0.35188,-0.211302,0.578517,0.10108,0.261798,0.272208,0.088449,-0.001138,0.018686,-2.050416,0.539349,-0.215471,-0.428736,0.069219,-2.1948,-0.039502,0.0
227,-0.786157,-3.645781,0.831312,-0.046006,0.096695,-0.126175,0.986212,-0.791867,0.36335,-0.260079,0.659931,0.223664,-0.2618,-0.340749,-0.390206,-0.134431,0.551559,0.125124,0.2618,0.266627,0.112684,0.002062,0.003623,-2.071851,0.585837,-0.199994,-0.317164,0.090095,-2.1948,-0.004806,0.0
228,-0.775944,-3.660234,0.791434,-0.053115,0.090088,-0.120128,0.987235,-0.722156,0.414047,-0.173679,0.695543,-0.208196,-0.2618,-0.374152,-0.416475,-0.052619,0.609426,0.150553,0.2618,0.242006,0.114738,0.065632,-0.022058,-2.100201,0.623525,-0.200556,-0.16675,0.118513,-2.1948,-0.049838,0.0
229,-0.76701,-3.664396,0.759828,-0.042398,0.0805,-0.11377,0.989332,-0.787355,0.396954,-0.199911,0.86304,-0.355607,-0.2618,-0.411138,-0.448759,0.064255,0.654084,0.252769,0.2618,0.198991,0.121221,0.129123,-0.058947,-2.130098,0.615731,-0.201121,-0.060287,0.165973,-2.1948,-0.031833,0.0
230,-0.77048,-3.67612,0.723994,-0.021574,0.084248,-0.108581,0.990276,-0.928907,0.340786,-0.294779,1.054741,-0.382265,-0.2618,-0.488161,-0.50824,0.091056,0.801354,0.039894,0.2618,0.146978,0.115895,0.154894,-0.087781,-2.14878,0.63411,-0.220023,0.005012,0.22668,-2.1948,0.02176,0.0
231,-0.760705,-3.691959,0.698565,-0.005124,0.061313,-0.116864,0.99124,-0.923371,0.348104,-0.299615,1.170379,-0.391109,-0.2618,-0.441944,-0.580454,0.029609,0.88309,-0.193163,0.2618,0.139512,0.14074,0.182878,-0.099112,-2.153556,0.666848,-0.17979,0.02548,0.237662,-2.1948,-0.002609,0.0
232,-0.766832,-3.703842,0.678228,0.005974,0.057887,-0.125291,0.990412,-0.962986,0.359913,-0.309172,1.234511,-0.40085,-0.2618,-0.460484,-0.60601,0.03516,0.933355,-0.377187,0.2618,0.133459,0.133279,0.190189,-0.10504,-2.175015,0.647213,-0.15318,0.031984,0.25996,-2.1948,0.000469,0.0
233,-0.774425,-3.710203,0.663558,0.016566,0.070948,-0.114001,0.990806,-1.069636,0.315926,-0.365149,1.303196,-0.363605,-0.2618,-0.521752,-0.62172,0.072547,0.988839,-0.471013,0.2618,0.090247,0.117479,0.167162,-0.105026,-2.194736,0.621991,-0.144387,0.030047,0.297985,-2.192458,0.031719,0.0
234,-0.771821,-3.717424,0.658836,0.022902,0.069917,-0.107805,0.991446,-1.067351,0.302421,-0.378102,1.308173,-0.356649,-0.2618,-0.526898,-0.633465,0.086334,1.023543,-0.493072,0.2618,0.07518,0.114517,0.16348,-0.114556,-2.1948,0.648128,-0.147153,0.008402,0.29501,-2.179699,0.046697,0.0
235,-0.771875,-3.716343,0.659385,0.027547,0.072222,-0.10333,0.991639,-1.059963,0.290135,-0.367211,1.295735,-0.368299,-0.2618,-0.538847,-0.646474,0.087011,1.029125,-0.491068,0.2618,0.062405,0.098915,0.184005,-0.126105,-2.1948,0.638586,-0.150702,-0.005986,0.300855,-2.170652,0.062255,0.0
236,-0.770424,-3.712721,0.667476,0.031164,0.07611,-0.093463,0.99222,-1.050074,0.26721,-0.350106,1.268297,-0.359441,-0.2618,-0.511983,-0.655349,0.057554,0.995346,-0.463141,0.2618,0.037918,0.079092,0.217686,-0.134402,-2.1948,0.585534,-0.142854,-0.019956,0.302991,-2.161687,0.086475,0.0
237,-0.763398,-3.703286,0.687647,0.033961,0.073291,-0.080993,0.993436,-0.979649,0.242424,-0.306891,1.193139,-0.34382,-0.2618,-0.426165,-0.674091,-0.022965,0.911013,-0.352088,0.2618,0.022472,0.106813,0.245781,-0.148958,-2.1948,0.578425,-0.09676,-0.034308,0.29576,-2.147719,0.093568,0.0
238,-0.754401,-3.682326,0.712269,0.035051,0.075663,-0.075138,0.99368,-0.897657,0.220546,-0.237671,1.097349,-0.346759,-0.2618,-0.392282,-0.688751,-0.065676,0.823891,-0.164932,0.2618,0.036334,0.144918,0.274743,-0.151732,-2.1948,0.599553,-0.056883,-0.045623,0.285145,-2.118674,0.087573,0.0
239,-0.745749,-3.658978,0.737513,0.036302,0.0826,-0.075091,0.993086,-0.835306,0.194837,-0.17505,1.007045,-0.311973,-0.2618,-0.412256,-0.693816,-0.082011,0.753403,0.040792,0.2618,0.060006,0.177595,0.293566,-0.148485,-2.1948,0.553214,-0.034659,-0.058414,0.277371,-2.071848,0.124736,0.0
240,-0.743175,-3.64632,0.762868,0.033359,0.091689,-0.085422,0.991556,-0.806922,0.192279,-0.138226,0.929281,-0.206632,-0.254819,-0.431956,-0.685223,-0.193862,0.704984,0.092979,0.199141,0.095505,0.218331,0.310224,-0.141827,-2.1948,0.507689,-0.020944,-0.071519,0.270185,-2.023925,0.199944,0.0
241,-0.749367,-3.64636,0.781838,0.028749,0.103331,-0.095943,0.989591,-0.830632,0.201986,-0.141996,0.882989,-0.06409,-0.251262,-0.482487,-0.59186,-0.159162,0.720092,-0.024775,0.245887,0.127056,0.261924,0.319106,-0.132375,-2.194796,0.523825,-0.014193,-0.084999,0.267122,-1.988514,0.260242,0.0
242,-0.764045,-3.656001,0.79371,0.021234,0.114451,-0.109611,0.987135,-0.872772,0.234332,-0.167629,0.845243,0.059306,-0.2618,-0.545997,-0.454322,-0.09985,0.778268,-0.171537,0.2618,0.163426,0.284501,0.316697,-0.12014,-2.173436,0.512365,-0.01674,-0.090136,0.267212,-1.96064,0.295115,0.0
243,-0.776871,-3.661907,0.796402,0.017077,0.122915,-0.121415,0.984814,-0.899197,0.258813,-0.184526,0.81864,0.108157,-0.2618,-0.599622,-0.333738,-0.068757,0.851473,-0.256746,0.2618,0.193051,0.290116,0.291341,-0.10836,-2.14074,0.488034,-0.024391,-0.099663,0.263976,-1.945864,0.32378,0.0
244,-0.780255,-3.655516,0.789636,0.018251,0.12782,-0.128676,0.983245,-0.908254,0.264616,-0.163427,0.832104,0.048256,-0.2618,-0.62743,-0.258927,-0.072882,0.906753,-0.302895,0.2618,0.212396,0.294931,0.249622,-0.100919,-2.118134,0.498581,-0.024272,-0.115586,0.263542,-1.946714,0.332507,0.0
245,-0.773027,-3.636323,0.772569,0.024782,0.128717,-0.137522,0.981787,-0.906086,0.259477,-0.094723,0.901494,-0.12477,-0.2618,-0.616092,-0.286947,-0.188524,0.917052,-0.422972,0.156558,0.235117,0.297135,0.200829,-0.09719,-2.118527,0.488714,-0.00572,-0.144713,0.262366,-1.971778,0.327294,0.0
246,-0.777677,-3.631424,0.756583,0.021769,0.134529,-0.149028,0.979397,-0.921754,0.289144,-0.054911,0.932952,-0.268512,-0.2618,-0.620884,-0.302187,-0.272394,0.920565,-0.541317,0.137158,0.264959,0.268749,0.181148,-0.090671,-2.120739,0.475203,-0.009172,-0.14971,0.259008,-1.99561,0.333345,0.0
247,-0.772757,-3.634074,0.744587,0.020743,0.127384,-0.13175,0.982845,-0.917086,0.278378,-0.068164,0.961006,-0.351515,-0.2618,-0.601671,-0.314258,-0.256999,0.964696,-0.591071,0.179311,0.236384,0.25767,0.182656,-0.088282,-2.121579,0.485924,0.000289,-0.140485,0.252864,-1.994723,0.319484,0.0
248,-0.763425,-3.633136,0.73612,0.029595,0.117985,-0.130588,0.983946,-0.941086,0.251845,-0.095627,1.053215,-0.320146,-0.26132,-0.59199,-0.352618,-0.241976,1.002105,-0.631707,0.201844,0.223531,0.265023,0.172898,-0.094801,-2.119345,0.485659,0.019123,-0.160559,0.25778,-1.984675,0.308777,0.0
249,-0.757068,-3.622785,0.733496,0.039525,0.118942,-0.138089,0.982457,-1.034812,0.213019,-0.139964,1.179545,-0.168226,-0.2618,-0.620103,-0.385706,-0.201651,1.012983,-0.636071,0.22723,0.229657,0.253104,0.174353,-0.115975,-2.122325,0.476836,0.029479,-0.185076,0.259846,-1.995516,0.311279,0.0
250,-0.751795,-3.608354,0.736647,0.050627,0.119555,-0.137725,0.981924,-1.112301,0.163414,-0.173336,1.264115,-0.024228,-0.2618,-0.631213,-0.426747,-0.180972,0.993343,-0.616954,0.252621,0.215175,0.252619,0.181449,-0.139242,-2.1423,0.480679,0.035587,-0.206435,0.262733,-2.008555,0.258555,0.0
251,-0.747362,-3.590806,0.740141,0.060258,0.12236,-0.142626,0.980334,-1.153819,0.14702,-0.169137,1.294546,0.012947,-0.2618,-0.657021,-0.460898,-0.147426,0.968759,-0.588209,0.2618,0.200253,0.261587,0.183712,-0.148336,-2.168317,0.483817,0.024595,-0.216731,0.264618,-2.020118,0.218589,0.0
252,-0.74213,-3.590498,0.74236,0.064718,0.12365,-0.14767,0.97914,-1.158876,0.188868,-0.158214,1.247563,-0.034824,-0.2618,-0.653262,-0.468363,-0.143059,0.951962,-0.585196,0.2618,0.18258,0.27001,0.189262,-0.141771,-2.185131,0.474199,0.015453,-0.215584,0.267395,-2.03851,0.20847,0.0
253,-0.733957,-3.595105,0.742685,0.065562,0.122483,-0.157349,0.977722,-1.13393,0.251599,-0.163438,1.136517,-0.090814,-0.2618,-0.636779,-0.464103,-0.140697,0.941293,-0.59399,0.2618,0.179416,0.254021,0.200792,-0.135679,-2.186435,0.457779,0.023745,-0.207667,0.267671,-2.057498,0.20377,0.0
254,-0.722521,-3.599129,0.741875,0.063264,0.115403,-0.172357,0.976203,-1.068962,0.32348,-0.165347,0.971908,-0.065289,-0.242095,-0.604646,-0.457803,-0.135094,0.931555,-0.603516,0.2618,0.205735,0.215262,0.220927,-0.143628,-2.17809,0.453428,0.063806,-0.199663,0.251189,-2.073841,0.190575,0.0
255,-0.710208,-3.597362,0.738381,0.060907,0.108186,-0.180941,0.975626,-1.001838,0.355479,-0.184938,0.805892,0.044523,-0.211856,-0.575305,-0.462425,-0.125179,0.928725,-0.614109,0.2618,0.235081,0.160116,0.229614,-0.1571,-2.172608,0.452101,0.102483,-0.206885,0.228424,-2.080387,0.181694,0.0
256,-0.698488,-3.58583,0.73126,0.058974,0.104615,-0.18215,0.975909,-0.964529,0.341316,-0.257354,0.720323,0.119077,-0.2618,-0.568127,-0.483174,-0.109043,0.937808,-0.617182,0.2618,0.256354,0.097053,0.218237,-0.172961,-2.177126,0.473031,0.124652,-0.238301,0.211255,-2.084775,0.189695,0.0
257,-0.687866,-3.561651,0.718392,0.055568,0.104133,-0.166445,0.978961,-0.986511,0.317583,-0.258984,0.774942,0.006158,-0.2618,-0.571807,-0.530473,-0.10715,0.964711,-0.612103,0.2618,0.255738,0.022002,0.200448,-0.189413,-2.186961,0.463423,0.143921,-0.285354,0.189681,-2.094655,0.194074,0.0
258,-0.675911,-3.550205,0.699779,0.046729,0.106836,-0.152174,0.981451,-1.053262,0.305981,-0.270439,0.890452,-0.159993,-0.2618,-0.56673,-0.554731,-0.116146,1.011466,-0.639138,0.2618,0.261633,-0.053804,0.172227,-0.206934,-2.180981,0.449613,0.162984,-0.333223,0.166472,-2.111974,0.164959,0.0
259,-0.663529,-3.539766,0.692156,0.041812,0.114706,-0.143829,0.982043,-1.128841,0.277529,-0.305005,0.990149,-0.194527,-0.2618,-0.552274,-0.568144,-0.129989,1.005304,-0.637881,0.2618,0.263316,-0.112683,0.128402,-0.23175,-2.161203,0.484494,0.157066,-0.39932,0.156883,-2.121806,0.133911,0.0
260,-0.645853,-3.523438,0.69074,0.04045,0.121936,-0.138237,0.982031,-1.164226,0.238005,-0.318968,1.064831,-0.223468,-0.2618,-0.523075,-0.592904,-0.150463,0.964599,-0.598574,0.2618,0.255835,-0.165192,0.097262,-0.255378,-2.151195,0.481601,0.146774,-0.475473,0.152842,-2.139676,0.132277,0.0
261,-0.624643,-3.502252,0.698266,0.039204,0.127916,-0.142716,0.98068,-1.14509,0.217382,-0.291861,1.091681,-0.268789,-0.2618,-0.482732,-0.612026,-0.172726,0.879873,-0.504001,0.2618,0.257636,-0.196763,0.092666,-0.271148,-2.168052,0.436381,0.122981,-0.516316,0.154449,-2.160087,0.161296,0.0
262,-0.593635,-3.474747,0.715894,0.037152,0.126368,-0.152371,0.979507,-1.052921,0.211924,-0.212844,1.068398,-0.333108,-0.2618,-0.406051,-0.636998,-0.227691,0.759975,-0.319441,0.2618,0.24964,-0.163075,0.114999,-0.278429,-2.194198,0.438593,0.096529,-0.496325,0.172174,-2.16762,0.177537,0.0
263,-0.555925,-3.436512,0.736488,0.037895,0.124308,-0.158158,0.978825,-0.948029,0.178057,-0.115755,1.031619,-0.371716,-0.23024,-0.359414,-0.677807,-0.318957,0.671687,-0.085713,0.234341,0.22108,-0.11588,0.145512,-0.269994,-2.1948,0.455778,0.05986,-0.438803,0.199556,-2.149066,0.198172,0.0
264,-0.539608,-3.417777,0.766353,0.032542,0.12838,-0.172499,0.976065,-0.855537,0.181046,-0.042848,0.914851,-0.317491,-0.190012,-0.401772,-0.622395,-0.354294,0.665131,-0.038622,0.118273,0.202282,-0.058666,0.189834,-0.249351,-2.1948,0.431215,0.020378,-0.348536,0.224696,-2.118458,0.270843,0.0
265,-0.529525,-3.405178,0.795006,0.030861,0.132221,-0.191546,0.972047,-0.793128,0.18561,0.017738,0.817231,-0.191375,-0.164975,-0.502718,-0.503274,-0.225172,0.737079,-0.048096,0.218713,0.189828,0.024226,0.236073,-0.2262,-2.1948,0.431712,-0.003233,-0.244063,0.244601,-2.066052,0.337254,0.0
266,-0.521736,-3.391574,0.82069,0.033541,0.138715,-0.216396,0.965819,-0.778868,0.186501,0.065373,0.765783,-0.012784,-0.158645,-0.594836,-0.42425,-0.247508,0.824593,-0.056549,0.259709,0.190569,0.101947,0.267304,-0.203575,-2.1948,0.418433,-0.011804,-0.157456,0.257538,-2.002808,0.296629,0.0
267,-0.513393,-3.374019,0.840229,0.04391,0.147357,-0.240591,0.95837,-0.800738,0.174379,0.102493,0.755377,0.157441,-0.195937,-0.678853,-0.371387,-0.310614,0.904513,-0.066599,0.2618,0.196857,0.160881,0.274729,-0.186942,-2.19439,0.368634,-0.008477,-0.115025,0.272604,-1.970229,0.256701,0.0
268,-0.504444,-3.354171,0.853367,0.058057,0.151967,-0.260092,0.951781,-0.830209,0.144424,0.09185,0.768462,0.277868,-0.2618,-0.74383,-0.301818,-0.32628,0.958209,-0.064229,0.2618,0.201955,0.202047,0.268476,-0.181982,-2.169572,0.35506,0.00858,-0.107264,0.286335,-1.971928,0.295709,0.0
269,-0.498346,-3.333259,0.858777,0.073241,0.153719,-0.277913,0.945394,-0.875136,0.112753,0.053805,0.812809,0.331793,-0.2618,-0.799737,-0.209265,-0.296203,0.979192,-0.024056,0.2618,0.205296,0.225579,0.256003,-0.176811,-2.141553,0.352292,0.036712,-0.120931,0.297967,-1.991555,0.356964,0.0
270,-0.487825,-3.312814,0.854161,0.088571,0.150459,-0.295261,0.939328,-0.909956,0.094422,0.029076,0.87966,0.304085,-0.2618,-0.824607,-0.130161,-0.258814,0.967061,0.0282,0.2618,0.209918,0.241036,0.249822,-0.17344,-2.125726,0.340117,0.073636,-0.141487,0.298262,-2.00781,0.376288,0.0
271,-0.455446,-3.291666,0.843096,0.10462,0.147087,-0.306558,0.934581,-0.921443,0.091027,0.051207,0.949827,0.185081,-0.2618,-0.809791,-0.101565,-0.226788,0.9205,0.061106,0.2618,0.206282,0.240226,0.243117,-0.168946,-2.120913,0.340704,0.099012,-0.157905,0.292344,-2.017534,0.362269,0.0
272,-0.425213,-3.276807,0.821846,0.119652,0.139868,-0.31743,0.930247,-0.931297,0.113928,0.060188,1.00178,0.050303,-0.2618,-0.725381,-0.120992,-0.301876,0.85122,-0.170498,-0.019339,0.201657,0.232852,0.231567,-0.155051,-2.118995,0.348556,0.125973,-0.179629,0.281845,-2.027987,0.345713,0.0
273,-0.416115,-3.272132,0.793512,0.132625,0.137059,-0.331479,0.923984,-0.973743,0.174829,0.031448,1.008909,-0.017542,-0.254609,-0.696497,-0.129967,-0.30483,0.853933,-0.450769,-0.09989,0.208253,0.211995,0.221018,-0.138465,-2.12686,0.363543,0.141618,-0.196391,0.268098,-2.040881,0.33859,0.0
274,-0.398856,-3.263349,0.771297,0.14328,0.131886,-0.342509,0.919111,-0.978609,0.225071,0.021997,0.944878,-0.054917,-0.167587,-0.746305,-0.172497,-0.239857,0.96143,-0.583725,-0.084467,0.205116,0.202763,0.220155,-0.122183,-2.141909,0.376912,0.145651,-0.200601,0.251441,-2.045348,0.283819,0.0
275,-0.379682,-3.256828,0.752254,0.153175,0.125802,-0.351106,0.915115,-0.959342,0.25374,0.005246,0.837783,-0.054773,-0.112612,-0.829614,-0.221459,-0.157847,1.110274,-0.62592,-0.058151,0.182218,0.199984,0.213941,-0.103829,-2.151736,0.401944,0.121532,-0.201543,0.243286,-2.047783,0.251009,0.0
276,-0.360797,-3.25063,0.735975,0.158904,0.120591,-0.359882,0.911423,-0.935839,0.2626,-0.061576,0.721142,0.016378,-0.134293,-0.882164,-0.257803,-0.097154,1.209544,-0.664692,-0.032212,0.159729,0.197928,0.212349,-0.092086,-2.17152,0.433242,0.078856,-0.194053,0.241226,-2.054423,0.269014,0.0
277,-0.344378,-3.235218,0.727159,0.16104,0.123631,-0.374142,0.904875,-0.922874,0.266427,-0.133631,0.605621,0.095121,-0.151411,-0.902432,-0.271643,-0.055882,1.206873,-0.6807,-0.002841,0.162099,0.171601,0.208748,-0.084899,-2.194799,0.437533,0.029182,-0.178142,0.23887,-2.059179,0.247285,0.0
278,-0.318839,-3.219995,0.723901,0.162681,0.119362,-0.384587,0.900766,-0.887154,0.256008,-0.210053,0.559732,0.142714,-0.261799,-0.928529,-0.300928,0.01372,1.233085,-0.6807,0.04221,0.175504,0.129133,0.198567,-0.074936,-2.1948,0.439832,0.008632,-0.163064,0.229067,-2.064074,0.223628,0.0
279,-0.281925,-3.206457,0.71517,0.15741,0.110926,-0.396218,0.897736,-0.841108,0.254756,-0.194381,0.629772,-0.025442,-0.2618,-0.990678,-0.334012,0.110423,1.338298,-0.638848,0.083736,0.207309,0.092287,0.207487,-0.055195,-2.1948,0.486504,0.006994,-0.152577,0.218161,-2.070903,0.226979,0.0
280,-0.268221,-3.186284,0.700033,0.160878,0.129668,-0.397794,0.893904,-0.944684,0.240317,-0.189439,0.744683,-0.17142,-0.2618,-1.209571,-0.310894,0.227196,1.505791,-0.480573,0.086822,0.217196,0.002681,0.208502,-0.030712,-2.1948,0.489377,-0.060333,-0.150343,0.241059,-2.078279,0.261248,0.0
281,-0.255185,-3.178722,0.688185,0.155484,0.138373,-0.405817,0.889938,-1.013147,0.245066,-0.211628,0.858348,-0.262151,-0.2618,-1.346406,-0.283655,0.305045,1.634792,-0.369793,0.211171,0.238042,-0.072859,0.237413,-0.049445,-2.1948,0.471438,-0.119445,-0.143926,0.263063,-2.063626,0.301101,0.0
282,-0.255233,-3.193172,0.682591,0.130924,0.130174,-0.429407,0.884038,-0.98818,0.328978,-0.2311,0.90361,-0.299256,-0.2618,-1.305262,-0.223974,0.315492,1.672846,-0.395571,0.2618,0.288229,-0.099418,0.30658,-0.108686,-2.1948,0.456679,-0.136395,-0.106642,0.272151,-2.035976,0.290337,0.0
283,-0.242251,-3.190969,0.676356,0.125217,0.129755,-0.440021,0.879697,-0.991081,0.343681,-0.229715,0.95897,-0.351576,-0.2618,-1.365947,-0.280291,0.355142,1.675829,-0.37786,0.2618,0.294034,-0.126093,0.327529,-0.148024,-2.1948,0.433498,-0.162765,-0.086119,0.304756,-2.023655,0.265431,0.0
284,-0.234992,-3.185922,0.663748,0.131738,0.130662,-0.440071,0.878584,-1.03824,0.322741,-0.240627,1.040486,-0.402563,-0.2618,-1.467752,-0.367735,0.425314,1.624346,-0.297756,0.111769,0.271275,-0.14424,0.307251,-0.179827,-2.1948,0.414573,-0.186315,-0.074787,0.339711,-2.006292,0.271853,0.0
285,-0.252212,-3.202607,0.664103,0.119226,0.112945,-0.419483,0.892783,-0.98895,0.328837,-0.285784,0.980652,-0.377823,-0.2618,-1.265638,-0.361518,0.4764,1.528926,-0.341705,0.2618,0.213931,-0.126524,0.326977,-0.207966,-2.1948,0.41498,-0.18319,-0.031984,0.34608,-1.967777,0.271993,0.0
286,-0.275464,-3.226826,0.662776,0.11214,0.086302,-0.403022,0.904185,-0.895355,0.35014,-0.305547,0.884465,-0.325516,-0.2618,-1.072483,-0.396881,0.41342,1.485831,-0.497104,0.2618,0.173875,-0.095301,0.341897,-0.226712,-2.1948,0.42331,-0.160349,-0.01173,0.354409,-1.934321,0.259405,0.0
287,-0.284173,-3.228558,0.658594,0.12377,0.071719,-0.397388,0.906433,-0.880418,0.32548,-0.288301,0.885004,-0.288858,-0.2618,-1.070154,-0.444653,0.403092,1.494491,-0.577484,0.2618,0.161577,-0.092139,0.333487,-0.240599,-2.1948,0.399506,-0.17233,-0.017151,0.365102,-1.915089,0.27754,0.0
288,-0.286463,-3.23166,0.658992,0.131768,0.052752,-0.394507,0.907865,-0.838887,0.311255,-0.242477,0.882731,-0.259199,-0.2618,-1.06938,-0.515105,0.368994,1.499389,-0.605246,0.2618,0.147404,-0.051636,0.337173,-0.255465,-2.1948,0.375818,-0.189641,-0.00605,0.371831,-1.87567,0.303744,0.0
289,-0.296493,-3.239444,0.661702,0.134857,0.034724,-0.385558,0.912115,-0.791836,0.309274,-0.203384,0.843757,-0.210798,-0.2618,-1.027275,-0.544904,0.348784,1.504084,-0.615909,0.2618,0.111708,0.019095,0.371748,-0.260389,-2.1948,0.378364,-0.218364,0.024517,0.381835,-1.806765,0.301995,0.0
290,-0.297897,-3.248761,0.668682,0.130378,0.01939,-0.387153,0.912545,-0.725389,0.326447,-0.16211,0.811097,-0.187402,-0.2618,-0.929278,-0.557125,0.302828,1.464459,-0.625299,0.2618,0.097132,0.099832,0.450597,-0.25029,-2.1948,0.369678,-0.247049,0.053718,0.374031,-1.766297,0.311385,0.0
291,-0.300373,-3.247715,0.673024,0.143537,0.012193,-0.384806,0.911687,-0.704484,0.297502,-0.125261,0.792293,-0.152845,-0.2618,-0.943341,-0.594641,0.302225,1.447143,-0.642954,0.2618,0.075458,0.144892,0.493449,-0.244961,-2.1948,0.373668,-0.267542,0.061723,0.386793,-1.75383,0.340975,0.0
292,-0.30006,-3.247354,0.679864,0.150417,0.001115,-0.387361,0.909574,-0.660135,0.282244,-0.082338,0.767377,-0.116755,-0.2618,-0.903862,-0.629526,0.272663,1.397528,-0.670799,0.2618,0.067307,0.188951,0.535532,-0.225826,-2.1948,0.392709,-0.27314,0.080931,0.397295,-1.73101,0.339855,0.0
293,-0.301103,-3.24375,0.68557,0.159148,-0.009166,-0.382537,0.910084,-0.638774,0.252912,-0.060259,0.747661,-0.066765,-0.2618,-0.87704,-0.662661,0.262931,1.3568,-0.680699,0.2618,0.050215,0.193771,0.539686,-0.216383,-2.1948,0.393294,-0.269264,0.077924,0.40331,-1.724788,0.331504,0.0
294,-0.297539,-3.245032,0.6916,0.1589,-0.026804,-0.370822,0.914617,-0.596638,0.230211,-0.058121,0.725529,-0.021664,-0.2618,-0.784351,-0.70216,0.213661,1.322088,-0.680577,0.2618,0.034559,0.189216,0.534028,-0.219973,-2.1948,0.397337,-0.23783,0.067035,0.394393,-1.722601,0.317649,0.0
295,-0.294811,-3.243107,0.694299,0.158392,-0.044,-0.352895,0.921109,-0.578555,0.202067,-0.071406,0.721985,0.013266,-0.2618,-0.70446,-0.750022,0.156631,1.307307,-0.674569,0.2618,0.021385,0.165518,0.500712,-0.226051,-2.1948,0.382118,-0.192515,0.040996,0.384391,-1.726809,0.298425,0.0
296,-0.294422,-3.238161,0.69435,0.156944,-0.054625,-0.335984,0.927092,-0.585784,0.182616,-0.088537,0.729553,0.036615,-0.2618,-0.636231,-0.78609,0.097159,1.292919,-0.680406,0.2618,0.024063,0.12792,0.453427,-0.229562,-2.1948,0.384538,-0.154816,0.008613,0.367362,-1.742809,0.290627,0.0
297,-0.295979,-3.232569,0.693878,0.153757,-0.056727,-0.325708,0.931158,-0.605987,0.187156,-0.086158,0.734307,0.05502,-0.2618,-0.593662,-0.801313,0.046121,1.27683,-0.6807,0.2618,0.049064,0.082984,0.408223,-0.223019,-2.1948,0.392559,-0.130107,-0.026538,0.351656,-1.772391,0.287918,0.0
298,-0.298572,-3.230182,0.692032,0.150588,-0.050986,-0.320629,0.933767,-0.63405,0.20601,-0.079818,0.731655,0.077441,-0.2618,-0.592514,-0.79679,0.027823,1.275439,-0.6807,0.2618,0.08215,0.043904,0.368182,-0.205049,-2.1948,0.401882,-0.126196,-0.060532,0.347158,-1.805375,0.270474,0.0
299,-0.296485,-3.230915,0.691096,0.140957,-0.042552,-0.32878,0.932858,-0.640905,0.250091,-0.064548,0.726519,0.080288,-0.2618,-0.591071,-0.768205,0.018227,1.270163,-0.6807,0.2618,0.134647,0.025502,0.353751,-0.180341,-2.1948,0.432885,-0.12364,-0.089776,0.334072,-1.856708,0.249346,0.0
300,-0.291397,-3.222264,0.690891,0.135733,-0.031545,-0.332664,0.932693,-0.65638,0.259776,-0.061251,0.727915,0.054234,-0.2618,-0.615134,-0.754368,0.031133,1.254239,-0.6807,0.2618,0.161748,0.015902,0.335453,-0.150461,-2.1948,0.444863,-0.139167,-0.119054,0.33194,-1.896518,0.235402,0.0
301,-0.283606,-3.213069,0.690736,0.126328,-0.020068,-0.33815,0.932359,-0.670266,0.2909,-0.01873,0.747631,-0.016757,-0.2618,-0.613014,-0.731846,0.028846,1.224386,-0.6807,0.2618,0.177389,0.020522,0.340384,-0.125112,-2.1948,0.466198,-0.148439,-0.128378,0.318713,-1.929735,0.160381,0.0
302,-0.276471,-3.204045,0.689205,0.118675,-0.007969,-0.3336,0.935181,-0.706701,0.306311,0.00613,0.777132,-0.083469,-0.2618,-0.613505,-0.724647,0.013198,1.211317,-0.6807,0.2618,0.160457,0.01622,0.356214,-0.111085,-2.1948,0.469416,-0.164077,-0.118116,0.301362,-1.946891,0.075081,0.0
303,-0.269253,-3.194767,0.693873,0.114853,0.00422,-0.329294,0.937207,-0.743451,0.301214,-0.000568,0.786028,-0.092864,-0.2618,-0.611626,-0.721967,-0.007854,1.177931,-0.66455,0.2618,0.135967,0.013519,0.373229,-0.100927,-2.1948,0.454552,-0.184484,-0.104684,0.287145,-1.956544,0.05165,0.0
304,-0.255505,-3.183374,0.705418,0.11303,0.013091,-0.329199,0.93738,-0.744586,0.285687,0.015911,0.779035,-0.094459,-0.2618,-0.58954,-0.728334,-0.035612,1.1087,-0.593549,0.2618,0.116045,0.036975,0.390089,-0.091948,-2.1948,0.468908,-0.203537,-0.083175,0.278127,-1.943193,0.039818,0.0
305,-0.234484,-3.171561,0.725848,0.112527,0.014479,-0.333298,0.93597,-0.695189,0.259769,0.057759,0.741923,-0.068252,-0.2618,-0.525798,-0.743666,-0.088215,1.001511,-0.46515,0.2618,0.112818,0.091187,0.398693,-0.083564,-2.194619,0.486685,-0.204561,-0.045696,0.262035,-1.900548,-0.015703,0.0
306,-0.205357,-3.154532,0.749116,0.118244,0.012448,-0.334043,0.935029,-0.644579,0.200818,0.08545,0.708177,-0.011447,-0.2618,-0.480957,-0.794654,-0.16706,0.910477,-0.294354,0.2618,0.107565,0.129736,0.388723,-0.087422,-2.194354,0.487128,-0.197198,-0.020337,0.258701,-1.875337,-0.042369,0.0
307,-0.181155,-3.136641,0.767339,0.123075,0.013356,-0.338121,0.932925,-0.636815,0.15535,0.08733,0.707485,0.070674,-0.2618,-0.495818,-0.840536,-0.265653,0.884306,-0.176208,0.190707,0.113441,0.134289,0.373531,-0.092414,-2.1948,0.449999,-0.196529,-0.010722,0.263343,-1.878808,-0.008426,0.0
308,-0.17045,-3.119575,0.777834,0.122657,0.017651,-0.339893,0.932264,-0.677858,0.136132,0.039603,0.735695,0.156441,-0.2618,-0.573175,-0.772493,-0.162945,0.942273,-0.186903,0.252525,0.125215,0.112766,0.349924,-0.090567,-2.1948,0.469485,-0.201451,-0.007384,0.266508,-1.887906,0.029246,0.0
309,-0.173112,-3.105965,0.782389,0.111513,0.028033,-0.356325,0.92726,-0.727173,0.158257,-0.061619,0.76341,0.185525,-0.2618,-0.65308,-0.658183,-0.099765,1.020543,-0.199644,0.2618,0.17672,0.062509,0.326214,-0.073992,-2.1948,0.488,-0.212081,-0.003068,0.265249,-1.89281,0.010881,0.0
310,-0.155981,-3.094761,0.773826,0.111851,0.030978,-0.362905,0.92457,-0.76932,0.174696,-0.084521,0.841839,0.137025,-0.2618,-0.66125,-0.626193,-0.108794,1.048531,-0.227759,0.2618,0.214333,-0.006747,0.264324,-0.060971,-2.1948,0.491739,-0.208054,-0.037686,0.269047,-1.912771,0.013389,0.0
311,-0.157131,-3.096765,0.758131,0.10081,0.035116,-0.374206,0.921181,-0.798736,0.292705,-0.047936,0.85176,0.111474,-0.2618,-0.58581,-0.608618,-0.21392,1.020871,-0.41421,0.2618,0.267256,-0.082086,0.216223,-0.051726,-2.1948,0.497684,-0.194927,-0.071519,0.266529,-1.950588,0.027123,0.0
312,-0.151898,-3.098297,0.743599,0.086636,0.032789,-0.372949,0.923216,-0.77323,0.326881,-0.112691,0.788778,0.170681,-0.2618,-0.534517,-0.586605,-0.218822,1.032365,-0.496811,0.2618,0.294746,-0.148148,0.17732,-0.048017,-2.194572,0.511303,-0.184671,-0.107992,0.26454,-1.98447,0.024544,0.0
313,-0.134226,-3.084352,0.728485,0.077291,0.023857,-0.368083,0.926268,-0.701992,0.328062,-0.099453,0.791599,-0.054728,-0.2618,-0.534835,-0.621695,-0.189205,1.079266,-0.501851,0.2618,0.309884,-0.194389,0.151255,-0.058844,-2.194572,0.505694,-0.175732,-0.156152,0.252951,-2.022872,0.006283,0.0
314,-0.126836,-3.076685,0.707677,0.068985,0.024998,-0.363465,0.928714,-0.729599,0.34349,-0.086823,0.863878,-0.250472,-0.2618,-0.584813,-0.654898,-0.179364,1.167468,-0.526004,0.2618,0.305096,-0.237521,0.15184,-0.066776,-2.194799,0.49551,-0.208172,-0.186461,0.253635,-2.048426,0.002975,0.0
315,-0.11996,-3.068169,0.699028,0.067788,0.02567,-0.358564,0.930687,-0.78297,0.322946,-0.126377,0.940366,-0.289991,-0.2618,-0.574769,-0.670737,-0.182686,1.164353,-0.565411,0.2618,0.287828,-0.261006,0.164834,-0.074189,-2.194798,0.503633,-0.245154,-0.195878,0.248378,-2.048305,0.016426,0.0
316,-0.108369,-3.065769,0.70148,0.065836,0.019031,-0.360251,0.930335,-0.77973,0.313026,-0.123925,0.982354,-0.275315,-0.2618,-0.517451,-0.677172,-0.197639,1.121969,-0.557862,0.2618,0.276246,-0.24411,0.198385,-0.075217,-2.1948,0.474243,-0.260762,-0.165782,0.230547,-2.028473,0.007839,0.0
317,-0.09801,-3.05846,0.711186,0.067653,0.016659,-0.360886,0.930004,-0.773957,0.292687,-0.109679,0.99093,-0.227855,-0.2618,-0.498952,-0.69784,-0.216281,1.080735,-0.486192,0.2618,0.253389,-0.199497,0.235378,-0.065801,-2.1948,0.444345,-0.276407,-0.121646,0.213418,-2.00944,0.001663,0.0
318,-0.083672,-3.045012,0.725548,0.074487,0.01766,-0.358659,0.930325,-0.782098,0.246999,-0.111678,0.995073,-0.14033,-0.2618,-0.504528,-0.729999,-0.216576,1.027865,-0.371204,0.2618,0.222187,-0.133125,0.262646,-0.052788,-2.1948,0.436049,-0.289998,-0.081513,0.193789,-2.003793,0.023952,0.0
319,-0.067042,-3.02311,0.738035,0.086327,0.022942,-0.353542,0.931144,-0.821079,0.190144,-0.119548,1.014752,-0.047857,-0.2618,-0.531667,-0.765281,-0.191441,0.96069,-0.266991,0.2618,0.186527,-0.073522,0.267303,-0.032266,-2.1948,0.399108,-0.308208,-0.053945,0.166747,-2.001588,0.042854,0.0
320,-0.05546,-3.000912,0.74387,0.095336,0.02992,-0.350429,0.931244,-0.856416,0.158522,-0.138353,1.018605,-0.020225,-0.2618,-0.532818,-0.790743,-0.200208,0.883051,-0.223886,0.2618,0.159754,-0.047785,0.263038,-0.015194,-2.1948,0.396647,-0.324558,-0.031064,0.141861,-1.994175,0.054206,0.0
321,-0.070454,-3.009614,0.743292,0.086268,0.041244,-0.361796,0.92734,-0.886204,0.315582,-0.084341,0.952359,-0.036725,-0.2618,-0.500326,-0.738792,-0.270095,0.864108,-0.28884,0.2618,0.181596,-0.061055,0.269185,0.000574,-2.1948,0.399793,-0.326178,0.012995,0.124199,-1.970259,0.05924,0.0
322,-0.079074,-3.02935,0.733471,0.063539,0.050263,-0.377022,0.922654,-0.897194,0.518989,-0.037207,0.862313,-0.010934,-0.2618,-0.443861,-0.65524,-0.314889,0.86207,-0.407626,0.2618,0.245919,-0.09951,0.258605,-0.003312,-2.1948,0.406687,-0.311966,0.029179,0.128626,-1.949377,0.06051,0.0
323,-0.072439,-3.034717,0.723213,0.037409,0.047261,-0.387889,0.919733,-0.867699,0.58461,-0.170765,0.790173,0.098657,-0.2618,-0.422126,-0.614835,-0.297878,0.900391,-0.418948,0.2618,0.329689,-0.149838,0.215425,-0.042283,-2.1948,0.447106,-0.284026,-0.02251,0.169025,-1.96104,0.096878,0.0
324,-0.055715,-3.015834,0.714237,0.015791,0.041767,-0.386018,0.92141,-0.852084,0.581951,-0.282095,0.785461,0.214199,-0.2618,-0.401358,-0.62122,-0.300641,0.911027,-0.375719,0.2618,0.410863,-0.226271,0.12875,-0.089166,-2.193065,0.406275,-0.243047,-0.119055,0.199124,-2.008708,0.105008,0.0
325,-0.050078,-3.000962,0.70076,-0.009128,0.040909,-0.362702,0.930962,-0.889243,0.626346,-0.240712,0.805499,0.051749,-0.2618,-0.330655,-0.607889,-0.358973,0.920204,-0.390629,0.2618,0.454053,-0.310484,0.020091,-0.120469,-2.159305,0.382462,-0.189966,-0.211602,0.18913,-2.083838,0.059055,0.0
326,-0.041829,-2.997093,0.691426,-0.033205,0.042963,-0.341881,0.938173,-0.945364,0.642161,-0.284334,0.841754,-0.098559,-0.2618,-0.250156,-0.576802,-0.421519,0.916826,-0.393098,0.2618,0.487448,-0.361333,-0.087411,-0.115315,-2.11645,0.40654,-0.143584,-0.281938,0.151774,-2.153635,0.031842,0.0
327,-0.020402,-2.991785,0.689236,-0.043968,0.037074,-0.334289,0.940714,-0.945139,0.621679,-0.334348,0.906179,-0.168296,-0.2618,-0.187875,-0.582951,-0.440993,0.895996,-0.330014,0.2618,0.519234,-0.362406,-0.174642,-0.083386,-2.084791,0.36561,-0.097632,-0.333633,0.115924,-2.193868,0.002319,0.0
328,0.006095,-2.981673,0.687619,-0.050745,0.036814,-0.329411,0.942103,-0.964073,0.599111,-0.35623,0.991899,-0.242294,-0.2618,-0.180278,-0.607561,-0.424304,0.896682,-0.211823,0.2618,0.516337,-0.342179,-0.199768,-0.074659,-2.063966,0.385305,-0.075707,-0.324303,0.095054,-2.1948,-0.017807,0.0
329,0.035567,-2.969112,0.686113,-0.051871,0.040885,-0.325216,0.94333,-0.966866,0.565088,-0.356848,1.067649,-0.333493,-0.2618,-0.19814,-0.637034,-0.387668,0.889438,-0.076027,0.2618,0.476903,-0.323095,-0.17802,-0.075335,-2.05543,0.372513,-0.060376,-0.273531,0.090442,-2.1948,-0.030498,0.0
330,0.068426,-2.955132,0.683208,-0.043226,0.045778,-0.317304,0.946231,-0.961179,0.507449,-0.334984,1.145613,-0.422045,-0.2618,-0.214331,-0.680761,-0.361667,0.87325,0.044681,0.2618,0.411223,-0.293128,-0.151314,-0.077263,-2.060016,0.365934,-0.046577,-0.213968,0.091249,-2.1948,-0.046914,0.0
331,0.094213,-2.942253,0.682647,-0.027223,0.053177,-0.313013,0.947868,-0.951287,0.451775,-0.287642,1.192533,-0.475741,-0.2618,-0.258306,-0.719737,-0.34157,0.874515,0.019515,0.19798,0.33642,-0.246425,-0.116008,-0.074773,-2.082874,0.404361,-0.049378,-0.158158,0.096211,-2.188003,-0.039967,0.0
332,0.087455,-2.944565,0.699291,-0.015935,0.066453,-0.313891,0.946996,-0.930112,0.440756,-0.248873,1.105466,-0.428329,-0.2618,-0.376199,-0.630975,-0.197258,0.912767,-0.167041,0.2618,0.265524,-0.20287,-0.044769,-0.070069,-2.120186,0.410764,-0.08504,-0.083461,0.116475,-2.155334,-0.010068,0.0
333,0.080809,-2.944271,0.713861,-0.002618,0.082494,-0.318475,0.944331,-0.920439,0.429739,-0.204295,1.026825,-0.378866,-0.2618,-0.527295,-0.549993,-0.115892,0.997032,-0.273203,0.2618,0.221085,-0.154608,0.037792,-0.059825,-2.164055,0.420836,-0.136085,-0.001469,0.128136,-2.10261,0.02344,0.0
334,0.074523,-2.93858,0.723546,0.013463,0.101087,-0.327631,0.939286,-0.940247,0.414548,-0.162668,0.982377,-0.330484,-0.2618,-0.695337,-0.478409,-0.072198,1.108293,-0.318482,0.2618,0.211863,-0.115837,0.114659,-0.042247,-2.194556,0.463916,-0.191281,0.067516,0.133245,-2.045429,0.058119,0.0
335,0.087623,-2.918169,0.723628,0.039162,0.119681,-0.334855,0.933817,-1.000648,0.354764,-0.128908,1.036567,-0.307903,-0.2618,-0.828032,-0.455537,-0.058346,1.168474,-0.32125,0.2618,0.214061,-0.117116,0.139131,-0.022323,-2.1948,0.469338,-0.234227,0.087142,0.150602,-2.00255,0.101406,0.0
336,0.095302,-2.897653,0.713736,0.064522,0.133386,-0.335506,0.930312,-1.107462,0.294683,-0.123577,1.141724,-0.264846,-0.2618,-0.816582,-0.546674,-0.207125,1.084083,-0.504522,0.2618,0.235941,-0.144347,0.105939,-0.017168,-2.194357,0.457579,-0.250085,0.064376,0.16061,-1.969771,0.098943,0.0
337,0.098487,-2.895189,0.715424,0.060272,0.130849,-0.30892,0.940114,-1.152043,0.254167,-0.179453,1.170532,-0.186775,-0.2618,-0.749484,-0.557537,-0.227963,1.05877,-0.500966,0.2618,0.236338,-0.190633,0.097661,-0.042464,-2.167312,0.47166,-0.239315,0.0571,0.1582,-1.948138,0.053668,0.0
338,0.099109,-2.905096,0.716624,0.04548,0.12388,-0.286009,0.949096,-1.137767,0.25423,-0.214959,1.148704,-0.182637,-0.2618,-0.679974,-0.546888,-0.258775,1.081133,-0.460158,0.2618,0.248097,-0.23807,0.085796,-0.072341,-2.16266,0.472104,-0.246657,0.013175,0.17314,-1.958138,0.095817,0.0
339,0.103831,-2.914096,0.720335,0.021223,0.113261,-0.28147,0.952626,-1.072885,0.329083,-0.172958,1.102985,-0.265032,-0.2618,-0.577133,-0.513118,-0.341886,1.064674,-0.427279,0.2618,0.300496,-0.290627,0.063461,-0.097213,-2.161716,0.460783,-0.245924,-0.040277,0.180324,-1.973108,0.093506,0.0
340,0.114309,-2.922839,0.73774,-0.004027,0.094378,-0.263455,0.960035,-0.978997,0.346246,-0.20019,1.032652,-0.240372,-0.2618,-0.407701,-0.462548,-0.447532,0.979357,-0.339737,0.2618,0.339887,-0.338166,0.03142,-0.116416,-2.155888,0.468827,-0.191183,-0.103583,0.162176,-1.997378,0.04656,0.0
341,0.130282,-2.932941,0.765829,-0.030751,0.074085,-0.247427,0.96558,-0.856842,0.372888,-0.216955,0.930547,-0.144524,-0.2618,-0.238124,-0.38418,-0.550288,0.854132,-0.208804,0.193512,0.39743,-0.365395,0.001531,-0.116879,-2.166361,0.438063,-0.113313,-0.176679,0.131478,-2.042362,0.020009,0.0
342,0.129543,-2.946269,0.790866,-0.05966,0.067287,-0.240028,0.966592,-0.81474,0.434988,-0.239918,0.836437,-0.001582,-0.2618,-0.183379,-0.270075,-0.583346,0.782318,-0.182241,0.026934,0.448412,-0.383421,-0.030064,-0.095536,-2.176504,0.431372,-0.092569,-0.239055,0.121871,-2.075875,0.024138,0.0
343,0.124985,-2.950964,0.803196,-0.071145,0.06426,-0.216044,0.971666,-0.824502,0.455091,-0.246813,0.786393,0.072796,-0.2618,-0.224043,-0.176506,-0.411775,0.764071,-0.179551,0.261797,0.431333,-0.371692,-0.086963,-0.075775,-2.173065,0.479813,-0.078576,-0.29966,0.12099,-2.101111,0.044758,0.0
344,0.118351,-2.969879,0.806383,-0.0782,0.062858,-0.194526,0.975753,-0.830852,0.517555,-0.183949,0.782368,0.067438,-0.2618,-0.267549,-0.137652,-0.333388,0.767588,-0.179817,0.2618,0.382948,-0.35889,-0.123687,-0.065855,-2.150622,0.464484,-0.083017,-0.313826,0.127347,-2.113472,0.043494,0.0
