chrisxuxuhui/mimic_robot/GMR/RetargetData/lafan1/csv/pm01/fight5_gouquan1.csv
frame,root pos x,root pos y,root pos z,root rot x,root rot y,root rot z,root rot w,j00_hip_pitch_l_joint,j01_hip_roll_l_joint,j02_hip_yaw_l_joint,j03_knee_pitch_l_joint,j04_ankle_pitch_l_joint,j05_ankle_roll_l_joint,j06_hip_pitch_r_joint,j07_hip_roll_r_joint,j08_hip_yaw_r_joint,j09_knee_pitch_r_joint,j10_ankle_pitch_r_joint,j11_ankle_roll_r_joint,j12_waist_yaw_joint,j13_shoulder_pitch_l_joint,j14_shoulder_roll_l_joint,j15_shoulder_yaw_l_joint,j16_elbow_pitch_l_joint,j17_elbow_yaw_l_joint,j18_shoulder_pitch_r_joint,j19_shoulder_roll_r_joint,j20_shoulder_yaw_r_joint,j21_elbow_pitch_r_joint,j22_elbow_yaw_r_joint,j23_head_yaw_joint
0,1.644305,-1.103827,0.750177,-0.123476,-0.097623,0.625574,-0.76412,-0.787219,0.260846,-0.009132,1.100069,-0.271757,-0.105367,-0.865812,0.142161,-0.096206,1.026345,-0.322099,-0.228435,-0.101272,-0.68844,0.044586,-0.332311,-2.132416,-0.240714,-0.191425,-0.748361,0.115305,-2.1948,0.104915,0.0
1,1.654484,-1.081231,0.723168,-0.124564,-0.094188,0.63198,-0.759087,-0.694732,0.314707,-0.011744,1.194272,-0.323658,-0.091441,-0.970242,0.143525,-0.055413,1.167862,-0.389595,-0.227828,-0.11725,-0.608659,0.063524,-0.330543,-2.129438,-0.269596,-0.128277,-0.721169,0.110934,-2.1948,0.136176,0.0
2,1.663693,-1.055096,0.702181,-0.125251,-0.089498,0.63135,-0.760065,-0.582096,0.319156,-0.028597,1.227524,-0.36104,-0.116161,-1.059933,0.118134,-0.057193,1.266541,-0.428223,-0.246019,-0.160146,-0.511136,0.070164,-0.322621,-2.101633,-0.298486,-0.04476,-0.681573,0.102552,-2.1948,0.167458,0.0
3,1.670271,-1.02281,0.690306,-0.124543,-0.086157,0.621086,-0.768972,-0.488605,0.280829,-0.0753,1.216398,-0.375615,-0.166715,-1.119318,0.087768,-0.057835,1.295131,-0.464208,-0.248234,-0.222819,-0.410534,0.079973,-0.315444,-2.070028,-0.317557,0.037829,-0.632885,0.089055,-2.189705,0.15862,0.0
4,1.675933,-0.988004,0.687128,-0.119657,-0.086268,0.607744,-0.780313,-0.410321,0.22949,-0.132468,1.168629,-0.344751,-0.230303,-1.168696,0.061144,-0.064169,1.29017,-0.439576,-0.251977,-0.279737,-0.31718,0.114821,-0.318472,-2.060682,-0.314424,0.095712,-0.572853,0.077689,-2.146245,0.172343,0.0
5,1.683972,-0.949575,0.68875,-0.114936,-0.090957,0.596235,-0.789316,-0.360909,0.193941,-0.146136,1.092369,-0.299426,-0.2618,-1.223043,0.044334,-0.05545,1.264934,-0.369851,-0.235563,-0.327251,-0.243705,0.162256,-0.317746,-2.065632,-0.300407,0.153478,-0.515321,0.062234,-2.129404,0.194432,0.0
6,1.683638,-0.910439,0.695898,-0.111915,-0.096509,0.587966,-0.795271,-0.339588,0.201856,-0.101837,0.973085,-0.345338,-0.261275,-1.252437,0.037372,-0.058844,1.191605,-0.277643,-0.227891,-0.361293,-0.182718,0.216049,-0.302129,-2.086419,-0.278189,0.208798,-0.470382,0.047221,-2.120919,0.17021,0.0
7,1.686331,-0.867711,0.711001,-0.115384,-0.101898,0.578646,-0.800919,-0.368286,0.189338,-0.065226,0.900907,-0.433292,-0.257673,-1.267366,0.017562,-0.053998,1.070398,-0.154265,-0.207253,-0.3855,-0.160101,0.262052,-0.285708,-2.103563,-0.263625,0.23843,-0.450737,0.031053,-2.109255,0.144225,0.0
8,1.691385,-0.821895,0.728825,-0.116885,-0.111091,0.585356,-0.794579,-0.427029,0.168526,-0.040247,0.870619,-0.451863,-0.228025,-1.252618,0.042137,-0.024335,0.892287,0.018455,-0.165538,-0.357335,-0.156398,0.311089,-0.273752,-2.117979,-0.268208,0.254023,-0.443941,0.024313,-2.102236,0.152031,0.0
9,1.696795,-0.776911,0.747197,-0.114227,-0.122449,0.601934,-0.780791,-0.488199,0.157968,-0.025705,0.852049,-0.435295,-0.203842,-1.20332,0.095569,0.038029,0.667671,0.237183,-0.065968,-0.294983,-0.153793,0.371786,-0.268003,-2.132535,-0.287392,0.265977,-0.439035,0.031196,-2.093604,0.162253,0.0
10,1.697455,-0.734729,0.76516,-0.108431,-0.132159,0.610299,-0.773506,-0.540627,0.160989,-0.018925,0.815723,-0.404716,-0.191513,-1.129014,0.137128,0.161526,0.47605,0.328567,0.228182,-0.253814,-0.133078,0.444918,-0.258176,-2.146181,-0.325091,0.275312,-0.436761,0.052284,-2.085493,0.176981,0.0
11,1.695597,-0.696727,0.775816,-0.109881,-0.135716,0.613233,-0.770359,-0.594881,0.147751,-0.01843,0.794794,-0.374883,-0.180399,-1.087661,0.136495,0.196577,0.445855,0.147509,0.256183,-0.234356,-0.11821,0.493932,-0.244771,-2.137489,-0.360319,0.265171,-0.461844,0.074133,-2.067686,0.207346,0.0
12,1.695252,-0.660556,0.784378,-0.113001,-0.135614,0.621831,-0.762998,-0.635481,0.132715,-0.000593,0.774858,-0.340252,-0.165562,-1.079799,0.117302,0.152975,0.542114,0.088099,0.249451,-0.20667,-0.093526,0.520022,-0.227427,-2.112839,-0.371053,0.246225,-0.498945,0.096928,-2.029261,0.234154,0.0
13,1.693334,-0.627408,0.789502,-0.114025,-0.130975,0.623539,-0.762262,-0.67296,0.114777,0.006379,0.767641,-0.305008,-0.14764,-1.067193,0.073765,0.094541,0.715225,-0.021029,0.161093,-0.198561,-0.05443,0.533247,-0.20618,-2.076072,-0.386979,0.239,-0.529634,0.11337,-1.966682,0.248946,0.0
14,1.689078,-0.593712,0.790992,-0.114565,-0.126793,0.61901,-0.766567,-0.727059,0.092903,-0.007599,0.777463,-0.27004,-0.132785,-1.043597,0.004621,0.012396,0.89917,-0.11018,0.109665,-0.198968,-0.02818,0.541295,-0.191472,-2.023408,-0.422589,0.239504,-0.54712,0.112046,-1.900796,0.274261,0.0
15,1.683833,-0.558058,0.790791,-0.113199,-0.125661,0.612732,-0.771981,-0.792045,0.07424,-0.024767,0.793273,-0.234546,-0.11498,-0.991829,-0.050946,-0.035718,1.044202,-0.17178,0.076322,-0.192985,-0.013931,0.546203,-0.184221,-1.969131,-0.468671,0.245838,-0.549292,0.09289,-1.840045,0.300349,0.0
16,1.679769,-0.524344,0.788392,-0.108779,-0.121141,0.606472,-0.778257,-0.836732,0.053887,-0.042906,0.801772,-0.211602,-0.102192,-0.905713,-0.093483,-0.052302,1.155159,-0.211539,0.060456,-0.184168,0.013337,0.541205,-0.173953,-1.938678,-0.526954,0.273007,-0.552797,0.064893,-1.813409,0.31663,0.0
17,1.675608,-0.489446,0.781935,-0.105093,-0.117328,0.602393,-0.782504,-0.887035,0.031855,-0.06385,0.818212,-0.200248,-0.093244,-0.811828,-0.117214,-0.048663,1.237314,-0.214705,0.065324,-0.167507,0.036997,0.528117,-0.156214,-1.92347,-0.551249,0.294324,-0.558896,0.040106,-1.81395,0.303132,0.0
18,1.669647,-0.454597,0.771682,-0.100029,-0.110255,0.599283,-0.786574,-0.937952,0.012699,-0.076864,0.846986,-0.190651,-0.07493,-0.704335,-0.123399,-0.031112,1.291887,-0.197189,0.089144,-0.151998,0.071182,0.499606,-0.129853,-1.916515,-0.545572,0.31173,-0.570336,0.023548,-1.831231,0.274192,0.0
19,1.661005,-0.418895,0.761122,-0.095637,-0.102549,0.601526,-0.78645,-0.990054,0.002618,-0.082711,0.872506,-0.163023,-0.060204,-0.595694,-0.107906,-0.001132,1.303841,-0.171944,0.144193,-0.124405,0.110158,0.456519,-0.092953,-1.922964,-0.546996,0.314716,-0.583059,0.015011,-1.862926,0.26712,0.0
20,1.650119,-0.381606,0.753087,-0.093841,-0.096258,0.610759,-0.780322,-1.0403,0.005021,-0.080709,0.877998,-0.109284,-0.059413,-0.50366,-0.071966,0.050486,1.262928,-0.136451,0.184062,-0.079306,0.14565,0.399949,-0.055969,-1.937322,-0.543334,0.29812,-0.59349,0.015946,-1.895948,0.273027,0.0
21,1.636661,-0.340421,0.747752,-0.095754,-0.093797,0.624762,-0.769224,-1.088662,0.018623,-0.071255,0.849156,-0.0307,-0.062838,-0.442361,-0.040989,0.090357,1.155212,-0.080993,0.123133,-0.021137,0.16695,0.339604,-0.032206,-1.943585,-0.50328,0.266554,-0.598171,0.021887,-1.919391,0.27642,0.0
22,1.620015,-0.296813,0.746563,-0.099097,-0.096454,0.637538,-0.757907,-1.124289,0.036605,-0.069278,0.769804,0.077024,-0.081358,-0.411419,-0.027916,0.090427,1.021836,-0.229068,0.05001,0.03348,0.167246,0.290801,-0.022467,-1.947566,-0.461478,0.225729,-0.594912,0.035383,-1.942191,0.281951,0.0
23,1.600956,-0.254337,0.747497,-0.105106,-0.098895,0.640426,-0.754339,-1.138535,0.033304,-0.093628,0.648081,0.217579,-0.14158,-0.428279,-0.026183,0.060796,0.963128,-0.400878,0.039679,0.055417,0.151328,0.256027,-0.020303,-1.96683,-0.440238,0.190902,-0.607093,0.051984,-1.97554,0.28066,0.0
24,1.59521,-0.211259,0.74875,-0.114274,-0.099122,0.637078,-0.755809,-1.123147,0.00023,-0.159474,0.52092,0.293096,-0.261799,-0.487302,-0.045995,0.045256,0.94939,-0.498886,0.040354,0.048776,0.126617,0.229859,-0.035755,-1.989069,-0.427907,0.169248,-0.648249,0.068765,-2.011555,0.279944,0.0
25,1.584086,-0.175007,0.752106,-0.120353,-0.096606,0.634803,-0.757104,-1.104845,-0.048019,-0.288666,0.52631,0.195416,-0.2618,-0.530907,-0.05232,0.031853,0.927902,-0.556972,0.024145,0.027618,0.095483,0.215839,-0.063902,-2.004663,-0.414985,0.165851,-0.70018,0.084545,-2.048999,0.284916,0.0
26,1.565879,-0.14153,0.754834,-0.120226,-0.100823,0.627144,-0.762935,-1.127319,-0.049813,-0.267656,0.672358,0.077625,-0.2618,-0.581412,-0.026859,0.012547,0.920328,-0.568068,-0.012848,-0.013395,0.04091,0.227856,-0.103209,-2.010874,-0.429118,0.173516,-0.717979,0.091959,-2.080257,0.286548,0.0
27,1.538843,-0.106125,0.762381,-0.117938,-0.110511,0.618278,-0.769162,-1.161174,0.035018,-0.113128,0.873841,0.011178,-0.2618,-0.640008,0.017586,-0.02058,0.899068,-0.52255,-0.065595,-0.061423,-0.024183,0.252308,-0.153808,-2.013181,-0.460423,0.189116,-0.70137,0.095866,-2.099161,0.267303,0.0
28,1.510351,-0.072005,0.776954,-0.114662,-0.11936,0.616016,-0.770149,-1.139858,0.161475,0.026799,1.064457,-0.041105,-0.199127,-0.676028,0.068949,-0.038981,0.832399,-0.426989,-0.102084,-0.100374,-0.070372,0.272939,-0.207484,-2.025404,-0.473492,0.220119,-0.676913,0.099703,-2.117133,0.245773,0.0
29,1.489311,-0.036288,0.796117,-0.113997,-0.122404,0.614725,-0.770801,-1.042097,0.235029,0.117776,1.194564,-0.047144,-0.085611,-0.706007,0.094898,-0.048291,0.754177,-0.283362,-0.114456,-0.148571,-0.091163,0.284319,-0.255735,-2.048881,-0.450877,0.26348,-0.662132,0.10313,-2.141681,0.221027,0.0
30,1.471307,0.001005,0.812862,-0.119515,-0.122497,0.612709,-0.771556,-0.91108,0.215337,0.137227,1.25509,0.001692,-0.075431,-0.765307,0.09952,-0.04587,0.711534,-0.118128,-0.101978,-0.203845,-0.107226,0.289622,-0.299071,-2.073994,-0.406837,0.304581,-0.661329,0.106068,-2.164535,0.180875,0.0
31,1.455653,0.040855,0.823634,-0.127533,-0.125101,0.612505,-0.770014,-0.784065,0.141717,0.116591,1.25149,0.087984,-0.119746,-0.855911,0.106133,0.001277,0.709745,0.010781,0.028508,-0.250104,-0.127143,0.300613,-0.338703,-2.100069,-0.387403,0.319348,-0.657726,0.118924,-2.172371,0.15004,0.0
32,1.434134,0.077288,0.824299,-0.135936,-0.125662,0.61206,-0.768839,-0.655794,0.047078,0.058562,1.182422,0.177575,-0.186843,-0.943469,0.106933,0.057684,0.740312,0.032035,0.261799,-0.295662,-0.145749,0.31798,-0.361915,-2.130589,-0.381905,0.318787,-0.655638,0.135617,-2.181938,0.145045,0.0
33,1.392039,0.104576,0.812853,-0.135039,-0.127829,0.613456,-0.767526,-0.521669,0.005536,-0.034671,1.06461,0.214023,-0.25106,-1.006779,0.132678,0.068162,0.811351,0.018895,0.2618,-0.323924,-0.153043,0.357861,-0.371573,-2.168582,-0.371958,0.313508,-0.633325,0.153602,-2.190275,0.153539,0.0
34,1.387175,0.133682,0.798194,-0.134698,-0.123642,0.606608,-0.77369,-0.349885,-0.038461,-0.036398,0.855563,0.240638,-0.181739,-1.076634,0.11621,0.173951,0.976121,-0.095009,0.2618,-0.352987,-0.157983,0.379399,-0.380222,-2.1948,-0.376227,0.302851,-0.602005,0.162744,-2.180624,0.155856,0.0
35,1.384302,0.167109,0.773347,-0.127986,-0.12349,0.602122,-0.778344,-0.205854,-0.039229,0.014128,0.657977,0.045875,-0.04954,-1.14202,0.065902,0.217623,1.172163,-0.203832,0.2618,-0.356888,-0.160914,0.395318,-0.390535,-2.1948,-0.377048,0.280616,-0.554878,0.170678,-2.155921,0.152904,0.0
36,1.377388,0.194867,0.750247,-0.121367,-0.119855,0.578892,-0.797364,-0.149415,-0.026988,0.009174,0.620499,-0.285646,-0.031456,-1.164417,-0.050258,0.229042,1.342175,-0.254904,0.21334,-0.39328,-0.140937,0.398593,-0.389668,-2.1948,-0.386315,0.25227,-0.503874,0.16904,-2.125888,0.153751,0.0
37,1.364822,0.220636,0.730087,-0.114602,-0.121898,0.551525,-0.817207,-0.189232,-0.003969,-0.05489,0.675296,-0.518037,-0.053978,-1.145425,-0.156044,0.231711,1.461614,-0.328348,0.125126,-0.414412,-0.101003,0.401766,-0.381379,-2.194653,-0.407393,0.225146,-0.444312,0.159514,-2.070505,0.150305,0.0
38,1.356621,0.245811,0.7164,-0.110445,-0.131269,0.535936,-0.826646,-0.266239,0.007848,-0.099212,0.747016,-0.670444,-0.04918,-1.096908,-0.217145,0.245854,1.512956,-0.364669,0.056875,-0.383614,-0.064581,0.406555,-0.37503,-2.144702,-0.460669,0.215302,-0.372158,0.145918,-2.001568,0.161112,0.0
39,1.346715,0.267308,0.715015,-0.112536,-0.138391,0.529122,-0.829586,-0.328679,0.007675,-0.12213,0.766429,-0.6807,-0.049699,-1.015258,-0.260263,0.238812,1.488843,-0.356127,-0.003272,-0.321041,-0.00881,0.400575,-0.360849,-2.095087,-0.489469,0.234364,-0.333288,0.134309,-1.952542,0.150762,0.0
40,1.336041,0.282437,0.717478,-0.11102,-0.143418,0.540007,-0.821887,-0.376708,0.019795,-0.119888,0.798212,-0.6807,-0.061647,-0.914472,-0.287243,0.18728,1.42525,-0.364081,-0.051989,-0.221065,0.074731,0.389531,-0.327598,-2.059091,-0.431886,0.269173,-0.349181,0.143826,-1.947529,0.107119,0.0
41,1.320617,0.297048,0.722707,-0.112878,-0.153529,0.554936,-0.809773,-0.455872,0.04125,-0.112422,0.855002,-0.6807,-0.078383,-0.840987,-0.299579,0.102035,1.352846,-0.361074,-0.0825,-0.124247,0.155816,0.379992,-0.269006,-2.038123,-0.349801,0.280212,-0.39,0.172578,-1.988519,0.122685,0.0
42,1.301861,0.307435,0.736052,-0.110697,-0.164098,0.573519,-0.794918,-0.516227,0.082757,-0.102126,0.878445,-0.622226,-0.100219,-0.746068,-0.270975,0.004236,1.236364,-0.267917,-0.076768,-0.02549,0.244802,0.386453,-0.184838,-2.02991,-0.298656,0.285032,-0.418315,0.186361,-2.044769,0.151777,0.0
43,1.281005,0.316952,0.755087,-0.109784,-0.175634,0.597453,-0.774694,-0.579882,0.132715,-0.073831,0.893899,-0.497326,-0.100847,-0.648336,-0.226287,-0.093724,1.067186,-0.194989,-0.000784,0.084645,0.299233,0.388304,-0.104204,-2.007839,-0.284913,0.272229,-0.44106,0.168993,-2.086801,0.135725,0.0
44,1.259924,0.324522,0.772427,-0.107534,-0.188246,0.621765,-0.752601,-0.665083,0.197699,-0.029117,0.942007,-0.355517,-0.046088,-0.552609,-0.177824,-0.200555,0.867091,-0.163213,0.084947,0.199187,0.311527,0.393728,-0.029948,-1.978785,-0.288591,0.244738,-0.464116,0.132364,-2.117528,0.100478,0.0
45,1.239871,0.329447,0.785677,-0.102482,-0.20273,0.64063,-0.733479,-0.777592,0.275977,0.007205,1.01944,-0.206371,0.054979,-0.478865,-0.101102,-0.23966,0.684993,-0.162491,0.148309,0.303199,0.283826,0.403136,0.04001,-1.948754,-0.280757,0.200022,-0.490423,0.097012,-2.137343,0.080016,0.0
46,1.220775,0.328244,0.790719,-0.098596,-0.212834,0.646221,-0.726209,-0.891847,0.354675,0.045802,1.121165,-0.141459,0.089464,-0.428323,-0.035989,-0.215799,0.573163,-0.151581,0.214354,0.361086,0.240454,0.401661,0.102893,-1.927442,-0.289326,0.149922,-0.529549,0.073426,-2.141926,0.062188,0.0
47,1.202531,0.320724,0.791209,-0.095195,-0.216058,0.643222,-0.72837,-0.978196,0.392294,0.0663,1.214656,-0.198664,0.149565,-0.363701,0.011058,-0.210016,0.483576,-0.158975,0.239456,0.379016,0.196508,0.38961,0.143018,-1.918271,-0.297503,0.098871,-0.581689,0.059751,-2.129,0.044672,0.0
48,1.190433,0.312861,0.786565,-0.093513,-0.215335,0.639218,-0.732316,-1.045712,0.31747,0.001207,1.286666,-0.265037,0.082225,-0.321026,0.032689,-0.235817,0.446946,-0.186465,0.235355,0.377678,0.153706,0.36674,0.149678,-1.919849,-0.296869,0.04659,-0.6373,0.057507,-2.10113,0.034381,0.0
49,1.180387,0.303339,0.779292,-0.095008,-0.213839,0.630339,-0.740216,-1.090475,0.182698,-0.073097,1.318339,-0.320745,-0.046615,-0.298759,0.041578,-0.257164,0.450077,-0.227146,0.233863,0.352069,0.105426,0.336207,0.123824,-1.924221,-0.300663,0.000891,-0.678486,0.05903,-2.084571,0.038734,0.0
50,1.168986,0.290631,0.771608,-0.099086,-0.212854,0.615613,-0.75226,-1.115294,0.044594,-0.122305,1.309484,-0.373517,-0.148253,-0.295993,0.045718,-0.277319,0.489071,-0.265808,0.227859,0.301041,0.050466,0.305747,0.070002,-1.932611,-0.329346,-0.033262,-0.693043,0.059214,-2.088236,0.042845,0.0
51,1.157548,0.277329,0.767027,-0.102302,-0.214264,0.605803,-0.75936,-1.124709,-0.037588,-0.116636,1.263411,-0.405538,-0.218116,-0.321128,0.050353,-0.289957,0.558469,-0.260746,0.212544,0.251377,-0.014152,0.285726,-0.008172,-1.94084,-0.350115,-0.055446,-0.673007,0.058103,-2.09694,0.033679,0.0
52,1.146206,0.261939,0.764966,-0.104495,-0.21372,0.597217,-0.765987,-1.106427,-0.071784,-0.065949,1.196417,-0.398343,-0.242877,-0.371758,0.041926,-0.309162,0.671551,-0.194683,0.187211,0.18936,-0.080476,0.279016,-0.10793,-1.938023,-0.328242,-0.056936,-0.632864,0.057901,-2.095234,0.02105,0.0
53,1.138653,0.243444,0.761712,-0.112567,-0.202693,0.584147,-0.777828,-1.041844,-0.112706,0.018333,1.119813,-0.341357,-0.07751,-0.483509,-0.02224,-0.316091,0.890549,-0.025668,0.149909,0.088867,-0.136343,0.27578,-0.204219,-1.931568,-0.295939,-0.037194,-0.606677,0.070136,-2.086063,0.019868,0.0
54,1.135504,0.217833,0.75138,-0.118314,-0.183671,0.57323,-0.78973,-0.922354,-0.133225,0.088766,1.04988,-0.414721,0.14343,-0.651352,-0.090733,-0.218068,1.206395,0.163777,0.142411,-0.031498,-0.178656,0.30594,-0.269359,-1.952795,-0.295699,-0.009854,-0.592718,0.09262,-2.077926,0.036642,0.0
55,1.133557,0.185709,0.740042,-0.117826,-0.157389,0.565862,-0.800716,-0.773398,-0.160927,0.069611,0.986772,-0.556298,0.133629,-0.806577,-0.133709,-0.083431,1.482517,0.262356,0.10198,-0.154205,-0.214388,0.37406,-0.306543,-2.007813,-0.303173,0.028018,-0.59637,0.104786,-2.081183,0.046197,0.0
56,1.139396,0.151573,0.723733,-0.111515,-0.124823,0.566444,-0.806923,-0.641215,-0.175542,0.074191,0.989963,-0.655502,0.121377,-0.933944,-0.245946,-0.002919,1.68678,0.14164,0.014355,-0.257583,-0.250904,0.452464,-0.309846,-2.053662,-0.270468,0.08678,-0.621003,0.098119,-2.07668,0.031565,0.0
57,1.142532,0.116561,0.712628,-0.100141,-0.098909,0.562423,-0.814782,-0.535196,-0.168577,0.074647,1.012087,-0.6807,0.108986,-1.065285,-0.337312,0.070404,1.776154,-0.021503,-0.112052,-0.352276,-0.293236,0.538786,-0.292917,-2.065919,-0.240182,0.153782,-0.626773,0.071606,-2.040407,0.018951,0.0
58,1.132904,0.082567,0.709108,-0.085144,-0.086076,0.558735,-0.820461,-0.448565,-0.123453,0.057602,1.007278,-0.6807,0.070543,-1.180086,-0.331057,0.121971,1.739936,-0.118345,-0.15613,-0.425975,-0.32311,0.633862,-0.273933,-2.062918,-0.255387,0.216851,-0.594752,0.041653,-1.984518,0.032155,0.0
59,1.11584,0.05035,0.708094,-0.072919,-0.075756,0.557259,-0.823654,-0.358675,-0.067191,0.050861,0.968258,-0.6807,0.023541,-1.258771,-0.271217,0.161343,1.604333,-0.161641,-0.145312,-0.491879,-0.335861,0.71621,-0.24656,-2.066628,-0.283146,0.285692,-0.563309,0.013178,-1.947261,0.04723,0.0
60,1.099967,0.0183,0.706442,-0.062944,-0.063392,0.556292,-0.826171,-0.260952,-0.017155,0.058161,0.91754,-0.6807,-0.019981,-1.276401,-0.185878,0.219377,1.385634,-0.180073,-0.103232,-0.55709,-0.328452,0.779795,-0.206741,-2.070913,-0.256086,0.36541,-0.5407,-0.020639,-1.925057,0.03621,0.0
61,1.08977,-0.012959,0.704447,-0.055472,-0.053766,0.554052,-0.82889,-0.171493,0.021415,0.068622,0.870587,-0.6807,-0.05408,-1.239314,-0.096938,0.32853,1.105581,-0.162779,-0.007255,-0.61786,-0.321268,0.837626,-0.168517,-2.075578,-0.220848,0.435838,-0.515462,-0.055799,-1.904154,0.020139,0.0
62,1.083054,-0.043396,0.706268,-0.04157,-0.047664,0.542085,-0.83794,-0.082201,0.070088,0.06464,0.814109,-0.6807,-0.08392,-1.135305,-0.068458,0.434915,0.795142,-0.163299,0.11262,-0.692695,-0.303625,0.909766,-0.142331,-2.086825,-0.21516,0.512379,-0.478109,-0.07988,-1.888774,0.014346,0.0
63,1.077683,-0.074836,0.711655,-0.017567,-0.043055,0.513334,-0.856928,0.000498,0.143926,0.030845,0.764309,-0.6807,-0.116476,-0.994674,-0.111194,0.462684,0.549489,-0.152608,0.133551,-0.789908,-0.273868,0.983874,-0.133411,-2.100409,-0.241209,0.601756,-0.430466,-0.095731,-1.869332,0.003125,0.0
64,1.071682,-0.1092,0.707848,-0.007919,-0.037379,0.485103,-0.873622,0.042401,0.200035,-0.00798,0.764164,-0.680459,-0.147524,-0.939269,-0.158199,0.419412,0.51458,-0.126334,0.17216,-0.869629,-0.287026,1.021473,-0.132666,-2.099712,-0.260573,0.649526,-0.389528,-0.124526,-1.832683,-0.006494,0.0
65,1.058684,-0.14919,0.699978,-0.004324,-0.03448,0.457033,-0.88877,0.042489,0.264646,-0.05754,0.800407,-0.643637,-0.17742,-0.95468,-0.168564,0.38624,0.634826,-0.028758,0.261799,-0.926288,-0.309206,1.015566,-0.134606,-2.089583,-0.267726,0.665048,-0.348925,-0.154289,-1.788361,-0.003074,0.0
66,1.04467,-0.19439,0.69022,-0.003683,-0.037167,0.433318,-0.900467,0.000482,0.325505,-0.126073,0.870136,-0.550492,-0.165073,-1.037552,-0.161851,0.335837,0.846059,-0.023566,0.2618,-0.929093,-0.333997,0.943936,-0.150306,-2.083624,-0.292588,0.646113,-0.311746,-0.179645,-1.738785,-0.020579,0.0
67,1.04123,-0.233526,0.677003,-0.019731,-0.042858,0.420763,-0.905943,-0.0895,0.338692,-0.157697,0.97925,-0.421447,-0.094199,-1.15187,-0.168734,0.334654,1.044494,-0.098422,0.2618,-0.861133,-0.365967,0.790342,-0.168659,-2.080374,-0.299379,0.557753,-0.30521,-0.20358,-1.677982,-0.07859,0.0
68,1.044525,-0.265044,0.679343,-0.032575,-0.052192,0.399782,-0.914543,-0.220388,0.35056,-0.172155,1.073551,-0.219325,0.035978,-1.177847,-0.200034,0.31551,1.11849,-0.162497,0.2618,-0.777555,-0.346167,0.6162,-0.198824,-2.06386,-0.252613,0.433876,-0.364827,-0.194955,-1.649558,-0.066053,0.0
69,1.050082,-0.296352,0.688542,-0.045819,-0.06658,0.376364,-0.92294,-0.390871,0.394805,-0.128306,1.173717,-0.04329,0.117931,-1.17297,-0.236169,0.281848,1.144633,-0.223197,0.2618,-0.67302,-0.302865,0.491222,-0.265943,-2.051762,-0.213135,0.244916,-0.507721,-0.178714,-1.65974,-0.078263,0.0
70,1.055315,-0.319423,0.699389,-0.062083,-0.087085,0.346739,-0.931845,-0.580636,0.450392,-0.040724,1.262326,-0.117503,0.13634,-1.182461,-0.281853,0.244143,1.145726,-0.248939,0.2618,-0.574239,-0.301931,0.430038,-0.378628,-2.047975,-0.251784,-0.047835,-0.712905,-0.144702,-1.668283,-0.1124,0.0
71,1.060736,-0.331899,0.712471,-0.079372,-0.118273,0.313406,-0.938876,-0.794512,0.384126,-0.039428,1.282708,-0.171109,0.083923,-1.207648,-0.327197,0.203695,1.112189,-0.24566,0.2618,-0.460534,-0.368312,0.401595,-0.539355,-2.066242,-0.330911,-0.333375,-0.942055,-0.15107,-1.628454,-0.145318,0.0
72,1.065564,-0.345917,0.723719,-0.087358,-0.158069,0.282611,-0.94208,-1.007189,0.3892,0.032089,1.263754,-0.133978,0.154392,-1.221796,-0.346153,0.139285,1.072024,-0.248394,0.258219,-0.341192,-0.461326,0.362902,-0.691621,-2.062936,-0.353039,-0.493021,-1.194231,-0.265848,-1.505055,-0.228239,0.0
73,1.074864,-0.349072,0.734694,-0.084028,-0.192681,0.277813,-0.937355,-1.151696,0.355177,-0.002182,1.219279,-0.143415,0.057335,-1.212947,-0.321551,0.090528,0.99991,-0.216742,0.258541,-0.204368,-0.549642,0.257446,-0.778472,-2.014846,-0.328764,-0.648068,-1.409409,-0.297424,-1.268459,-0.301864,0.0
74,1.084656,-0.34789,0.7438,-0.082397,-0.21402,0.298241,-0.92653,-1.20881,0.229464,-0.216967,1.156987,-0.123012,-0.08765,-1.211944,-0.271326,0.090589,0.934091,-0.176049,0.2618,-0.010472,-0.660397,0.034256,-0.816892,-1.908951,-0.226888,-0.556578,-1.694653,-0.33915,-1.18186,-0.275281,0.0
75,1.08671,-0.349016,0.751613,-0.103421,-0.220626,0.320437,-0.915395,-1.187837,0.162949,-0.313412,1.075214,-0.095702,-0.182921,-1.259985,-0.240357,0.160577,0.911099,-0.150425,0.2618,0.132017,-0.784138,-0.251265,-0.725651,-1.767255,-0.130761,-0.077287,-2.207053,-0.739612,-1.144717,-0.252823,0.0
76,1.087901,-0.355871,0.756997,-0.110428,-0.219274,0.335117,-0.909627,-1.164917,0.171898,-0.355764,1.028189,-0.050846,-0.116004,-1.263351,-0.213153,0.197526,0.908074,-0.15051,0.2618,0.236774,-0.851803,-0.458401,-0.610626,-1.68508,-0.039527,0.084228,-2.287439,-0.984038,-1.274555,-0.402678,0.0
77,1.087853,-0.363015,0.75998,-0.112112,-0.219666,0.337513,-0.90844,-1.159942,0.211092,-0.348436,0.991844,-0.000969,-0.060434,-1.265625,-0.200697,0.212414,0.9207,-0.151185,0.2618,0.331685,-0.88415,-0.575941,-0.549164,-1.669754,0.052595,0.144522,-2.210642,-1.011864,-1.4654,-0.343254,0.0
78,1.085026,-0.368192,0.759105,-0.100881,-0.223348,0.333942,-0.910177,-1.18055,0.256443,-0.361669,0.971957,0.039406,-0.013693,-1.258369,-0.182048,0.199714,0.940545,-0.141265,0.2618,0.369155,-0.885733,-0.57634,-0.508246,-1.695312,0.091094,0.22883,-2.164472,-0.978723,-1.575253,-0.322981,0.0
79,1.084942,-0.368615,0.755761,-0.085252,-0.227897,0.327625,-0.912939,-1.195479,0.269244,-0.400761,0.962994,0.093124,-0.020305,-1.248564,-0.167403,0.186943,0.958496,-0.128158,0.2618,0.392432,-0.882172,-0.551618,-0.480178,-1.723392,0.086331,0.313312,-2.137495,-0.942098,-1.647978,-0.301217,0.0
80,1.081406,-0.369568,0.751578,-0.072109,-0.229867,0.308996,-0.920045,-1.19412,0.310927,-0.337291,0.919406,0.084724,-0.069042,-1.245119,-0.173132,0.167161,0.992248,-0.12845,0.2618,0.399298,-0.879895,-0.512851,-0.458329,-1.752006,0.072091,0.373457,-2.078202,-0.86969,-1.736746,-0.235503,0.0
81,1.08345,-0.366948,0.748152,-0.059547,-0.230059,0.29079,-0.926805,-1.185832,0.343505,-0.283802,0.895579,0.028019,-0.131397,-1.231663,-0.190325,0.145466,1.012409,-0.129224,0.2618,0.400136,-0.859447,-0.462673,-0.448958,-1.775272,0.051203,0.393285,-1.976124,-0.772401,-1.825216,-0.191855,0.0
82,1.095023,-0.36374,0.743652,-0.021774,-0.216558,0.281871,-0.93444,-1.177536,0.393619,-0.341592,0.923106,-0.059743,-0.1889,-1.113368,-0.198718,0.06176,0.987919,-0.139335,0.2618,0.382552,-0.749939,-0.340385,-0.474304,-1.799386,0.018836,0.238728,-1.686039,-0.448083,-2.061057,-0.060956,0.0
83,1.104352,-0.34814,0.738072,0.001035,-0.213625,0.279193,-0.93617,-1.203602,0.400869,-0.392264,0.978647,-0.143504,-0.218772,-1.057445,-0.202361,0.019875,0.953483,-0.129513,0.2618,0.380463,-0.683866,-0.251274,-0.47799,-1.844993,0.001399,0.160922,-1.51501,-0.267989,-2.129495,-0.004399,0.0
84,1.117849,-0.327266,0.734828,0.02117,-0.203784,0.281244,-0.93751,-1.196554,0.421899,-0.384216,1.026483,-0.228504,-0.247057,-0.982288,-0.217104,-0.020682,0.893701,-0.112438,0.2618,0.367723,-0.607324,-0.169495,-0.472561,-1.888997,-0.016101,0.069902,-1.322019,-0.060123,-2.148273,0.060232,0.0
85,1.128925,-0.300089,0.735958,0.039066,-0.19688,0.288867,-0.936092,-1.195491,0.439443,-0.361539,1.066882,-0.28749,-0.255497,-0.913321,-0.223108,-0.057116,0.798264,-0.043679,0.2618,0.338951,-0.537316,-0.087306,-0.461755,-1.938149,-0.039295,-0.023079,-1.120627,0.123498,-2.119848,0.118931,0.0
86,1.138521,-0.267269,0.741337,0.052404,-0.193597,0.297953,-0.933273,-1.192687,0.435601,-0.337457,1.094803,-0.326186,-0.239585,-0.858175,-0.228939,-0.088215,0.673906,0.097143,0.2618,0.283305,-0.483095,0.001575,-0.443169,-1.995034,-0.055697,-0.103742,-0.936205,0.265616,-2.070355,0.169965,0.0
87,1.152877,-0.223508,0.749705,0.0568,-0.193541,0.302494,-0.931565,-1.168833,0.398735,-0.27532,1.101263,-0.369278,-0.182305,-0.824504,-0.252608,-0.101731,0.521824,0.337708,0.2618,0.207105,-0.456077,0.089432,-0.419354,-2.059572,-0.085413,-0.144457,-0.808738,0.328924,-2.046091,0.181347,0.0
88,1.17962,-0.179339,0.763124,0.048528,-0.177136,0.299185,-0.936353,-1.033401,0.337808,-0.134848,1.048963,-0.403984,-0.101753,-0.763318,-0.317589,-0.144358,0.410414,0.451905,0.2618,0.123917,-0.437255,0.158941,-0.392208,-2.119829,-0.115845,-0.095331,-0.781995,0.299922,-2.086119,0.143178,0.0
89,1.183976,-0.14269,0.773369,0.041266,-0.175227,0.317163,-0.931128,-0.998251,0.307776,-0.0455,1.012975,-0.377187,-0.042209,-0.772916,-0.296047,-0.196092,0.428185,0.359916,0.2618,0.088141,-0.470924,0.232202,-0.365374,-2.163431,-0.126701,-0.090421,-0.767383,0.261454,-2.139817,0.105424,0.0
90,1.19076,-0.109848,0.787094,0.030292,-0.168377,0.329521,-0.928519,-0.926958,0.266359,0.056794,0.936293,-0.330025,0.014584,-0.764261,-0.275041,-0.262464,0.524977,0.204382,0.162866,0.049425,-0.489874,0.283765,-0.328336,-2.189655,-0.106543,-0.07667,-0.757099,0.20598,-2.18408,0.042256,0.0
91,1.191364,-0.080738,0.806901,0.023444,-0.163484,0.337711,-0.926647,-0.867417,0.226588,0.125042,0.830939,-0.224819,0.040554,-0.731634,-0.215218,-0.322497,0.61926,0.099153,0.046326,0.012606,-0.505261,0.312971,-0.291074,-2.189664,-0.101681,-0.087274,-0.723674,0.171706,-2.1948,-0.005432,0.0
92,1.191835,-0.051648,0.82671,0.017015,-0.158162,0.332492,-0.929594,-0.845881,0.172638,0.139315,0.758791,-0.066827,0.010135,-0.68238,-0.130027,-0.329219,0.686077,0.044474,0.074803,-0.037806,-0.514199,0.314908,-0.262101,-2.178478,-0.107515,-0.104044,-0.695423,0.155979,-2.1948,-0.019172,0.0
93,1.193494,-0.019646,0.842643,0.006551,-0.152739,0.317549,-0.935837,-0.855721,0.098477,0.08218,0.727838,0.086358,-0.172129,-0.64253,-0.0476,-0.296736,0.728483,0.044072,0.216576,-0.090997,-0.522191,0.281999,-0.249491,-2.162572,-0.108928,-0.116585,-0.691029,0.143352,-2.1948,-0.01721,0.0
94,1.20279,0.037905,0.852268,-0.009626,-0.144334,0.303641,-0.941742,-0.838757,0.004059,0.01774,0.673435,0.186052,-0.2618,-0.647614,-0.007096,-0.197887,0.774513,0.069894,0.2618,-0.125388,-0.529139,0.220239,-0.247418,-2.146783,-0.090399,-0.118629,-0.718747,0.125008,-2.1948,-0.036353,0.0
95,1.211888,0.06723,0.855965,-0.020477,-0.129851,0.311344,-0.941161,-0.780238,-0.04924,-0.161494,0.643501,0.147418,-0.2618,-0.589495,0.061019,-0.108886,0.768103,0.066819,0.2618,-0.111063,-0.527508,0.1613,-0.24476,-2.134602,-0.071363,-0.11012,-0.760703,0.114759,-2.1948,-0.059735,0.0
96,1.218754,0.090071,0.851404,-0.027516,-0.119245,0.321406,-0.939,-0.747785,-0.02327,-0.232824,0.686689,0.060128,-0.2618,-0.52579,0.126865,-0.013626,0.729378,0.0868,0.2618,-0.094949,-0.527715,0.119787,-0.253128,-2.131488,-0.063725,-0.113292,-0.794703,0.111033,-2.1948,-0.065311,0.0
97,1.242223,0.138969,0.840027,-0.035807,-0.109836,0.335151,-0.935055,-0.733481,0.025632,-0.170292,0.771679,-0.025927,-0.2618,-0.486932,0.114328,0.070623,0.696879,0.015894,0.232657,-0.08309,-0.523544,0.08713,-0.270761,-2.133021,-0.074676,-0.11988,-0.818936,0.113582,-2.1948,-0.061169,0.0
98,1.238208,0.156323,0.818624,-0.036333,-0.103081,0.356861,-0.927742,-0.732451,0.166781,-0.151988,0.863567,-0.087961,-0.2618,-0.465729,0.105676,0.003688,0.692985,-0.154574,-0.009713,-0.068728,-0.502448,0.097072,-0.278497,-2.149594,-0.076528,-0.125111,-0.815315,0.123156,-2.1948,-0.056342,0.0
99,1.23734,0.173851,0.795565,-0.038069,-0.097308,0.377727,-0.920002,-0.705002,0.309627,-0.122573,0.919495,-0.12752,-0.239914,-0.48994,0.095663,0.015295,0.756162,-0.327726,-0.049833,-0.071054,-0.462822,0.123794,-0.283086,-2.164715,-0.082968,-0.128607,-0.792192,0.13366,-2.1948,-0.054186,0.0
100,1.246833,0.193769,0.774438,-0.044135,-0.086658,0.389622,-0.915826,-0.635058,0.402458,-0.095676,0.942681,-0.161771,-0.138018,-0.551543,0.069334,0.089353,0.888553,-0.443669,-0.01314,-0.108294,-0.391482,0.144424,-0.288757,-2.161708,-0.078172,-0.106255,-0.759886,0.13461,-2.1948,-0.044255,0.0
101,1.247764,0.220095,0.75404,-0.047945,-0.093342,0.40955,-0.906232,-0.621979,0.466387,-0.135505,0.970841,-0.159307,-0.05024,-0.676435,0.079302,0.148936,1.026546,-0.475407,-0.001601,-0.130035,-0.328546,0.161435,-0.302782,-2.133382,-0.134472,-0.092311,-0.675706,0.126684,-2.1948,-0.011905,0.0
102,1.253847,0.249927,0.7416,-0.049858,-0.090423,0.417323,-0.902873,-0.557301,0.482995,-0.155101,0.962076,-0.167141,-0.063203,-0.746201,0.058215,0.192979,1.098246,-0.501991,0.034603,-0.161359,-0.247505,0.169772,-0.306088,-2.115488,-0.187595,-0.023802,-0.591671,0.086252,-2.1948,-0.031771,0.0
103,1.258887,0.285772,0.736745,-0.049949,-0.09222,0.413536,-0.904427,-0.522963,0.452766,-0.206874,0.94459,-0.158745,-0.110453,-0.801699,0.029689,0.228507,1.11368,-0.498373,0.084744,-0.202906,-0.202979,0.18989,-0.324318,-2.108428,-0.197542,0.04365,-0.503694,0.040768,-2.18516,-0.077991,0.0
104,1.267865,0.326377,0.738409,-0.051275,-0.094439,0.401075,-0.90972,-0.486968,0.406645,-0.217382,0.894087,-0.150452,-0.261791,-0.847987,-0.022484,0.255423,1.09677,-0.455966,0.141796,-0.258322,-0.17483,0.222655,-0.342456,-2.12202,-0.173438,0.101575,-0.428677,0.000112,-2.157597,-0.084462,0.0
105,1.284218,0.377338,0.74927,-0.063697,-0.093197,0.381541,-0.917433,-0.460712,0.332833,-0.134214,0.809803,-0.200865,-0.2618,-0.878789,-0.125821,0.294426,1.01917,-0.37855,0.218982,-0.338192,-0.173599,0.243802,-0.345006,-2.142197,-0.150453,0.133228,-0.397529,-0.028298,-2.129742,-0.061455,0.0
106,1.297095,0.416237,0.763397,-0.064896,-0.084181,0.36518,-0.924849,-0.401061,0.282962,-0.053798,0.712921,-0.278597,-0.2618,-0.838657,-0.216153,0.286286,0.903002,-0.294535,0.261799,-0.427218,-0.159645,0.295615,-0.307927,-2.170147,-0.131543,0.158345,-0.394232,-0.031086,-2.123674,-0.063755,0.0
107,1.300827,0.458293,0.77962,-0.068966,-0.08844,0.361669,-0.925536,-0.403159,0.231056,0.002554,0.64289,-0.289382,-0.2618,-0.836287,-0.262254,0.290579,0.76663,-0.149499,0.2618,-0.470594,-0.187443,0.35009,-0.292197,-2.194659,-0.121471,0.141305,-0.39374,-0.040106,-2.132027,-0.066897,0.0
108,1.308847,0.504743,0.801187,-0.068427,-0.094544,0.372473,-0.920675,-0.398195,0.177337,0.038449,0.568887,-0.257618,-0.230023,-0.802023,-0.291841,0.198761,0.585597,0.00302,0.066476,-0.470918,-0.233999,0.411674,-0.28212,-2.1948,-0.09853,0.112889,-0.391645,-0.039604,-2.148028,-0.061801,0.0
109,1.309431,0.544772,0.814922,-0.074035,-0.104498,0.39127,-0.911321,-0.428873,0.134297,0.0742,0.531105,-0.207245,-0.18217,-0.805215,-0.289171,0.051077,0.531374,-0.034915,0.070219,-0.439188,-0.305823,0.462628,-0.283918,-2.1948,-0.101103,0.068776,-0.396599,-0.039203,-2.164995,-0.050812,0.0
110,1.309516,0.580817,0.825785,-0.084528,-0.111228,0.414763,-0.899141,-0.460553,0.094451,0.14327,0.504511,-0.138619,-0.126272,-0.823607,-0.257187,-0.022356,0.593113,-0.06654,0.042464,-0.384022,-0.368825,0.485672,-0.278774,-2.1948,-0.10714,0.028005,-0.415319,-0.032605,-2.178776,-0.050399,0.0
111,1.309308,0.615783,0.832397,-0.096685,-0.114879,0.433364,-0.888623,-0.513152,0.055899,0.185967,0.510637,-0.062333,-0.094416,-0.832256,-0.218494,-0.057071,0.717361,-0.110783,0.040302,-0.329987,-0.414184,0.478072,-0.265192,-2.1948,-0.108763,-0.007825,-0.448108,-0.018114,-2.189933,-0.049299,0.0
112,1.309427,0.652495,0.83576,-0.107213,-0.116068,0.436765,-0.88559,-0.589954,0.015227,0.185668,0.550454,0.012512,-0.109087,-0.810101,-0.198624,-0.107425,0.843158,-0.156429,0.118275,-0.300601,-0.440942,0.449705,-0.243725,-2.1948,-0.10786,-0.037778,-0.491438,0.002238,-2.1948,-0.04073,0.0
113,1.309122,0.69195,0.838517,-0.113337,-0.121322,0.42807,-0.888365,-0.68038,-0.024882,0.134595,0.597877,0.057196,-0.222405,-0.768598,-0.169864,-0.149791,0.933268,-0.159534,0.173992,-0.283881,-0.461428,0.415946,-0.237194,-2.1948,-0.103821,-0.064622,-0.525581,0.015495,-2.1948,-0.035122,0.0
114,1.328982,0.75044,0.838474,-0.119243,-0.123271,0.415305,-0.893368,-0.743957,-0.098782,0.066372,0.633772,0.054361,-0.2618,-0.743311,-0.173762,-0.1289,1.000384,-0.111874,0.261794,-0.269237,-0.467169,0.369125,-0.236312,-2.1948,-0.098768,-0.082522,-0.57229,0.011219,-2.1948,-0.056486,0.0
115,1.353376,0.80279,0.830336,-0.123432,-0.126738,0.409296,-0.895086,-0.785957,-0.180674,-0.088842,0.668364,0.022423,-0.2618,-0.711293,-0.177802,-0.088254,1.025508,-0.039104,0.2618,-0.23338,-0.471549,0.313142,-0.248537,-2.1948,-0.120808,-0.097142,-0.627832,-0.010822,-2.1948,-0.077527,0.0
116,1.357928,0.831921,0.814668,-0.123638,-0.125211,0.413765,-0.893216,-0.83304,-0.17693,-0.19616,0.785938,-0.074942,-0.2618,-0.625604,-0.163396,-0.101758,0.948031,-0.059194,0.182733,-0.190766,-0.456374,0.27043,-0.245198,-2.1948,-0.143775,-0.107497,-0.686468,-0.02594,-2.1948,-0.095001,0.0
117,1.355988,0.851962,0.797662,-0.11218,-0.116463,0.433342,-0.886604,-0.84632,-0.047439,-0.182947,0.908559,-0.184947,-0.2618,-0.531335,-0.137233,-0.111311,0.862399,-0.297665,0.135473,-0.145963,-0.395854,0.267852,-0.216201,-2.194799,-0.145573,-0.107509,-0.714461,-0.020018,-2.1948,-0.097766,0.0
118,1.342539,0.867799,0.778507,-0.109603,-0.1155,0.450118,-0.878658,-0.864716,0.090325,-0.206956,0.990582,-0.231304,-0.2618,-0.542084,-0.110987,-0.079886,0.87061,-0.475765,0.099452,-0.130347,-0.329593,0.259536,-0.207339,-2.194356,-0.152163,-0.113587,-0.708624,-0.016704,-2.1948,-0.081566,0.0
119,1.334546,0.880791,0.757034,-0.107348,-0.114275,0.480529,-0.862849,-0.832792,0.229612,-0.213544,1.032495,-0.280698,-0.252613,-0.611818,-0.087555,-0.027149,0.962679,-0.586382,0.067882,-0.117071,-0.236935,0.246473,-0.202128,-2.159085,-0.152692,-0.103345,-0.666281,-0.006905,-2.177973,-0.043313,0.0
120,1.340094,0.901109,0.74174,-0.10613,-0.107513,0.50516,-0.849701,-0.730225,0.293676,-0.217795,1.011705,-0.284469,-0.210406,-0.679433,-0.092378,0.031986,1.049894,-0.642573,0.069451,-0.133415,-0.135209,0.221225,-0.212143,-2.089412,-0.183715,-0.080856,-0.600922,0.004577,-2.130485,0.003593,0.0
121,1.352297,0.928573,0.73551,-0.103262,-0.104767,0.520422,-0.841143,-0.597063,0.280556,-0.26876,0.923951,-0.253668,-0.2618,-0.730489,-0.098219,0.094365,1.081082,-0.655898,0.09582,-0.180496,-0.066317,0.223045,-0.243358,-2.017846,-0.269554,-0.03684,-0.52377,0.012783,-2.098325,-0.009266,0.0
122,1.367013,0.961234,0.735812,-0.105095,-0.106252,0.521997,-0.839753,-0.503414,0.257586,-0.255351,0.799272,-0.363471,-0.2618,-0.790646,-0.122755,0.140339,1.087916,-0.630097,0.127963,-0.261108,-0.039294,0.262136,-0.298289,-1.979352,-0.371258,0.017943,-0.461529,0.021885,-2.082844,-0.023598,0.0
123,1.373048,0.993566,0.73968,-0.111975,-0.10904,0.514613,-0.843057,-0.461113,0.236446,-0.18918,0.661566,-0.477947,-0.2618,-0.859464,-0.153993,0.166834,1.084941,-0.581313,0.150441,-0.372895,-0.02793,0.321602,-0.352717,-1.984498,-0.451037,0.077617,-0.42255,0.035643,-2.07829,-0.010785,0.0
124,1.377148,1.027576,0.746512,-0.125358,-0.112963,0.508259,-0.84451,-0.470852,0.195764,-0.12863,0.576997,-0.514833,-0.2618,-0.939073,-0.188619,0.202149,1.063115,-0.520384,0.170164,-0.491389,-0.028503,0.384081,-0.395132,-2.011642,-0.477657,0.120763,-0.415812,0.049102,-2.07091,0.002476,0.0
125,1.382471,1.063029,0.759743,-0.147659,-0.120734,0.533708,-0.823879,-0.49014,0.141148,-0.063317,0.518473,-0.459268,-0.249719,-1.035573,-0.168643,0.298547,0.990017,-0.414917,0.171622,-0.528251,-0.048886,0.429374,-0.428991,-2.048749,-0.467553,0.132692,-0.438758,0.04315,-2.060526,0.033929,0.0
126,1.398275,1.09703,0.772309,-0.158241,-0.129997,0.575965,-0.791407,-0.51297,0.115167,0.027574,0.51032,-0.439394,-0.207016,-1.080969,-0.130269,0.356438,0.883946,-0.331009,0.169413,-0.507417,-0.052754,0.494802,-0.423375,-2.070375,-0.426227,0.146956,-0.449205,0.029105,-2.03543,0.057982,0.0
127,1.412133,1.11948,0.781126,-0.15219,-0.130307,0.613528,-0.763833,-0.50869,0.123907,0.105163,0.525336,-0.444902,-0.184682,-1.055405,-0.142263,0.254879,0.847504,-0.318602,0.261797,-0.481294,-0.019611,0.571801,-0.375829,-2.073754,-0.360654,0.193023,-0.452634,0.017755,-2.020987,0.054722,0.0
128,1.421908,1.148446,0.778692,-0.163223,-0.129759,0.638674,-0.740686,-0.582012,0.108792,0.152578,0.607188,-0.446222,-0.177966,-1.105445,-0.156283,0.217483,0.979419,-0.308458,0.2618,-0.45637,-0.03508,0.597199,-0.341335,-2.053941,-0.333651,0.199049,-0.470246,-0.006276,-2.004578,0.047674,0.0
129,1.435968,1.171776,0.767898,-0.162144,-0.123559,0.643684,-0.73764,-0.683431,0.096268,0.123144,0.770697,-0.477841,-0.18746,-1.086439,-0.178345,0.23574,1.16376,-0.275901,0.258916,-0.470917,-0.022598,0.607698,-0.29009,-2.028497,-0.315148,0.224115,-0.498081,-0.030133,-1.994684,0.047569,0.0
130,1.447116,1.192499,0.757249,-0.15674,-0.118882,0.639502,-0.743193,-0.806167,0.069231,0.014859,0.95532,-0.456915,-0.254351,-0.976601,-0.201421,0.225444,1.213821,-0.227444,0.255411,-0.493558,-0.021104,0.595008,-0.242249,-1.98893,-0.301288,0.243673,-0.527517,-0.044909,-1.976514,0.054514,0.0
131,1.475484,1.214949,0.75058,-0.148499,-0.116107,0.642071,-0.74311,-0.907754,-0.001883,-0.12677,1.12278,-0.408482,-0.2618,-0.84137,-0.263403,0.176087,1.067487,-0.379642,0.2618,-0.4891,-0.04193,0.56125,-0.192358,-1.929957,-0.247271,0.24779,-0.566017,-0.052755,-1.939881,0.030714,0.0
132,1.520606,1.23182,0.736826,-0.137286,-0.108759,0.662531,-0.72827,-0.959087,-0.054747,-0.212695,1.284257,-0.38656,-0.2618,-0.769843,-0.323923,0.153149,0.939986,-0.520859,0.2618,-0.443304,-0.069199,0.500258,-0.132852,-1.869635,-0.214086,0.240793,-0.632353,-0.058138,-1.90315,0.005562,0.0
133,1.528737,1.249887,0.721661,-0.136137,-0.109114,0.687285,-0.705124,-1.051969,0.044488,-0.245694,1.420007,-0.357696,-0.2618,-0.861046,-0.287186,0.241128,0.991882,-0.566368,0.2618,-0.395392,-0.126727,0.40518,-0.08723,-1.826317,-0.243285,0.185245,-0.685373,-0.059317,-1.870237,0.017408,0.0
134,1.514049,1.251991,0.708347,-0.109156,-0.107266,0.732809,-0.663001,-1.042185,0.306251,-0.288015,1.473491,-0.400165,-0.2618,-0.879659,-0.15802,0.318162,1.072359,-0.587234,0.2618,-0.338826,-0.131416,0.331114,-0.026498,-1.788766,-0.269817,0.157083,-0.698531,-0.023582,-1.866949,0.06829,0.0
135,1.503454,1.25168,0.695539,-0.063231,-0.106775,0.784251,-0.607907,-0.894883,0.559407,-0.315539,1.430586,-0.408244,-0.2618,-0.83494,-0.006543,0.372824,1.117554,-0.592987,0.2618,-0.263886,-0.143105,0.290021,-0.026901,-1.745456,-0.31336,0.179387,-0.658057,0.003117,-1.874591,0.113955,0.0
136,1.512402,1.256483,0.694114,-0.012871,-0.108221,0.806783,-0.58071,-0.688913,0.676985,-0.317591,1.318965,-0.31968,-0.180643,-0.738659,0.069567,0.377312,1.074128,-0.558757,0.2618,-0.252166,-0.206779,0.254061,-0.120211,-1.698903,-0.391023,0.205424,-0.606977,0.034145,-1.857713,0.124988,0.0
137,1.525011,1.266208,0.701893,0.035531,-0.118156,0.806648,-0.578011,-0.499353,0.709371,-0.358818,1.149826,-0.22869,-0.223657,-0.628632,0.106436,0.323656,0.973135,-0.486851,0.2618,-0.304196,-0.309227,0.212052,-0.250279,-1.639093,-0.391145,0.23128,-0.569868,0.081857,-1.82537,0.121252,0.0
138,1.547551,1.27511,0.714855,0.067105,-0.119165,0.797551,-0.587544,-0.354395,0.749512,-0.257012,1.032385,-0.300615,-0.26141,-0.535245,0.079754,0.26498,0.852697,-0.398426,0.2618,-0.392377,-0.449817,0.139527,-0.348953,-1.56856,-0.355816,0.266187,-0.62637,0.122669,-1.810493,0.108605,0.0
139,1.580386,1.295258,0.729438,0.083326,-0.124502,0.797306,-0.584688,-0.299668,0.794567,-0.075122,0.979689,-0.388882,-0.261547,-0.501027,0.058888,0.228791,0.720624,-0.225529,0.2618,-0.423986,-0.620453,0.051121,-0.438405,-1.497108,-0.348814,0.303844,-0.714534,0.138502,-1.828655,0.118396,0.0
140,1.616905,1.314634,0.744539,0.092489,-0.130595,0.79466,-0.585582,-0.294163,0.801681,0.044284,0.941315,-0.452172,-0.241819,-0.482068,0.034306,0.192038,0.592708,-0.007978,0.2618,-0.444148,-0.77922,-0.026415,-0.51282,-1.442507,-0.336243,0.329013,-0.810159,0.14555,-1.842373,0.132512,0.0
141,1.664956,1.32953,0.75601,0.100519,-0.132738,0.797121,-0.580409,-0.274,0.756308,0.086546,0.917398,-0.499603,-0.2618,-0.461748,-0.003594,0.134856,0.462382,0.216517,0.2618,-0.437314,-0.908237,-0.08886,-0.57913,-1.402322,-0.32054,0.357467,-0.910392,0.146895,-1.863012,0.161799,0.0
142,1.708817,1.346805,0.760273,0.105419,-0.13413,0.807496,-0.564665,-0.290665,0.714565,0.09685,0.940212,-0.538913,-0.2618,-0.458526,-0.039837,-0.01418,0.409432,0.244028,0.2618,-0.400299,-1.006865,-0.127477,-0.618091,-1.395457,-0.323268,0.375959,-1.002261,0.133769,-1.891353,0.188067,0.0
143,1.745851,1.365682,0.759831,0.10589,-0.13536,0.819907,-0.546094,-0.360978,0.695156,0.109878,1.009358,-0.559949,-0.242683,-0.481711,-0.057057,-0.114795,0.473964,0.179508,0.2618,-0.354235,-1.078585,-0.152786,-0.626715,-1.417625,-0.372454,0.378793,-1.081439,0.109403,-1.911488,0.182568,0.0
144,1.782105,1.384841,0.756196,0.103703,-0.135689,0.832079,-0.52771,-0.452844,0.674267,0.108408,1.091932,-0.567925,-0.198105,-0.523347,-0.068388,-0.19172,0.630664,0.116182,0.232934,-0.301119,-1.119927,-0.158806,-0.629715,-1.464681,-0.406218,0.368124,-1.128758,0.087055,-1.918512,0.174228,0.0
145,1.817166,1.404696,0.749681,0.094995,-0.130798,0.84451,-0.510559,-0.534826,0.636923,0.119908,1.16263,-0.577684,-0.15408,-0.580441,-0.087514,-0.240939,0.848097,0.029022,0.236046,-0.243041,-1.14989,-0.150609,-0.617374,-1.522145,-0.421784,0.354961,-1.164124,0.057134,-1.929575,0.18499,0.0
146,1.853046,1.424111,0.750431,0.087782,-0.12935,0.851752,-0.500082,-0.604713,0.595708,0.133266,1.191128,-0.566227,-0.10179,-0.588835,-0.073746,-0.277388,1.021999,-0.038124,0.236182,-0.194853,-1.1545,-0.136609,-0.614974,-1.572246,-0.420451,0.348813,-1.179332,0.039461,-1.949829,0.186287,0.0
147,1.890884,1.442324,0.757828,0.078902,-0.12854,0.851714,-0.501831,-0.666515,0.531791,0.141553,1.18096,-0.523737,-0.040062,-0.565736,-0.033421,-0.302135,1.147678,-0.069611,0.223054,-0.166225,-1.145573,-0.12115,-0.610629,-1.621396,-0.396477,0.352172,-1.190762,0.029914,-1.96737,0.184522,0.0
148,1.926404,1.462631,0.768609,0.069839,-0.132845,0.849118,-0.506432,-0.747831,0.477358,0.129966,1.165655,-0.443119,-0.00026,-0.521603,0.049366,-0.332041,1.205112,-0.064119,0.261791,-0.143063,-1.133826,-0.097858,-0.617991,-1.666799,-0.381655,0.357337,-1.186296,0.03072,-1.984364,0.183717,0.0
149,1.957094,1.48896,0.777331,0.05632,-0.136193,0.845776,-0.512779,-0.867937,0.423843,0.087933,1.177041,-0.313912,-0.017979,-0.483709,0.144741,-0.366692,1.213454,-0.01315,0.2618,-0.123628,-1.127471,-0.067609,-0.614022,-1.71497,-0.364193,0.365975,-1.186141,0.032001,-2.002644,0.194759,0.0
150,1.990107,1.516773,0.780246,0.037377,-0.138908,0.837796,-0.526692,-1.021596,0.348541,0.017396,1.217018,-0.159182,-0.131954,-0.471406,0.245342,-0.366484,1.175204,0.081024,0.2618,-0.116076,-1.128906,-0.041244,-0.598333,-1.755342,-0.355682,0.371456,-1.184802,0.029838,-2.017516,0.200287,0.0
151,2.05024,1.542342,0.777112,0.006221,-0.139642,0.815589,-0.561494,-1.14258,0.199991,-0.022552,1.218945,-0.022638,-0.2618,-0.534112,0.300768,-0.290226,1.120154,0.191648,0.2618,-0.155906,-1.135589,-0.022836,-0.568833,-1.78842,-0.33821,0.363872,-1.184018,0.016937,-2.026762,0.198562,0.0
152,2.13958,1.551166,0.765425,-0.01881,-0.133819,0.803686,-0.579506,-1.157765,0.030732,-0.052106,1.18896,-0.040729,-0.2618,-0.562016,0.244131,-0.225222,1.050592,0.107926,0.161267,-0.15421,-1.139872,-0.017405,-0.545412,-1.800366,-0.366306,0.354647,-1.179555,0.004806,-2.027296,0.180048,0.0
153,2.179137,1.566421,0.760736,-0.044353,-0.11659,0.794364,-0.594496,-1.146803,-0.059655,-0.150651,1.196169,-0.156404,-0.2618,-0.532883,0.143486,-0.280923,0.996314,-0.222326,0.023993,-0.164498,-1.118767,0.002554,-0.468406,-1.82383,-0.411743,0.350469,-1.201984,-0.024409,-2.040492,0.135643,0.0
154,2.190303,1.593548,0.756108,-0.061452,-0.106718,0.792245,-0.597647,-1.163064,0.042228,-0.196867,1.254699,-0.238624,-0.2618,-0.530669,0.11757,-0.313427,0.930785,-0.419785,-0.068588,-0.153944,-1.071648,0.029017,-0.414725,-1.839472,-0.475823,0.346082,-1.179883,-0.044496,-2.051302,0.099864,0.0
155,2.194859,1.615564,0.75109,-0.070486,-0.098521,0.806119,-0.579221,-1.124994,0.236691,-0.220553,1.286055,-0.302799,-0.2618,-0.522357,0.129968,-0.300786,0.863119,-0.55606,-0.137038,-0.11614,-0.993462,0.066283,-0.37509,-1.844576,-0.525814,0.32279,-1.119329,-0.033622,-2.04856,0.097845,0.0
156,2.216487,1.628801,0.748764,-0.072079,-0.087705,0.818967,-0.562499,-0.987123,0.409469,-0.175245,1.257475,-0.346778,-0.150752,-0.552915,0.115059,-0.23828,0.87886,-0.603182,-0.171505,-0.096826,-0.890268,0.107648,-0.343788,-1.84092,-0.549701,0.315651,-1.036327,-0.011144,-2.046805,0.122689,0.0
157,2.241833,1.643153,0.744239,-0.075573,-0.080373,0.824339,-0.555243,-0.814767,0.486502,-0.161924,1.19573,-0.337103,-0.100647,-0.63949,0.07665,-0.194422,0.964785,-0.593,-0.163256,-0.10071,-0.796249,0.146613,-0.334468,-1.838719,-0.564175,0.331626,-0.950768,0.002832,-2.05353,0.122684,0.0
158,2.27184,1.663245,0.737333,-0.083757,-0.083013,0.828308,-0.547722,-0.65689,0.473329,-0.218157,1.123199,-0.265234,-0.136331,-0.750986,0.051595,-0.154982,1.035284,-0.572947,-0.145655,-0.103717,-0.721945,0.195756,-0.343201,-1.848112,-0.574,0.344523,-0.866129,0.019957,-2.064687,0.102556,0.0
159,2.306119,1.685826,0.733079,-0.098192,-0.085366,0.822247,-0.554058,-0.526911,0.403598,-0.289177,1.010297,-0.135865,-0.221344,-0.87359,0.004571,-0.126286,1.087043,-0.534212,-0.120084,-0.137506,-0.659041,0.261437,-0.356592,-1.87347,-0.57883,0.356584,-0.803399,0.036069,-2.078265,0.097989,0.0
160,2.347872,1.707162,0.732652,-0.116769,-0.084918,0.806504,-0.573328,-0.458973,0.364351,-0.241096,0.860053,-0.228894,-0.2618,-0.997073,-0.073662,-0.092003,1.115408,-0.474099,-0.082352,-0.196189,-0.615697,0.335134,-0.379993,-1.901815,-0.586856,0.362645,-0.762005,0.04533,-2.078665,0.113385,0.0
161,2.386516,1.726678,0.736479,-0.13533,-0.080227,0.789358,-0.593434,-0.423811,0.312209,-0.159441,0.701416,-0.386396,-0.2618,-1.096142,-0.152243,-0.048333,1.109287,-0.408338,-0.058138,-0.261296,-0.574379,0.417634,-0.37604,-1.933865,-0.60088,0.360321,-0.743734,0.048397,-2.070011,0.133235,0.0
162,2.417926,1.749015,0.740023,-0.152312,-0.080139,0.772113,-0.611735,-0.453965,0.256136,-0.119219,0.612203,-0.474096,-0.2618,-1.179607,-0.204764,-0.013045,1.081728,-0.352387,-0.075975,-0.316448,-0.533047,0.511629,-0.350798,-1.966462,-0.594791,0.344348,-0.721235,0.043861,-2.053755,0.142828,0.0
163,2.444399,1.768007,0.746487,-0.163303,-0.084109,0.766493,-0.615423,-0.502285,0.204513,-0.153774,0.587728,-0.495293,-0.2618,-1.222013,-0.210378,0.019996,1.022686,-0.318735,-0.095286,-0.322485,-0.486217,0.604038,-0.313665,-1.981522,-0.564503,0.322365,-0.689797,0.039537,-2.029003,0.14466,0.0
164,2.466806,1.786248,0.756546,-0.170719,-0.089575,0.764343,-0.615313,-0.561125,0.168397,-0.163386,0.590751,-0.467425,-0.2618,-1.224471,-0.19689,0.046272,0.949946,-0.329357,-0.067083,-0.304664,-0.434867,0.686333,-0.273467,-1.970545,-0.532001,0.300864,-0.645421,0.037601,-1.991178,0.150122,0.0
165,2.487488,1.803737,0.766096,-0.173573,-0.093006,0.757402,-0.622547,-0.614818,0.131589,-0.18381,0.595332,-0.429262,-0.2618,-1.214566,-0.178892,0.091405,0.956042,-0.300222,-0.033911,-0.29199,-0.372967,0.759911,-0.234367,-1.942175,-0.540621,0.289749,-0.59729,0.044787,-1.947787,0.141577,0.0
166,2.503844,1.820248,0.77031,-0.174158,-0.089862,0.752612,-0.628624,-0.658313,0.094425,-0.19833,0.620785,-0.399587,-0.26166,-1.188449,-0.156337,0.131042,1.044939,-0.305315,0.015778,-0.273452,-0.30998,0.806776,-0.198373,-1.908416,-0.582544,0.283856,-0.585723,0.056328,-1.908045,0.13547,0.0
167,2.52128,1.835833,0.771682,-0.172038,-0.080024,0.747754,-0.636289,-0.68084,0.048855,-0.20965,0.645116,-0.382058,-0.243858,-1.136175,-0.167613,0.119525,1.158246,-0.339421,0.023418,-0.260912,-0.240326,0.836884,-0.160636,-1.885563,-0.598031,0.292468,-0.60791,0.065447,-1.883836,0.154194,0.0
168,2.53904,1.853681,0.772171,-0.171026,-0.070806,0.746359,-0.639284,-0.697486,0.009061,-0.209503,0.656719,-0.368012,-0.228643,-1.068986,-0.197035,0.065207,1.24626,-0.36912,-0.004094,-0.236555,-0.18486,0.862325,-0.131739,-1.868407,-0.567121,0.298842,-0.633897,0.064473,-1.864098,0.18487,0.0
169,2.556956,1.874312,0.771507,-0.171612,-0.064042,0.74759,-0.638402,-0.724801,-0.025482,-0.203471,0.672255,-0.356614,-0.214142,-0.995237,-0.22803,-0.000603,1.299489,-0.383348,-0.055719,-0.204453,-0.143221,0.882626,-0.107307,-1.851303,-0.530421,0.29513,-0.64723,0.049412,-1.841358,0.192342,0.0
170,2.573525,1.894546,0.770419,-0.169882,-0.056462,0.751506,-0.634973,-0.74623,-0.049009,-0.186928,0.687928,-0.34597,-0.203929,-0.899537,-0.257679,-0.071196,1.307999,-0.381669,-0.146379,-0.168384,-0.098873,0.887619,-0.078997,-1.836866,-0.531925,0.295294,-0.650033,0.022033,-1.82268,0.186057,0.0
171,2.586903,1.913614,0.770768,-0.164107,-0.051103,0.760664,-0.625977,-0.763479,-0.051191,-0.163455,0.704165,-0.327798,-0.193425,-0.776408,-0.265919,-0.149737,1.245466,-0.320231,-0.216557,-0.116168,-0.044433,0.870193,-0.040957,-1.841006,-0.568071,0.300626,-0.640097,-0.008213,-1.811027,0.184651,0.0
172,2.596285,1.937866,0.767213,-0.160902,-0.051699,0.776386,-0.607176,-0.815674,-0.032717,-0.139246,0.750049,-0.314111,-0.18775,-0.665026,-0.255104,-0.235508,1.115156,-0.360571,-0.052217,-0.037086,-0.012638,0.825383,-0.004369,-1.844412,-0.584552,0.294041,-0.62385,-0.030957,-1.803004,0.203644,0.0
173,2.602605,1.959658,0.764762,-0.152945,-0.05701,0.796517,-0.582167,-0.863998,0.01524,-0.114158,0.798089,-0.305646,-0.184812,-0.571233,-0.204528,-0.284912,0.951099,-0.52222,0.041313,0.059717,0.015444,0.757717,0.033983,-1.865975,-0.586376,0.290076,-0.593759,-0.040782,-1.806738,0.207541,0.0
174,2.606601,1.977123,0.756498,-0.145373,-0.057928,0.808145,-0.567813,-0.926093,0.043522,-0.112429,0.880107,-0.297443,-0.181261,-0.545211,-0.16579,-0.270989,0.895629,-0.623053,0.056863,0.11499,0.029181,0.670022,0.064965,-1.908479,-0.572903,0.282813,-0.57981,-0.030126,-1.822375,0.19536,0.0
175,2.609109,1.989639,0.742221,-0.140516,-0.047244,0.820461,-0.552148,-0.96809,0.0635,-0.093689,0.969934,-0.310875,-0.180872,-0.616452,-0.168327,-0.185253,1.014859,-0.656934,0.067165,0.141644,0.01482,0.584583,0.052548,-1.967475,-0.546017,0.262819,-0.607509,-0.003474,-1.861611,0.190353,0.0
176,2.609163,1.998371,0.726384,-0.138781,-0.021376,0.832214,-0.53638,-0.957881,0.068146,-0.052509,1.026256,-0.340418,-0.190974,-0.732992,-0.197445,-0.048672,1.2176,-0.629383,0.132766,0.128791,-0.075575,0.545449,-0.023531,-2.016918,-0.539212,0.209873,-0.681457,0.045685,-1.90488,0.200662,0.0
177,2.603799,2.003426,0.715208,-0.128075,0.020102,0.838327,-0.529528,-0.88782,0.057069,0.00116,1.050109,-0.341087,-0.203012,-0.796715,-0.268046,0.066253,1.401826,-0.598474,0.253425,0.070268,-0.224313,0.588283,-0.125312,-2.05532,-0.560869,0.133905,-0.772403,0.119813,-1.935216,0.209498,0.0
178,2.593721,2.005643,0.713686,-0.102272,0.070689,0.83288,-0.53931,-0.749558,0.019214,0.034241,1.012846,-0.316844,-0.215404,-0.759147,-0.411884,0.085425,1.513984,-0.6046,0.189683,-0.02915,-0.351478,0.682258,-0.214812,-2.089384,-0.551737,0.063685,-0.852386,0.175058,-1.957204,0.189756,0.0
179,2.576679,2.012356,0.718553,-0.073487,0.121424,0.820779,-0.553333,-0.59138,-0.025512,0.040577,0.926217,-0.265202,-0.236395,-0.646176,-0.464001,0.129189,1.518764,-0.510638,0.164234,-0.139933,-0.432338,0.806003,-0.262538,-2.1138,-0.496187,0.002655,-0.919837,0.187949,-1.997828,0.188834,0.0
180,2.558246,2.028505,0.729154,-0.046694,0.164042,0.80916,-0.56229,-0.437377,-0.053997,0.038765,0.792105,-0.176585,-0.2618,-0.488645,-0.421779,0.175914,1.423251,-0.34972,0.212048,-0.252134,-0.441083,0.966551,-0.24424,-2.143059,-0.464636,-0.076401,-0.95522,0.206455,-2.050294,0.175861,0.0
181,2.544179,2.059262,0.74337,-0.031461,0.186204,0.801269,-0.56772,-0.331387,-0.057948,0.037126,0.616882,-0.031643,-0.2618,-0.391658,-0.392608,0.149696,1.353589,-0.368598,0.208741,-0.352874,-0.408234,1.173232,-0.154767,-2.174324,-0.467933,-0.223697,-0.949492,0.258274,-2.100203,0.141643,0.0
182,2.536199,2.096292,0.752299,-0.016562,0.189512,0.799989,-0.569059,-0.26988,-0.023387,0.043221,0.478819,0.054078,-0.2618,-0.358571,-0.391207,0.021639,1.292845,-0.383222,0.069241,-0.429957,-0.301956,1.412836,0.012971,-2.1948,-0.447198,-0.402762,-0.911149,0.323646,-2.115031,0.125329,0.0
183,2.533698,2.139363,0.758891,-0.008768,0.186109,0.800527,-0.569599,-0.261409,0.011152,0.085389,0.48295,0.004579,-0.2618,-0.376796,-0.390861,-0.096165,1.246851,-0.376592,-0.055072,-0.477654,-0.187471,1.640922,0.193569,-2.182851,-0.416175,-0.553543,-0.903862,0.33166,-2.120356,0.117669,0.0
184,2.522477,2.185998,0.764125,-0.001066,0.189914,0.798025,-0.571916,-0.237191,0.056549,0.24244,0.582262,-0.015595,-0.2618,-0.390233,-0.366946,-0.163348,1.209059,-0.346415,-0.132819,-0.518851,-0.122913,1.809359,0.296449,-2.13599,-0.407889,-0.627443,-0.966249,0.293557,-2.14692,0.09867,0.0
185,2.503849,2.231915,0.770259,0.011496,0.196444,0.794351,-0.574703,-0.187208,0.098927,0.374697,0.747772,-0.041337,-0.2618,-0.383141,-0.320658,-0.207204,1.161443,-0.275681,-0.185062,-0.566671,-0.063896,1.936333,0.3601,-2.079284,-0.430519,-0.639886,-1.048066,0.246579,-2.163772,0.059506,0.0
186,2.483777,2.274614,0.778057,0.021451,0.203844,0.800645,-0.562988,-0.122618,0.086677,0.411096,0.926239,-0.063886,-0.26158,-0.39475,-0.266925,-0.216991,1.118823,-0.169982,-0.224015,-0.588319,-0.057403,1.995131,0.342555,-2.058964,-0.491033,-0.610331,-1.116899,0.195654,-2.176002,0.038227,0.0
187,2.473251,2.318973,0.7897,0.022155,0.223879,0.805566,-0.548134,-0.044003,-0.054921,0.387023,1.011077,-0.031114,-0.2618,-0.425153,-0.269718,-0.204566,1.072708,-0.01437,-0.231526,-0.582037,-0.065491,1.988897,0.35283,-2.065106,-0.535474,-0.551144,-1.220888,0.134967,-2.14704,0.045108,0.0
188,2.474245,2.360677,0.795846,0.021795,0.234054,0.806947,-0.54183,-0.024254,-0.261333,0.271393,1.06959,0.013572,-0.2618,-0.510891,-0.261239,-0.126581,1.076517,0.137904,-0.085098,-0.598753,-0.063344,1.992116,0.371759,-2.061606,-0.637845,-0.496695,-1.265237,0.08717,-2.075264,0.087289,0.0
189,2.462022,2.404381,0.78872,0.025531,0.224069,0.812585,-0.537445,-0.030426,-0.435489,0.091031,1.061869,0.096163,-0.2618,-0.612844,-0.180015,-0.023262,1.11155,0.248695,0.252884,-0.618683,-0.023097,2.04282,0.407326,-2.000821,-0.803423,-0.461372,-1.231399,0.061312,-1.955867,0.169753,0.0
190,2.404813,2.473576,0.75915,0.024571,0.20349,0.832508,-0.514703,-0.072091,-0.430029,-0.028288,1.014349,0.16522,-0.2618,-0.685639,-0.112018,-0.112403,1.140148,0.223112,0.2618,-0.588252,0.014099,2.121999,0.405,-1.881604,-0.929194,-0.433683,-1.147644,0.025221,-1.832613,0.227476,0.0
191,2.375984,2.534745,0.738899,0.018215,0.181738,0.840891,-0.509453,-0.108497,-0.357721,-0.031648,1.03946,-0.108398,-0.124751,-0.787625,-0.039489,-0.058588,1.208756,0.063811,0.2618,-0.5621,0.088401,2.236333,0.44223,-1.692478,-1.007691,-0.38869,-1.06955,-0.045088,-1.685004,0.251829,0.0
192,2.37965,2.578682,0.725003,0.001838,0.170133,0.8485,-0.501097,-0.143561,-0.290786,0.089984,1.007201,-0.357947,0.010422,-0.942167,-0.138096,0.003155,1.377847,-0.095403,0.2618,-0.508159,0.140388,2.29617,0.459089,-1.530068,-0.988131,-0.325464,-1.029453,-0.10677,-1.567399,0.263797,0.0
193,2.38186,2.614824,0.71552,-0.01376,0.165842,0.854961,-0.491273,-0.157535,-0.26632,0.150929,0.937395,-0.527339,0.037633,-1.066946,-0.319354,0.088875,1.533051,-0.291167,0.1906,-0.435508,0.171635,2.273582,0.446888,-1.466886,-0.887435,-0.225234,-1.031921,-0.112413,-1.5021,0.277692,0.0
194,2.366034,2.658484,0.709252,-0.020006,0.152397,0.868981,-0.470368,-0.229244,-0.19407,0.141693,0.96577,-0.595491,0.007618,-1.113435,-0.472214,0.162258,1.613392,-0.422121,0.007029,-0.314838,0.24854,2.230408,0.437323,-1.451965,-0.727208,-0.077813,-1.0135,-0.101895,-1.455511,0.259123,0.0
195,2.349304,2.701245,0.710481,-0.020648,0.135527,0.879803,-0.455141,-0.314267,-0.100519,0.124007,1.014896,-0.565707,-0.025397,-1.067547,-0.610861,0.224813,1.583373,-0.470167,-0.117991,-0.201621,0.353252,2.169123,0.389291,-1.470803,-0.731406,0.041951,-0.951233,-0.068277,-1.412278,0.239654,0.0
196,2.332695,2.74527,0.714295,-0.021848,0.130573,0.878401,-0.459223,-0.359559,-0.045704,0.073516,0.989243,-0.518194,-0.087275,-0.921955,-0.807363,0.187984,1.44542,-0.447169,-0.19361,-0.14749,0.486576,2.054304,0.318594,-1.478407,-0.810733,0.103768,-0.867798,-0.026626,-1.394169,0.268368,0.0
197,2.320356,2.792849,0.713748,-0.037494,0.139349,0.877018,-0.458274,-0.414473,-0.028874,0.050944,0.945624,-0.446047,-0.145166,-0.739018,-0.994706,0.062492,1.236951,-0.337149,-0.234674,-0.121647,0.601429,1.856041,0.257871,-1.460432,-0.789208,0.11976,-0.797098,0.002786,-1.420602,0.310055,0.0
198,2.310571,2.853706,0.709873,-0.068647,0.139013,0.884099,-0.440832,-0.518222,0.014043,0.053153,0.901728,-0.343228,-0.214863,-0.604956,-1.016275,0.036405,1.039618,-0.197193,0.261797,-0.080364,0.651468,1.61176,0.214026,-1.45642,-0.778726,0.11721,-0.746956,0.04637,-1.484473,0.327716,0.0
199,2.289726,2.937936,0.709758,-0.097101,0.110269,0.900252,-0.409827,-0.630398,0.145843,0.032612,0.800801,-0.197404,-0.261799,-0.584732,-0.799811,0.076155,0.940282,-0.540383,0.2618,0.009975,0.630172,1.44554,0.185431,-1.472736,-0.791508,0.127672,-0.72391,0.108694,-1.556756,0.331098,0.0
200,2.260946,2.993816,0.705469,-0.112546,0.077401,0.912318,-0.386029,-0.704447,0.262006,-0.01779,0.742971,-0.176333,-0.210787,-0.812829,-0.627148,0.171165,1.119628,-0.600975,0.2618,0.106628,0.566054,1.346202,0.161947,-1.528352,-0.786152,0.167903,-0.74027,0.156973,-1.641667,0.365137,0.0
