chrisxuxuhui/mimic_robot/GMR/RetargetData/lafan1/csv/pm01/fight5_zhiquan1.csv
frame,root pos x,root pos y,root pos z,root rot x,root rot y,root rot z,root rot w,j00_hip_pitch_l_joint,j01_hip_roll_l_joint,j02_hip_yaw_l_joint,j03_knee_pitch_l_joint,j04_ankle_pitch_l_joint,j05_ankle_roll_l_joint,j06_hip_pitch_r_joint,j07_hip_roll_r_joint,j08_hip_yaw_r_joint,j09_knee_pitch_r_joint,j10_ankle_pitch_r_joint,j11_ankle_roll_r_joint,j12_waist_yaw_joint,j13_shoulder_pitch_l_joint,j14_shoulder_roll_l_joint,j15_shoulder_yaw_l_joint,j16_elbow_pitch_l_joint,j17_elbow_yaw_l_joint,j18_shoulder_pitch_r_joint,j19_shoulder_roll_r_joint,j20_shoulder_yaw_r_joint,j21_elbow_pitch_r_joint,j22_elbow_yaw_r_joint,j23_head_yaw_joint
0,-2.209206,-1.253731,0.667084,-0.114269,0.239851,0.307827,0.913595,-0.711411,0.450276,-0.275137,1.00261,-0.362412,-0.2618,-1.432739,-0.167959,0.402659,0.970579,-0.194877,0.2618,-0.074018,-0.693817,0.395277,-0.266584,-2.1948,-0.322645,-0.684745,-0.207106,0.086541,-2.1948,0.20322,0.0
1,-2.157341,-1.274866,0.659338,-0.119901,0.22843,0.288494,0.922071,-0.730129,0.543057,-0.284602,1.060911,-0.176007,-0.2618,-1.427858,-0.079102,0.363909,1.1274,-0.306059,0.2618,-0.018336,-0.650223,0.3697,-0.248262,-2.1948,-0.298089,-0.674336,-0.217289,0.10078,-2.1948,0.211569,0.0
2,-2.111244,-1.291186,0.664099,-0.113273,0.234224,0.290071,0.92096,-0.836388,0.591016,-0.24437,1.126608,0.009334,-0.116459,-1.411872,-0.052076,0.33214,1.201405,-0.392499,0.2618,0.012325,-0.610113,0.289944,-0.239707,-2.194536,-0.320023,-0.655653,-0.264046,0.11044,-2.1948,0.207617,0.0
3,-2.074424,-1.300083,0.6733,-0.101828,0.241741,0.311281,0.913398,-0.966945,0.622581,-0.140595,1.208283,-0.021172,0.054139,-1.377323,-0.080635,0.297981,1.228874,-0.46005,0.2618,-0.001928,-0.575394,0.214466,-0.245006,-2.187558,-0.361285,-0.633922,-0.312199,0.116717,-2.1948,0.197083,0.0
4,-2.054269,-1.305834,0.683302,-0.092655,0.253759,0.335432,0.9025,-1.083795,0.494372,-0.147174,1.308634,-0.140244,0.026388,-1.362437,-0.120246,0.273255,1.224132,-0.487006,0.2618,-0.037987,-0.543738,0.159449,-0.257792,-2.179353,-0.374746,-0.622117,-0.345686,0.124485,-2.1948,0.200814,0.0
5,-2.038453,-1.314781,0.690557,-0.086899,0.268362,0.372983,0.88392,-1.214559,0.314768,-0.13977,1.392251,-0.23544,-0.017557,-1.364271,-0.177951,0.231977,1.227621,-0.513815,0.249596,-0.108401,-0.51608,0.135414,-0.275926,-2.175069,-0.373472,-0.6183,-0.354437,0.123461,-2.1948,0.201479,0.0
6,-2.022092,-1.327541,0.693558,-0.087544,0.283131,0.408317,0.863395,-1.338597,0.17991,-0.048178,1.433505,-0.301383,-0.043589,-1.379251,-0.218653,0.179145,1.24749,-0.542253,0.212739,-0.168775,-0.495007,0.138653,-0.295608,-2.174116,-0.383684,-0.61749,-0.344909,0.109804,-2.1948,0.188386,0.0
7,-2.004849,-1.336563,0.694628,-0.092327,0.2912,0.438052,0.845452,-1.418952,0.055623,0.056428,1.419717,-0.345888,-0.090618,-1.372622,-0.248555,0.118329,1.263951,-0.575146,0.17641,-0.205814,-0.467063,0.166952,-0.318606,-2.177287,-0.400464,-0.602157,-0.327813,0.086931,-2.1948,0.184684,0.0
8,-1.985354,-1.338834,0.696373,-0.09746,0.291412,0.458898,0.833662,-1.452503,-0.090795,0.07965,1.350993,-0.359941,-0.207806,-1.327623,-0.26713,0.052628,1.262667,-0.608864,0.148005,-0.222549,-0.424343,0.208305,-0.326998,-2.188902,-0.417642,-0.567265,-0.311586,0.065618,-2.1948,0.180071,0.0
9,-1.973551,-1.336382,0.694912,-0.104612,0.293538,0.461201,0.830774,-1.483939,-0.243616,0.010788,1.271305,-0.364771,-0.261798,-1.309635,-0.256926,0.023009,1.266142,-0.628686,0.132316,-0.199541,-0.4064,0.237616,-0.324754,-2.19043,-0.423932,-0.535021,-0.313487,0.046361,-2.1948,0.17516,0.0
10,-1.947138,-1.340117,0.694878,-0.108744,0.295811,0.458738,0.830801,-1.486751,-0.306017,-0.075824,1.203376,-0.357116,-0.238697,-1.281535,-0.234528,-0.027437,1.274457,-0.650092,0.104138,-0.169231,-0.398157,0.255239,-0.308787,-2.18915,-0.410927,-0.495815,-0.330807,0.033839,-2.1948,0.165684,0.0
11,-1.928102,-1.339303,0.691317,-0.113906,0.293696,0.444269,0.838685,-1.475591,-0.269611,-0.081994,1.21092,-0.394488,-0.087071,-1.275769,-0.204883,-0.057977,1.309922,-0.637984,0.080158,-0.112227,-0.394711,0.258514,-0.282612,-2.185282,-0.395178,-0.453172,-0.357596,0.023549,-2.1948,0.164361,0.0
12,-1.911068,-1.334898,0.686995,-0.118859,0.285982,0.41613,0.85494,-1.469779,-0.19733,-0.076091,1.250405,-0.429867,0.029615,-1.291361,-0.163935,-0.075361,1.379069,-0.56323,0.036141,-0.034453,-0.385982,0.250709,-0.243732,-2.180639,-0.383627,-0.409789,-0.388271,0.019447,-2.1948,0.164401,0.0
13,-1.893981,-1.328629,0.681174,-0.125499,0.279138,0.392164,0.86749,-1.479699,-0.127494,-0.084615,1.313254,-0.473844,0.034359,-1.348878,-0.128635,-0.078454,1.488827,-0.407174,-0.035531,0.022827,-0.387487,0.243592,-0.207266,-2.175219,-0.37447,-0.376785,-0.412648,0.01693,-2.1948,0.168272,0.0
14,-1.87483,-1.321952,0.676535,-0.132656,0.273698,0.378479,0.874211,-1.476817,-0.076244,-0.110283,1.356267,-0.525423,0.006456,-1.41625,-0.104638,-0.067806,1.598821,-0.236103,-0.022668,0.049452,-0.402809,0.236737,-0.176416,-2.16602,-0.375028,-0.343281,-0.425479,0.011323,-2.1948,0.177794,0.0
15,-1.854369,-1.31988,0.67378,-0.140049,0.272115,0.372123,0.876279,-1.475317,-0.035622,-0.138634,1.377082,-0.563476,-0.019961,-1.477978,-0.095242,-0.057451,1.697014,-0.192021,0.029605,0.05648,-0.4382,0.223579,-0.156973,-2.155426,-0.379613,-0.312971,-0.429765,0.002172,-2.1948,0.184923,0.0
16,-1.833983,-1.314553,0.669052,-0.141577,0.269955,0.369841,0.877666,-1.461939,-0.004714,-0.156521,1.401389,-0.600045,-0.048356,-1.526498,-0.161489,-0.057352,1.748449,-0.242993,0.021453,0.050276,-0.482313,0.197254,-0.155665,-2.139695,-0.399753,-0.270401,-0.436359,-0.006923,-2.1948,0.182564,0.0
17,-1.812021,-1.314795,0.664392,-0.147408,0.271623,0.369767,0.876222,-1.471206,0.022637,-0.189988,1.42254,-0.62142,-0.083511,-1.592397,-0.209651,-0.026508,1.741942,-0.277413,-0.029787,0.035693,-0.531488,0.182125,-0.176234,-2.142422,-0.430132,-0.242747,-0.423292,-0.011715,-2.1948,0.179092,0.0
18,-1.783081,-1.318673,0.662897,-0.150163,0.26732,0.36873,0.877513,-1.455129,0.06946,-0.230539,1.42391,-0.640666,-0.136508,-1.62341,-0.205735,0.049375,1.671302,-0.29935,-0.027,0.020025,-0.56481,0.168026,-0.220079,-2.141967,-0.434349,-0.212531,-0.402515,-0.011323,-2.1948,0.175997,0.0
19,-1.75391,-1.326176,0.662191,-0.153664,0.266097,0.366057,0.878398,-1.445663,0.117784,-0.270733,1.411944,-0.65177,-0.189444,-1.643682,-0.17395,0.145702,1.547657,-0.305142,-0.016697,0.001631,-0.591384,0.162755,-0.273218,-2.15345,-0.426666,-0.205217,-0.375716,-0.003362,-2.1948,0.17925,0.0
20,-1.725487,-1.333231,0.661903,-0.153516,0.266741,0.364341,0.878941,-1.42465,0.161,-0.296542,1.38538,-0.65919,-0.233582,-1.646,-0.153732,0.24281,1.388842,-0.262732,-0.041856,-0.022599,-0.612622,0.166505,-0.329676,-2.167187,-0.420499,-0.203128,-0.353164,0.008463,-2.1948,0.182452,0.0
21,-1.696619,-1.337206,0.666857,-0.148933,0.261564,0.367484,0.879977,-1.364305,0.204532,-0.304437,1.329716,-0.656655,-0.2618,-1.582611,-0.146155,0.331917,1.217602,-0.213925,-0.061629,-0.054924,-0.618894,0.183075,-0.385304,-2.175856,-0.426984,-0.181792,-0.334185,0.023863,-2.1948,0.187619,0.0
22,-1.666689,-1.34234,0.671252,-0.141299,0.254363,0.377935,0.878919,-1.299867,0.233365,-0.316033,1.27299,-0.636481,-0.2618,-1.483013,-0.161888,0.40903,1.106628,-0.218242,0.196179,-0.095863,-0.616306,0.20576,-0.428261,-2.185259,-0.453597,-0.146478,-0.323373,0.037253,-2.1948,0.19365,0.0
23,-1.620081,-1.359467,0.674723,-0.120658,0.24056,0.396475,0.877713,-1.205465,0.272109,-0.328531,1.192844,-0.571211,-0.2618,-1.352692,-0.209758,0.370546,1.092783,-0.387959,0.2618,-0.145402,-0.596887,0.216208,-0.442443,-2.194427,-0.464886,-0.080375,-0.350943,0.053511,-2.1948,0.201204,0.0
24,-1.581243,-1.367362,0.674753,-0.102907,0.231706,0.403863,0.878987,-1.156005,0.306677,-0.315335,1.180832,-0.485152,-0.2618,-1.309281,-0.214125,0.355012,1.163293,-0.478474,0.2618,-0.163704,-0.581851,0.226391,-0.44137,-2.1948,-0.458468,-0.02453,-0.389877,0.069236,-2.191702,0.210554,0.0
25,-1.54908,-1.386131,0.668282,-0.094072,0.24239,0.396504,0.880444,-1.248625,0.330262,-0.307389,1.260572,-0.325125,-0.154402,-1.364993,-0.170158,0.355552,1.265727,-0.536785,0.2618,-0.146323,-0.58095,0.223704,-0.428509,-2.1948,-0.444718,-0.013139,-0.427046,0.077427,-2.182857,0.251289,0.0
26,-1.505058,-1.383441,0.674132,-0.074216,0.225386,0.404797,0.883081,-1.208457,0.384093,-0.195078,1.285339,-0.210891,0.133067,-1.241343,-0.193634,0.313684,1.27907,-0.631331,0.2618,-0.15932,-0.51521,0.244716,-0.380236,-2.1948,-0.413887,0.01586,-0.481599,0.082307,-2.165406,0.26875,0.0
27,-1.484778,-1.392941,0.675126,-0.075267,0.234533,0.408029,0.879114,-1.296798,0.339711,-0.170932,1.369549,-0.222797,0.210533,-1.247934,-0.176896,0.286096,1.299907,-0.644208,0.258387,-0.137305,-0.500191,0.26713,-0.365492,-2.194649,-0.428042,-0.011731,-0.495209,0.077966,-2.151136,0.274699,0.0
28,-1.464716,-1.389502,0.676522,-0.065681,0.220195,0.439893,0.868156,-1.295654,0.199705,-0.159172,1.457669,-0.295591,0.173632,-1.158819,-0.249284,0.208532,1.303253,-0.6807,0.248925,-0.174982,-0.409321,0.314976,-0.321842,-2.1948,-0.408542,-0.01869,-0.523876,0.087532,-2.118177,0.276548,0.0
29,-1.449842,-1.395895,0.674193,-0.072871,0.223401,0.463922,0.854142,-1.382103,0.127916,-0.055781,1.532524,-0.340136,0.158395,-1.146967,-0.270695,0.137473,1.324364,-0.6807,0.230176,-0.181878,-0.378668,0.376008,-0.301072,-2.1948,-0.398613,-0.064976,-0.51814,0.086761,-2.103083,0.308984,0.0
30,-1.432942,-1.40054,0.671618,-0.086,0.223698,0.484645,0.841239,-1.45241,0.084345,0.074571,1.562205,-0.354218,0.157411,-1.116968,-0.275662,0.053129,1.334281,-0.6807,0.208926,-0.169147,-0.363566,0.442329,-0.27776,-2.1948,-0.393048,-0.119355,-0.491925,0.090628,-2.077886,0.288113,0.0
31,-1.416632,-1.402555,0.669585,-0.101318,0.220574,0.496861,0.833193,-1.502217,0.041475,0.184208,1.538084,-0.349484,0.123884,-1.077384,-0.259002,-0.021661,1.333615,-0.6807,0.191868,-0.127629,-0.370994,0.492185,-0.258691,-2.1948,-0.397365,-0.182062,-0.467211,0.101837,-2.064598,0.280764,0.0
32,-1.400823,-1.400042,0.667418,-0.117076,0.214261,0.504618,0.828098,-1.53853,-0.006797,0.254618,1.465814,-0.34419,0.078654,-1.025157,-0.23059,-0.087538,1.322411,-0.6807,0.17733,-0.065547,-0.393846,0.520291,-0.253238,-2.1948,-0.387192,-0.248027,-0.446239,0.119696,-2.071513,0.305979,0.0
33,-1.384009,-1.393209,0.666164,-0.131406,0.20582,0.509677,0.824985,-1.55956,-0.046641,0.294231,1.359773,-0.330725,0.052476,-0.957138,-0.197132,-0.149772,1.295265,-0.6807,0.166664,0.003641,-0.419883,0.534272,-0.252821,-2.1948,-0.382287,-0.312813,-0.428369,0.14906,-2.087456,0.298056,0.0
34,-1.366987,-1.382718,0.665938,-0.144368,0.196596,0.511746,0.823786,-1.5747,-0.085145,0.288542,1.241369,-0.307817,0.036031,-0.880314,-0.157539,-0.201821,1.252991,-0.6807,0.159163,0.079892,-0.445453,0.550926,-0.262696,-2.1948,-0.390877,-0.37274,-0.427239,0.189627,-2.118725,0.302759,0.0
35,-1.34811,-1.368851,0.668345,-0.157393,0.182499,0.511198,0.824984,-1.579386,-0.102514,0.240926,1.139269,-0.277564,0.020839,-0.779672,-0.106739,-0.25662,1.185455,-0.6807,0.154868,0.157151,-0.44089,0.584577,-0.277718,-2.1948,-0.395072,-0.413234,-0.43947,0.239946,-2.168829,0.340362,0.0
36,-1.329078,-1.353882,0.671053,-0.172092,0.164468,0.508564,0.827464,-1.583038,-0.090387,0.184103,1.076058,-0.266012,0.040645,-0.671896,-0.043221,-0.306049,1.105463,-0.6807,0.15227,0.234858,-0.398302,0.633317,-0.287823,-2.1948,-0.380159,-0.447157,-0.461016,0.295074,-2.1948,0.362797,0.0
37,-1.306731,-1.333674,0.673265,-0.183546,0.136931,0.507315,0.830778,-1.570227,-0.059459,0.110508,1.065539,-0.256561,0.033259,-0.537326,0.026781,-0.349065,1.02228,-0.6807,0.156698,0.30695,-0.302908,0.697026,-0.285901,-2.1948,-0.352058,-0.452124,-0.478897,0.344594,-2.1948,0.37914,0.0
38,-1.282246,-1.310133,0.670668,-0.18584,0.108161,0.519306,0.827095,-1.533682,-0.049654,0.050827,1.099386,-0.174882,0.131027,-0.433519,0.068183,-0.37635,1.027728,-0.670496,0.169985,0.346084,-0.185542,0.750293,-0.281534,-2.1948,-0.339023,-0.401771,-0.514474,0.362385,-2.1948,0.394459,0.0
39,-1.256803,-1.284413,0.679027,-0.185089,0.08047,0.538048,0.818396,-1.459697,-0.037208,0.020833,1.117166,-0.135226,0.2618,-0.397315,0.096006,-0.380542,1.09514,-0.425607,0.107569,0.361434,-0.083357,0.785364,-0.274708,-2.1948,-0.357763,-0.302319,-0.564737,0.337648,-2.1948,0.394602,0.0
40,-1.241752,-1.250412,0.687065,-0.176486,0.059745,0.565882,0.803157,-1.373787,-0.04962,0.00133,1.158409,-0.184262,0.2618,-0.460684,0.070469,-0.34245,1.293324,-0.174562,0.01128,0.333798,-0.016256,0.776469,-0.262883,-2.1948,-0.37874,-0.160606,-0.639215,0.282185,-2.1948,0.411474,0.0
41,-1.227696,-1.220931,0.694895,-0.162377,0.051684,0.606765,0.776401,-1.281278,-0.104063,-0.014399,1.164622,-0.201309,0.2618,-0.585161,0.021682,-0.287424,1.533266,-0.24555,-0.035737,0.244342,-0.012577,0.725169,-0.254079,-2.1948,-0.371689,0.002014,-0.73005,0.193918,-2.1948,0.4369,0.0
42,-1.215113,-1.194092,0.703347,-0.148774,0.047121,0.650495,0.743305,-1.192206,-0.15901,-0.015298,1.152563,-0.198172,0.2618,-0.757635,-0.063809,-0.233108,1.753451,-0.346669,-0.113865,0.134088,-0.059325,0.66335,-0.248374,-2.1948,-0.33521,0.114361,-0.790213,0.109799,-2.095661,0.440069,0.0
43,-1.198246,-1.175197,0.715017,-0.145715,0.042332,0.693289,0.704504,-1.125487,-0.195419,-0.026896,1.119944,-0.17961,0.2618,-0.985899,-0.107427,-0.141091,1.899169,-0.397547,-0.15085,0.020747,-0.128469,0.624009,-0.232797,-2.1948,-0.341411,0.185721,-0.805366,0.043059,-1.956495,0.41929,0.0
44,-1.17318,-1.160017,0.727235,-0.154702,0.03235,0.73201,0.662709,-1.076056,-0.197832,-0.056522,1.080769,-0.198924,0.2618,-1.180107,-0.09149,-0.053805,1.923934,-0.365878,-0.073579,-0.07522,-0.18782,0.620703,-0.218819,-2.1948,-0.363642,0.246153,-0.794626,-0.013539,-1.873309,0.404022,0.0
45,-1.154668,-1.145005,0.736786,-0.163783,0.015695,0.760787,0.6278,-1.023835,-0.18704,-0.107354,1.049236,-0.247905,0.2618,-1.256449,-0.118062,-0.025384,1.845727,-0.288851,0.0163,-0.136484,-0.203736,0.626149,-0.203756,-2.1948,-0.352645,0.269275,-0.782152,-0.030274,-1.844712,0.390891,0.0
46,-1.144308,-1.13291,0.745615,-0.165435,-0.006259,0.781782,0.601172,-0.985437,-0.1789,-0.177449,1.051735,-0.24434,0.2618,-1.215988,-0.104184,-0.00646,1.69743,-0.106155,0.099707,-0.159946,-0.168594,0.629293,-0.181782,-2.1948,-0.324397,0.265903,-0.77449,-0.02856,-1.863075,0.373177,0.0
47,-1.135615,-1.125548,0.751283,-0.170119,-0.027886,0.795389,0.581067,-0.978098,-0.148055,-0.213084,1.070092,-0.235665,0.2618,-1.115472,-0.060963,-0.018012,1.51094,0.079761,0.19734,-0.13969,-0.113662,0.650242,-0.16061,-2.1948,-0.325039,0.220216,-0.754093,-0.02294,-1.904095,0.363621,0.0
48,-1.124966,-1.124317,0.752692,-0.179911,-0.041133,0.808109,0.559375,-0.994059,-0.131991,-0.252207,1.079272,-0.244784,0.2618,-1.019996,-0.024131,-0.056156,1.340839,0.170505,0.261799,-0.103202,-0.066135,0.683093,-0.142235,-2.1948,-0.331982,0.141695,-0.728462,-0.029056,-1.951673,0.356159,0.0
49,-1.112116,-1.124158,0.754744,-0.18105,-0.053213,0.812096,0.552167,-1.00001,-0.10635,-0.283868,1.087947,-0.248734,0.2618,-0.915205,-0.010922,-0.145564,1.19936,0.225748,0.2618,-0.029926,-0.015009,0.687566,-0.118907,-2.1948,-0.329734,0.072363,-0.707508,-0.039538,-2.001413,0.343757,0.0
50,-1.115272,-1.128946,0.750475,-0.179396,-0.057852,0.813248,0.550544,-1.022598,-0.109362,-0.276515,1.122919,-0.220728,0.2618,-0.851591,-0.015078,-0.194078,1.135759,0.18543,0.2618,0.049658,0.006943,0.656469,-0.112895,-2.1948,-0.338032,0.012828,-0.689444,-0.05412,-2.05009,0.309444,0.0
51,-1.124543,-1.134178,0.74775,-0.174583,-0.062002,0.818017,0.54454,-1.060611,-0.122899,-0.258667,1.180881,-0.136919,0.25041,-0.788631,-0.016749,-0.198811,1.076791,0.129183,0.2618,0.102118,0.018814,0.610579,-0.129447,-2.1948,-0.327474,-0.011781,-0.669843,-0.056331,-2.111398,0.281559,0.0
52,-1.127914,-1.141642,0.745795,-0.174106,-0.06217,0.822681,0.537604,-1.148248,-0.145401,-0.283021,1.267052,-0.044605,0.008584,-0.750156,-0.021304,-0.206797,1.034162,0.045643,0.2618,0.121971,0.007658,0.563828,-0.152506,-2.1948,-0.313337,-0.029996,-0.651953,-0.034716,-2.181134,0.270018,0.0
53,-1.151287,-1.159379,0.734907,-0.167473,-0.060667,0.831452,0.52627,-1.206827,-0.151717,-0.266423,1.326574,-0.023074,-0.2618,-0.741717,-0.070792,-0.168568,1.036797,-0.018512,0.2618,0.110352,-0.010839,0.52581,-0.193205,-2.1948,-0.312468,-0.053337,-0.650189,0.010151,-2.1948,0.253913,0.0
54,-1.16397,-1.174195,0.731329,-0.162059,-0.052097,0.83643,0.520968,-1.254995,-0.14516,-0.293427,1.379487,-0.071797,-0.2618,-0.753132,-0.117413,-0.149532,1.034085,-0.039149,0.2618,0.089279,-0.049557,0.484679,-0.239236,-2.1948,-0.305418,-0.074833,-0.657794,0.055047,-2.1948,0.247708,0.0
55,-1.164043,-1.176871,0.733038,-0.150418,-0.040486,0.836768,0.524933,-1.269471,-0.071677,-0.345143,1.429752,-0.181318,-0.2618,-0.760514,-0.149893,-0.133746,1.040432,-0.062058,0.2618,0.068438,-0.083837,0.433358,-0.284333,-2.1948,-0.291275,-0.073802,-0.675926,0.104485,-2.1948,0.251296,0.0
56,-1.156863,-1.173175,0.735352,-0.138053,-0.032252,0.830971,0.537948,-1.251704,0.050674,-0.429281,1.451591,-0.271733,-0.2618,-0.765024,-0.154813,-0.111987,1.050943,-0.087616,0.2618,0.052652,-0.116464,0.403652,-0.32502,-2.1948,-0.273331,-0.054594,-0.687235,0.142047,-2.1948,0.23802,0.0
57,-1.158735,-1.172775,0.733831,-0.121736,-0.027343,0.818934,0.56016,-1.192052,0.210716,-0.464711,1.440653,-0.311876,-0.227945,-0.766684,-0.159121,-0.067743,1.060422,-0.120767,0.2618,0.047373,-0.145434,0.39037,-0.360415,-2.1948,-0.266381,-0.02001,-0.702477,0.173613,-2.1948,0.224266,0.0
58,-1.170053,-1.189146,0.724986,-0.117956,-0.0297,0.792475,0.597651,-1.133835,0.334955,-0.516683,1.446063,-0.320688,-0.158724,-0.80153,-0.127978,-0.003489,1.048965,-0.132834,0.2618,0.078919,-0.184912,0.406068,-0.397932,-2.1948,-0.295179,-0.006687,-0.686017,0.211062,-2.1948,0.244223,0.0
59,-1.18829,-1.203841,0.720825,-0.106495,-0.03319,0.76652,0.632459,-0.944521,0.405619,-0.509912,1.410538,-0.329399,-0.208811,-0.794116,-0.110845,0.059136,0.999353,-0.155711,0.2618,0.099807,-0.220716,0.419714,-0.43254,-2.1948,-0.305841,0.025549,-0.674471,0.234997,-2.1948,0.245817,0.0
60,-1.208957,-1.227,0.718076,-0.10468,-0.032086,0.75331,0.648489,-0.804479,0.394879,-0.494766,1.363822,-0.236542,-0.25554,-0.801875,-0.116556,0.091127,0.931204,-0.145796,0.2618,0.069571,-0.26383,0.440743,-0.464895,-2.1948,-0.30285,0.04408,-0.649373,0.249302,-2.1948,0.235523,0.0
61,-1.240216,-1.252003,0.724558,-0.094567,-0.017159,0.764149,0.63784,-0.688198,0.341232,-0.395368,1.224179,-0.330384,-0.2618,-0.798984,-0.207851,0.103882,0.836949,-0.083848,0.2618,-0.037953,-0.307064,0.437801,-0.481128,-2.1948,-0.296009,0.058536,-0.653383,0.252248,-2.1948,0.241633,0.0
62,-1.263747,-1.284318,0.735094,-0.092925,-0.000247,0.771998,0.628795,-0.654656,0.279085,-0.326174,1.120981,-0.448319,-0.2618,-0.819229,-0.267735,0.113051,0.724366,0.062962,0.2618,-0.130463,-0.35438,0.441758,-0.497193,-2.1948,-0.298867,0.053039,-0.636376,0.251247,-2.1948,0.242306,0.0
63,-1.300839,-1.328591,0.742262,-0.099731,0.02703,0.77384,0.624896,-0.714968,0.183032,-0.234717,1.087781,-0.485596,-0.16928,-0.877051,-0.301073,0.168514,0.604006,0.167634,0.209451,-0.193679,-0.42277,0.454534,-0.520535,-2.1948,-0.300267,0.017536,-0.615285,0.249253,-2.1948,0.231575,0.0
64,-1.325651,-1.353411,0.758081,-0.09166,0.034929,0.767583,0.6334,-0.674204,0.134247,-0.160328,1.008593,-0.458833,-0.112933,-0.849397,-0.29411,0.149601,0.595854,0.118304,0.250081,-0.218946,-0.43347,0.491515,-0.526861,-2.1948,-0.297719,0.010593,-0.603161,0.258475,-2.1948,0.223129,0.0
65,-1.343878,-1.383599,0.770594,-0.089721,0.051221,0.748955,0.654518,-0.686701,0.092924,-0.090454,0.958209,-0.388741,-0.072815,-0.891175,-0.259608,0.087277,0.715286,0.071978,0.242479,-0.194212,-0.443928,0.508038,-0.529939,-2.1948,-0.299803,-0.003871,-0.601338,0.272811,-2.1948,0.231299,0.0
66,-1.358509,-1.409781,0.780741,-0.079591,0.069945,0.731611,0.673438,-0.697824,0.0539,-0.011706,0.917761,-0.285589,-0.04349,-0.927319,-0.251383,0.000434,0.925232,-0.02528,0.22318,-0.164344,-0.43044,0.494379,-0.514088,-2.1948,-0.29015,0.000361,-0.623693,0.289172,-2.1948,0.236731,0.0
67,-1.376511,-1.443565,0.790089,-0.075688,0.091079,0.720637,0.683124,-0.765246,0.002064,0.025717,0.905842,-0.14887,-0.047026,-0.938167,-0.254859,-0.087717,1.104785,-0.091871,0.219877,-0.149678,-0.428157,0.465118,-0.501824,-2.1948,-0.291015,-0.003657,-0.644762,0.295541,-2.1948,0.230717,0.0
68,-1.398059,-1.478999,0.801077,-0.074781,0.109203,0.716397,0.685024,-0.829324,-0.056431,0.011607,0.878912,-0.03001,-0.173528,-0.914787,-0.235377,-0.127646,1.220317,-0.09896,0.234015,-0.150683,-0.432694,0.429609,-0.499359,-2.1948,-0.283132,-0.008863,-0.662614,0.293569,-2.1948,0.209015,0.0
69,-1.443629,-1.51557,0.808435,-0.07247,0.124354,0.712853,0.686385,-0.845542,-0.132252,-0.034045,0.816513,-0.002088,-0.261799,-0.900564,-0.230895,-0.096469,1.273019,-0.038376,0.261799,-0.152053,-0.44711,0.391398,-0.504874,-2.1948,-0.273668,-0.014488,-0.684759,0.285907,-2.1948,0.186784,0.0
70,-1.476498,-1.538895,0.812573,-0.061918,0.138984,0.70005,0.697696,-0.799168,-0.197974,-0.162044,0.750385,-0.043966,-0.2618,-0.841109,-0.218231,-0.05287,1.229297,0.022781,0.2618,-0.130499,-0.470027,0.343061,-0.500694,-2.1948,-0.258676,-0.001721,-0.726899,0.261698,-2.1948,0.17354,0.0
71,-1.490955,-1.566824,0.806775,-0.05148,0.155352,0.685799,0.709151,-0.789458,-0.16128,-0.149837,0.789367,-0.108676,-0.2618,-0.77543,-0.204197,-0.04744,1.09394,0.003858,0.195516,-0.120159,-0.49906,0.302387,-0.485301,-2.1948,-0.252989,0.006498,-0.760306,0.23642,-2.1948,0.178905,0.0
72,-1.489401,-1.593381,0.798178,-0.047493,0.157752,0.660844,0.732219,-0.758852,-0.01683,-0.056601,0.874931,-0.143422,-0.2618,-0.699412,-0.174347,-0.092933,0.968065,-0.214698,0.068424,-0.098436,-0.504564,0.291668,-0.46839,-2.1948,-0.250149,0.022769,-0.749377,0.216419,-2.1948,0.175607,0.0
73,-1.493739,-1.619959,0.785629,-0.04736,0.157217,0.645726,0.745706,-0.723658,0.056755,-0.074239,0.981588,-0.162178,-0.2618,-0.694085,-0.148134,-0.093305,0.926548,-0.379971,0.026946,-0.12831,-0.491312,0.30961,-0.457071,-2.1948,-0.249898,0.031849,-0.700035,0.211371,-2.1948,0.170342,0.0
74,-1.509763,-1.640939,0.770612,-0.045349,0.159552,0.623547,0.763987,-0.650602,0.043311,-0.144263,1.069303,-0.203073,-0.2618,-0.760763,-0.135992,-0.040016,0.967855,-0.472027,-0.002631,-0.167876,-0.44502,0.324036,-0.441482,-2.1948,-0.261461,0.055241,-0.6538,0.205678,-2.1948,0.195188,0.0
75,-1.529599,-1.659435,0.7584,-0.042036,0.164023,0.6031,0.779486,-0.540766,-0.017893,-0.209951,1.087026,-0.229639,-0.2618,-0.847394,-0.126863,0.031509,1.025143,-0.511103,-0.013501,-0.222775,-0.392475,0.323593,-0.425085,-2.1948,-0.295434,0.090999,-0.60084,0.19454,-2.1948,0.20136,0.0
76,-1.542642,-1.683916,0.749565,-0.041454,0.167187,0.592219,0.787151,-0.444594,-0.063286,-0.26546,1.047495,-0.227611,-0.2618,-0.930581,-0.103863,0.089291,1.071901,-0.511554,-0.011427,-0.292622,-0.356282,0.326103,-0.427415,-2.1948,-0.317929,0.138969,-0.539631,0.180659,-2.1948,0.17626,0.0
77,-1.547974,-1.71533,0.743832,-0.04351,0.169741,0.589835,0.788283,-0.377341,-0.062166,-0.282533,0.952026,-0.189195,-0.2618,-1.014473,-0.079816,0.103939,1.110263,-0.475165,-0.027232,-0.365589,-0.341283,0.331484,-0.442513,-2.1948,-0.31749,0.185324,-0.489558,0.169395,-2.1948,0.161447,0.0
78,-1.555004,-1.748474,0.741984,-0.047624,0.173774,0.589989,0.78705,-0.33235,-0.051719,-0.278389,0.806736,-0.233478,-0.143462,-1.0871,-0.06045,0.107686,1.114675,-0.421281,-0.039888,-0.427593,-0.347633,0.333313,-0.461277,-2.1948,-0.321045,0.217245,-0.462988,0.165159,-2.1948,0.163421,0.0
79,-1.571378,-1.777152,0.744466,-0.04994,0.180274,0.58821,0.786776,-0.317785,-0.041057,-0.209479,0.706521,-0.345278,-0.105908,-1.149601,-0.054105,0.12859,1.090374,-0.352473,-0.030387,-0.472982,-0.371007,0.327554,-0.475493,-2.1948,-0.324999,0.232706,-0.464114,0.160945,-2.1948,0.159031,0.0
80,-1.588475,-1.803732,0.747429,-0.054815,0.186849,0.579758,0.791179,-0.338705,-0.045125,-0.175031,0.658355,-0.414778,-0.094111,-1.200559,-0.032728,0.152793,1.048884,-0.279244,-0.013756,-0.480193,-0.404328,0.326222,-0.48361,-2.1948,-0.315993,0.240454,-0.476244,0.155838,-2.1948,0.167286,0.0
81,-1.605188,-1.827484,0.750153,-0.062146,0.192198,0.564447,0.800373,-0.380022,-0.049836,-0.156359,0.649566,-0.457935,-0.087246,-1.230099,0.001632,0.181274,0.994591,-0.243089,0.057523,-0.441891,-0.437615,0.329004,-0.485408,-2.1948,-0.309701,0.243726,-0.486681,0.154474,-2.1948,0.184056,0.0
82,-1.62015,-1.848494,0.753245,-0.069014,0.194765,0.554915,0.805837,-0.419012,-0.048699,-0.134804,0.643498,-0.486566,-0.075988,-1.236848,0.012413,0.183584,0.978716,-0.250914,0.156364,-0.389568,-0.462072,0.337165,-0.489569,-2.1948,-0.310221,0.244772,-0.489388,0.151977,-2.1948,0.196999,0.0
83,-1.632899,-1.867007,0.75578,-0.071589,0.195945,0.557399,0.803609,-0.44482,-0.053727,-0.1253,0.625056,-0.507189,-0.064019,-1.233449,-0.020601,0.150697,1.067217,-0.289704,0.122357,-0.353931,-0.469563,0.341873,-0.49166,-2.1948,-0.330263,0.230791,-0.502388,0.153267,-2.1948,0.193423,0.0
84,-1.642001,-1.883327,0.756789,-0.06713,0.193514,0.570092,0.795639,-0.453893,-0.068676,-0.141901,0.607187,-0.521122,-0.058937,-1.197915,-0.094646,0.104434,1.215091,-0.339834,0.063263,-0.34008,-0.456271,0.338141,-0.486354,-2.1948,-0.350638,0.211116,-0.534337,0.160598,-2.1948,0.197465,0.0
85,-1.651882,-1.901876,0.759491,-0.065052,0.194329,0.578175,0.789759,-0.482425,-0.087175,-0.167088,0.602944,-0.514475,-0.057533,-1.132688,-0.149711,0.07491,1.329048,-0.355361,0.025984,-0.314359,-0.448363,0.334969,-0.482136,-2.1948,-0.3583,0.175054,-0.563708,0.165589,-2.1948,0.208964,0.0
86,-1.660681,-1.920057,0.76309,-0.063749,0.194537,0.587273,0.783072,-0.510747,-0.103443,-0.19276,0.59808,-0.497318,-0.057451,-1.027491,-0.195344,0.039444,1.383892,-0.328907,0.03529,-0.291743,-0.440053,0.335572,-0.472056,-2.1948,-0.349979,0.144477,-0.578738,0.160255,-2.1948,0.201369,0.0
87,-1.668771,-1.938038,0.767677,-0.064402,0.194689,0.591426,0.779848,-0.537368,-0.111779,-0.207826,0.588886,-0.476554,-0.066787,-0.896881,-0.211159,0.008827,1.361416,-0.277974,0.060108,-0.255564,-0.438475,0.333924,-0.456628,-2.1948,-0.338518,0.114503,-0.583111,0.145323,-2.1948,0.181592,0.0
88,-1.675758,-1.956232,0.771515,-0.067867,0.196373,0.59045,0.779872,-0.573717,-0.111213,-0.210124,0.588568,-0.46145,-0.084631,-0.762893,-0.210001,-0.027335,1.260422,-0.207833,0.069131,-0.204597,-0.447169,0.325504,-0.435286,-2.1948,-0.335656,0.069252,-0.58866,0.124867,-2.1948,0.156171,0.0
89,-1.681758,-1.979052,0.770968,-0.074642,0.203336,0.587962,0.779348,-0.649865,-0.112588,-0.214548,0.626187,-0.454957,-0.116059,-0.649343,-0.198529,-0.071456,1.090686,-0.15301,0.088733,-0.150284,-0.479901,0.310765,-0.417207,-2.193122,-0.319971,-0.003329,-0.601859,0.105928,-2.1948,0.137145,0.0
90,-1.683317,-1.995926,0.773086,-0.088608,0.200719,0.582286,0.782817,-0.711484,-0.08034,-0.214847,0.660921,-0.451858,-0.139287,-0.51841,-0.143176,-0.108452,0.866789,-0.262635,0.119713,-0.087129,-0.517759,0.305874,-0.394181,-2.181876,-0.286989,-0.089443,-0.603855,0.088271,-2.1948,0.109093,0.0
91,-1.681493,-2.006744,0.769617,-0.104289,0.19153,0.584358,0.781643,-0.790792,-0.050335,-0.236943,0.750913,-0.455496,-0.136334,-0.423682,-0.083846,-0.153629,0.721369,-0.371415,0.124958,-0.052222,-0.548848,0.31417,-0.370705,-2.174583,-0.261176,-0.183017,-0.596482,0.080574,-2.1948,0.086458,0.0
92,-1.677745,-2.014899,0.762994,-0.114492,0.184165,0.590314,0.777499,-0.876015,-0.006562,-0.18646,0.858026,-0.449305,-0.121209,-0.369646,-0.044589,-0.226885,0.643968,-0.442887,0.096231,-0.043347,-0.575271,0.310502,-0.348356,-2.158516,-0.238351,-0.277378,-0.60188,0.075432,-2.1948,0.073554,0.0
93,-1.673837,-2.021148,0.756317,-0.122184,0.176367,0.583852,0.782996,-0.93784,0.104752,-0.024491,0.969164,-0.472942,-0.061229,-0.349647,-0.010886,-0.259664,0.618472,-0.491295,0.071223,-0.025567,-0.608661,0.294214,-0.321259,-2.131435,-0.226061,-0.372223,-0.613526,0.076445,-2.1948,0.079208,0.0
94,-1.669858,-2.02764,0.750666,-0.127894,0.168942,0.575431,0.789924,-0.966107,0.192804,0.075752,1.071217,-0.484627,-0.013872,-0.372733,0.013222,-0.244085,0.664015,-0.50673,0.061098,-0.019927,-0.653361,0.27411,-0.303614,-2.102619,-0.225917,-0.46037,-0.613708,0.083353,-2.1948,0.091068,0.0
95,-1.663921,-2.031973,0.744108,-0.128199,0.160744,0.572494,0.793711,-0.962616,0.226633,0.093379,1.153534,-0.448991,-0.003876,-0.427429,0.018996,-0.225064,0.786742,-0.485392,0.05663,-0.038887,-0.703334,0.250357,-0.298023,-2.07719,-0.224381,-0.522634,-0.603847,0.090613,-2.1948,0.094778,0.0
96,-1.6597,-2.032492,0.734015,-0.12195,0.155211,0.579703,0.790558,-0.920596,0.234877,0.108787,1.176356,-0.443364,-0.0792,-0.539405,-0.016534,-0.22099,1.011275,-0.379755,0.044722,-0.083734,-0.76448,0.221696,-0.308096,-2.056521,-0.220042,-0.559294,-0.596378,0.089473,-2.1948,0.114013,0.0
97,-1.657428,-2.030413,0.723032,-0.112475,0.154896,0.593059,0.782073,-0.852798,0.213999,0.12355,1.12161,-0.559404,-0.141763,-0.715061,-0.083834,-0.193307,1.280634,-0.138457,0.034399,-0.143649,-0.843868,0.195747,-0.331969,-2.040154,-0.201944,-0.576473,-0.604068,0.086221,-2.1948,0.125293,0.0
98,-1.652433,-2.025256,0.71428,-0.105102,0.154486,0.605587,0.773532,-0.790638,0.185385,0.108841,1.069084,-0.658276,-0.158156,-0.897768,-0.143935,-0.136334,1.532291,0.021376,0.053951,-0.201098,-0.924726,0.184106,-0.357615,-2.030933,-0.185987,-0.575305,-0.620799,0.086155,-2.1948,0.117915,0.0
99,-1.647117,-2.015032,0.705036,-0.098329,0.151994,0.609992,0.771453,-0.770286,0.184863,0.101648,1.095204,-0.6807,-0.168302,-1.044982,-0.225869,-0.091747,1.698864,-0.026396,0.067796,-0.225909,-1.005381,0.172261,-0.383663,-2.023088,-0.186418,-0.552769,-0.664108,0.089711,-2.1948,0.128303,0.0
100,-1.640335,-2.001875,0.697443,-0.096141,0.148642,0.621907,0.76282,-0.758562,0.187379,0.07944,1.115016,-0.6807,-0.184575,-1.17865,-0.322917,-0.060524,1.747013,-0.108749,-0.032536,-0.256249,-1.069184,0.162445,-0.419711,-2.00706,-0.173791,-0.478445,-0.70733,0.079855,-2.1948,0.126492,0.0
101,-1.620832,-1.992941,0.693948,-0.101896,0.143382,0.630278,0.75618,-0.757143,0.220445,0.038633,1.114245,-0.6807,-0.220799,-1.281907,-0.309947,-0.005134,1.681229,-0.183514,-0.078791,-0.275442,-1.098415,0.16674,-0.463288,-1.994868,-0.153242,-0.365413,-0.728746,0.073095,-2.1948,0.129131,0.0
102,-1.595332,-1.986423,0.690157,-0.113023,0.139399,0.63375,0.752432,-0.774913,0.271398,-0.009272,1.115566,-0.6807,-0.261799,-1.352544,-0.201325,0.101254,1.536832,-0.24896,-0.029433,-0.282363,-1.090189,0.187767,-0.505816,-2.014204,-0.163067,-0.253129,-0.763769,0.08411,-2.1948,0.138332,0.0
103,-1.575971,-1.977768,0.688395,-0.12261,0.140951,0.641376,0.744135,-0.792355,0.293725,-0.054416,1.103693,-0.6807,-0.2618,-1.385576,-0.093395,0.269097,1.334674,-0.266174,0.048261,-0.29432,-1.029844,0.217896,-0.540469,-2.068498,-0.184768,-0.146493,-0.841206,0.091434,-2.1948,0.133174,0.0
104,-1.559626,-1.96653,0.690311,-0.135666,0.146038,0.653983,0.729776,-0.811342,0.301642,-0.103248,1.068218,-0.6807,-0.2618,-1.379752,-0.046018,0.427589,1.105027,-0.236715,0.074771,-0.306842,-0.931424,0.266204,-0.574789,-2.137024,-0.191413,-0.074166,-0.955167,0.084457,-2.1948,0.117645,0.0
105,-1.541162,-1.962707,0.69292,-0.160866,0.164792,0.666399,0.709139,-0.900721,0.295373,-0.175161,1.036576,-0.644776,-0.2618,-1.400716,-0.028141,0.552591,0.908336,-0.096308,0.199239,-0.311217,-0.83658,0.334022,-0.602815,-2.193115,-0.184215,-0.084752,-1.099499,0.05101,-2.1948,0.115534,0.0
106,-1.511869,-1.938775,0.699463,-0.166258,0.149639,0.695762,0.682555,-0.878067,0.326722,-0.259412,0.97185,-0.605655,-0.2618,-1.295756,-0.085254,0.527158,0.870681,-0.157664,0.2618,-0.333875,-0.703617,0.40772,-0.603199,-2.1948,-0.172963,-0.114277,-1.279667,-0.011075,-2.1948,0.049289,0.0
107,-1.49828,-1.923605,0.697668,-0.166959,0.155854,0.717591,0.657949,-0.918942,0.301267,-0.323737,0.98641,-0.544938,-0.2618,-1.329376,-0.131912,0.477204,0.958694,-0.197427,0.2618,-0.337543,-0.62897,0.430963,-0.574051,-2.1948,-0.216888,-0.193556,-1.450857,-0.109364,-2.10271,-0.025719,0.0
108,-1.47753,-1.919474,0.683401,-0.174713,0.188529,0.721737,0.642673,-1.030902,0.251741,-0.374082,1.049498,-0.482134,-0.2618,-1.501974,-0.107694,0.505009,1.121823,-0.218001,0.2618,-0.212976,-0.693777,0.316111,-0.649456,-2.1948,-0.248396,-0.001833,-1.794738,-0.51078,-1.550281,-0.09165,0.0
109,-1.47477,-1.904138,0.68014,-0.155952,0.186624,0.722704,0.646954,-0.98745,0.265892,-0.323269,1.090402,-0.485496,-0.2618,-1.481442,-0.114853,0.536212,1.170575,-0.247473,0.2618,-0.140131,-0.669988,0.251486,-0.644479,-2.173331,-0.218212,0.274523,-2.231927,-0.534888,-0.707001,-0.084338,0.0
110,-1.471499,-1.89199,0.680143,-0.159555,0.188491,0.725137,0.642799,-0.992334,0.269187,-0.319858,1.114309,-0.492079,-0.2618,-1.472449,-0.115371,0.529539,1.189365,-0.278491,0.2618,-0.014464,-0.726901,0.159234,-0.72673,-2.116543,-0.235248,-0.044595,-2.048749,-0.485721,-0.605587,-0.050292,0.0
111,-1.459605,-1.898348,0.678007,-0.187577,0.186683,0.717951,0.643825,-1.09421,0.300466,-0.375513,1.166166,-0.477386,-0.2618,-1.509727,-0.054883,0.478,1.203523,-0.26424,0.2618,0.034409,-0.788278,0.132672,-0.781308,-2.059839,-0.345964,-0.589834,-1.62709,-0.356083,-1.152432,0.122685,0.0
112,-1.454067,-1.894708,0.676933,-0.183965,0.178591,0.725047,0.639193,-1.07922,0.323621,-0.365557,1.188912,-0.48368,-0.2618,-1.490935,-0.049202,0.481725,1.232863,-0.260343,0.2618,-0.030518,-0.750322,0.213062,-0.753185,-2.069892,-0.320139,-0.52582,-1.549321,-0.381168,-1.607073,0.17935,0.0
113,-1.444596,-1.893254,0.676609,-0.176345,0.163159,0.740896,0.62718,-1.045059,0.345205,-0.37203,1.191808,-0.470623,-0.2618,-1.453172,-0.067319,0.461586,1.262125,-0.267996,0.2618,-0.149035,-0.667446,0.332992,-0.676497,-2.103619,-0.281294,-0.627741,-1.352112,-0.158593,-1.974714,0.210048,0.0
114,-1.440185,-1.900626,0.672912,-0.172193,0.151463,0.75035,0.619987,-1.024982,0.356221,-0.370392,1.216664,-0.449568,-0.2618,-1.442573,-0.076729,0.446483,1.280787,-0.26995,0.2618,-0.215547,-0.652932,0.39762,-0.601838,-2.129531,-0.30946,-0.699347,-1.221237,0.024331,-2.163151,0.191271,0.0
115,-1.444149,-1.915281,0.669292,-0.173738,0.14256,0.756246,0.614478,-1.022947,0.35188,-0.357303,1.254791,-0.437624,-0.2618,-1.44661,-0.091172,0.43103,1.272045,-0.265149,0.2618,-0.210359,-0.706081,0.39147,-0.587602,-2.153577,-0.294842,-0.697809,-1.166165,0.093471,-2.1948,0.228384,0.0
116,-1.451184,-1.932268,0.668846,-0.170135,0.130454,0.76411,0.608417,-1.013561,0.35819,-0.315362,1.277975,-0.440988,-0.2618,-1.423208,-0.121619,0.414985,1.235006,-0.261459,0.2618,-0.209769,-0.772518,0.354942,-0.588273,-2.157058,-0.242936,-0.694077,-1.101627,0.141695,-2.1948,0.233058,0.0
117,-1.462507,-1.951011,0.676508,-0.161195,0.116832,0.777158,0.596986,-0.993939,0.3599,-0.255746,1.258544,-0.460956,-0.2618,-1.364368,-0.183295,0.387973,1.153361,-0.235681,0.2618,-0.240436,-0.831851,0.312962,-0.586854,-2.143339,-0.201346,-0.691224,-1.0269,0.170538,-2.1948,0.20146,0.0
118,-1.477394,-1.976053,0.690276,-0.156263,0.110522,0.788131,0.584993,-0.986889,0.319965,-0.229268,1.223624,-0.468074,-0.2618,-1.316392,-0.24983,0.354323,1.032633,-0.152618,0.2618,-0.276927,-0.882037,0.280932,-0.590279,-2.133949,-0.189394,-0.695096,-0.960348,0.170244,-2.1948,0.189436,0.0
119,-1.501337,-2.008318,0.711646,-0.154398,0.109421,0.792564,0.579681,-0.96086,0.264492,-0.181233,1.156361,-0.464698,-0.2618,-1.254515,-0.312929,0.31203,0.835826,0.026148,0.2618,-0.299634,-0.913826,0.264061,-0.591342,-2.12938,-0.17116,-0.696208,-0.896733,0.165931,-2.1948,0.174303,0.0
120,-1.542688,-2.043455,0.738713,-0.152839,0.105738,0.792045,0.581485,-0.889776,0.202931,-0.103929,1.051425,-0.478263,-0.222919,-1.128043,-0.363951,0.267973,0.536853,0.324852,0.2618,-0.313241,-0.907582,0.289006,-0.599093,-2.150391,-0.138772,-0.704934,-0.831868,0.182537,-2.1948,0.151751,0.0
121,-1.570516,-2.078197,0.754725,-0.158666,0.110811,0.784621,0.588996,-0.881943,0.157859,-0.030992,0.983168,-0.462864,-0.156253,-1.119735,-0.33358,0.286336,0.458408,0.376548,0.2618,-0.303357,-0.952572,0.317562,-0.629844,-2.162972,-0.127175,-0.751714,-0.796266,0.190394,-2.1948,0.159226,0.0
122,-1.583722,-2.108587,0.770879,-0.159339,0.121851,0.766012,0.610728,-0.876331,0.137457,0.04846,0.916491,-0.397221,-0.106045,-1.124054,-0.259819,0.280686,0.507506,0.250645,0.2618,-0.255231,-1.008287,0.339022,-0.629746,-2.183982,-0.125986,-0.819753,-0.786071,0.226882,-2.1948,0.148919,0.0
123,-1.59825,-2.129866,0.781389,-0.155525,0.134525,0.753569,0.624378,-0.876137,0.104855,0.107101,0.87791,-0.314472,-0.076064,-1.178721,-0.214297,0.214392,0.730817,0.097849,0.258025,-0.206602,-1.061823,0.317302,-0.617902,-2.181607,-0.100321,-0.862042,-0.79572,0.253835,-2.1948,0.128275,0.0
124,-1.612261,-2.15346,0.791384,-0.152703,0.147909,0.749938,0.626417,-0.916369,0.05739,0.121665,0.870289,-0.190906,-0.074909,-1.203813,-0.222097,0.074976,0.931132,0.006614,0.234484,-0.183871,-1.1029,0.269487,-0.585228,-2.156266,-0.058469,-0.895566,-0.806788,0.264376,-2.1948,0.129516,0.0
125,-1.627148,-2.182179,0.801619,-0.151417,0.158815,0.754082,0.61904,-0.97619,-0.004257,0.070569,0.8745,-0.063464,-0.190423,-1.181852,-0.231612,-0.047906,1.062382,-0.049771,0.251465,-0.193076,-1.136464,0.212684,-0.546596,-2.112683,-0.045413,-0.920657,-0.796031,0.259061,-2.1948,0.12993,0.0
126,-1.66686,-2.223532,0.808123,-0.149042,0.168219,0.760413,0.609312,-1.00087,-0.105714,-0.031457,0.852827,-0.024661,-0.2618,-1.180295,-0.215633,-0.048549,1.125788,-0.026541,0.2618,-0.213926,-1.15062,0.159675,-0.509829,-2.083409,-0.06969,-0.937234,-0.782375,0.238702,-2.1948,0.10945,0.0
127,-1.689153,-2.252679,0.809007,-0.143347,0.175872,0.75899,0.61029,-0.98959,-0.153162,-0.151115,0.857737,-0.046573,-0.2618,-1.150882,-0.157299,-0.047261,1.132431,-0.026055,0.2618,-0.203574,-1.155424,0.104109,-0.468438,-2.064771,-0.070371,-0.94378,-0.788868,0.219367,-2.1948,0.097183,0.0
128,-1.711474,-2.27594,0.80231,-0.136366,0.186913,0.756132,0.612153,-0.977363,-0.113116,-0.123145,0.922654,-0.101114,-0.2618,-1.129361,-0.100263,-0.025784,1.101353,-0.018703,0.2618,-0.192075,-1.163208,0.052565,-0.433219,-2.051781,-0.069324,-0.957193,-0.801571,0.208065,-2.1948,0.091812,0.0
129,-1.723213,-2.294096,0.787673,-0.130045,0.187535,0.739956,0.632759,-0.945503,0.015106,-0.07043,1.020988,-0.161746,-0.2618,-1.07497,-0.08084,-0.099945,1.031406,-0.150791,-0.020736,-0.145397,-1.139387,0.027178,-0.410112,-2.055999,-0.081688,-0.941708,-0.806246,0.192326,-2.1948,0.08272,0.0
130,-1.722851,-2.312771,0.767557,-0.128338,0.183524,0.725153,0.651154,-0.90007,0.143157,-0.08037,1.092546,-0.194117,-0.258593,-1.066393,-0.039753,-0.104509,1.024368,-0.308633,-0.092477,-0.125466,-1.091668,0.04654,-0.40295,-2.075343,-0.107583,-0.911386,-0.784094,0.18248,-2.1948,0.074688,0.0
131,-1.737127,-2.331858,0.744833,-0.123843,0.180698,0.710768,0.668446,-0.818663,0.218669,-0.090623,1.130756,-0.233221,-0.188525,-1.132507,-0.012372,-0.031656,1.10708,-0.385989,-0.080282,-0.130965,-1.013852,0.08414,-0.404334,-2.101174,-0.126815,-0.864894,-0.751303,0.180076,-2.1948,0.081525,0.0
132,-1.753359,-2.352273,0.723057,-0.123556,0.183081,0.693481,0.685784,-0.724071,0.223595,-0.145125,1.116886,-0.253315,-0.190913,-1.235847,0.007443,0.009479,1.202629,-0.399625,-0.093184,-0.150134,-0.931122,0.127119,-0.410659,-2.117462,-0.133963,-0.811952,-0.703535,0.172863,-2.1948,0.094842,0.0
133,-1.769897,-2.37471,0.70553,-0.12026,0.180481,0.689309,0.691244,-0.61523,0.185244,-0.233231,1.035001,-0.314213,-0.247471,-1.309304,0.007202,0.040072,1.266301,-0.414204,-0.088623,-0.207379,-0.799888,0.172168,-0.412774,-2.140632,-0.142935,-0.714329,-0.653865,0.162651,-2.1948,0.08163,0.0
134,-1.791293,-2.400436,0.696408,-0.11821,0.179875,0.69459,0.686451,-0.549326,0.155647,-0.267503,0.928114,-0.475103,-0.2618,-1.37843,-0.016093,0.07179,1.293675,-0.392615,-0.070391,-0.270582,-0.674825,0.205771,-0.42483,-2.154654,-0.169211,-0.600352,-0.623794,0.139088,-2.1948,0.070538,0.0
135,-1.806107,-2.429917,0.689288,-0.122421,0.181214,0.696992,0.682918,-0.570845,0.153371,-0.23746,0.905528,-0.624017,-0.2618,-1.454656,-0.018096,0.090922,1.302221,-0.335438,-0.065112,-0.307987,-0.574755,0.239094,-0.447511,-2.163465,-0.173796,-0.493469,-0.609356,0.115624,-2.1948,0.07408,0.0
136,-1.817634,-2.462,0.68841,-0.130236,0.185223,0.698568,0.678773,-0.635521,0.151012,-0.199607,0.902335,-0.6807,-0.2618,-1.517361,-0.015327,0.098781,1.27036,-0.257636,-0.060296,-0.331495,-0.47316,0.287343,-0.458619,-2.187607,-0.173112,-0.394032,-0.60089,0.101689,-2.1948,0.075566,0.0
137,-1.826934,-2.491432,0.691799,-0.139074,0.190135,0.692838,0.681529,-0.699526,0.132893,-0.214315,0.906643,-0.6807,-0.2618,-1.547529,-0.001625,0.096541,1.202153,-0.194723,-0.039407,-0.323899,-0.384787,0.331344,-0.455791,-2.194796,-0.157152,-0.308224,-0.595323,0.092347,-2.1948,0.07868,0.0
138,-1.836198,-2.517512,0.693628,-0.149123,0.191072,0.67945,0.692533,-0.780429,0.133436,-0.210911,0.963599,-0.6807,-0.2618,-1.554844,0.011341,0.067356,1.140037,-0.185937,0.024621,-0.277604,-0.301877,0.370705,-0.451926,-2.1948,-0.122862,-0.22731,-0.595982,0.084877,-2.1948,0.073808,0.0
139,-1.842658,-2.541021,0.696339,-0.159753,0.184142,0.671013,0.700224,-0.85645,0.149509,-0.22133,1.01837,-0.6807,-0.2618,-1.537798,0.005763,0.023191,1.132902,-0.211029,0.029948,-0.225982,-0.205997,0.420397,-0.439211,-2.1948,-0.075508,-0.145085,-0.58367,0.083173,-2.1948,0.076661,0.0
140,-1.845267,-2.561089,0.698402,-0.167494,0.173777,0.669046,0.70294,-0.920925,0.162879,-0.249319,1.065869,-0.6807,-0.2618,-1.512306,-0.000125,0.034579,1.200463,-0.233451,0.010982,-0.186926,-0.111396,0.462982,-0.418139,-2.1948,-0.059507,-0.084042,-0.566196,0.092851,-2.1948,0.091292,0.0
141,-1.846368,-2.577134,0.699325,-0.17015,0.159293,0.669402,0.705391,-0.971041,0.174252,-0.281774,1.12132,-0.668413,-0.2618,-1.463426,-0.002856,0.085974,1.298413,-0.253917,-0.018012,-0.148466,-0.033735,0.490702,-0.396751,-2.1948,-0.037391,-0.04298,-0.555957,0.100779,-2.1948,0.097618,0.0
142,-1.84498,-2.606656,0.6944,-0.180918,0.161667,0.673023,0.698693,-1.112732,0.135428,-0.351524,1.214155,-0.599584,-0.2618,-1.474262,0.021434,0.175142,1.388993,-0.209588,-0.035517,-0.121188,-0.034147,0.476979,-0.399793,-2.1948,-0.056002,-0.048666,-0.552205,0.083759,-2.1948,0.109636,0.0
143,-1.838329,-2.626783,0.69005,-0.178084,0.162076,0.688885,0.683707,-1.187105,0.077616,-0.409867,1.266231,-0.532517,-0.2618,-1.418377,0.030797,0.279833,1.407371,-0.217741,0.142135,-0.137019,-0.05915,0.445316,-0.399445,-2.1948,-0.051559,-0.054844,-0.563548,0.073716,-2.1948,0.093172,0.0
144,-1.834957,-2.649859,0.688267,-0.18049,0.167251,0.697633,0.672873,-1.268393,0.020303,-0.447723,1.305114,-0.459448,-0.261732,-1.389988,0.039514,0.338579,1.336608,-0.321201,0.254261,-0.14553,-0.128344,0.408539,-0.409928,-2.1948,-0.03026,-0.07903,-0.568423,0.065381,-2.1948,0.089255,0.0
145,-1.837832,-2.658279,0.688081,-0.168655,0.161935,0.698903,0.67592,-1.273524,0.005737,-0.443406,1.344208,-0.440455,-0.261542,-1.36155,0.000213,0.304148,1.307127,-0.373884,0.223115,-0.156206,-0.175349,0.373431,-0.397128,-2.1948,-0.014764,-0.094464,-0.586538,0.078042,-2.1948,0.083299,0.0
146,-1.845233,-2.674936,0.684381,-0.156612,0.161912,0.693485,0.684351,-1.277013,-0.018647,-0.441359,1.408789,-0.437039,-0.2618,-1.383381,-0.019957,0.29818,1.299406,-0.378354,0.195097,-0.16473,-0.233727,0.330649,-0.399595,-2.1948,-0.010627,-0.104297,-0.601453,0.090021,-2.1948,0.074245,0.0
147,-1.858737,-2.701304,0.669553,-0.149226,0.168165,0.679668,0.698214,-1.288763,-0.058703,-0.442555,1.554999,-0.463061,-0.2618,-1.457902,0.025257,0.381241,1.324008,-0.350736,0.229637,-0.167634,-0.309707,0.281425,-0.424707,-2.1948,-0.023234,-0.107234,-0.600137,0.09113,-2.1948,0.065135,0.0
148,-1.868181,-2.715566,0.656983,-0.126992,0.154534,0.659693,0.724429,-1.178156,0.00207,-0.386359,1.690026,-0.496864,-0.2618,-1.456743,0.077042,0.439209,1.35344,-0.331552,0.248754,-0.177113,-0.329273,0.249039,-0.435705,-2.1948,-0.078035,-0.065614,-0.586447,0.106633,-2.1948,0.062749,0.0
149,-1.87754,-2.737212,0.645377,-0.10753,0.139048,0.63726,0.750335,-1.029708,0.069585,-0.313749,1.777401,-0.479693,-0.2618,-1.45737,0.138513,0.48499,1.364153,-0.285682,0.2618,-0.208435,-0.348369,0.233646,-0.46525,-2.1948,-0.108946,-0.009969,-0.554648,0.124304,-2.1948,0.03891,0.0
150,-1.890731,-2.764839,0.644673,-0.085398,0.121443,0.622742,0.768213,-0.834509,0.052555,-0.25916,1.769901,-0.461993,-0.2618,-1.429143,0.15495,0.51346,1.3141,-0.214417,0.2618,-0.281337,-0.357534,0.230871,-0.50195,-2.1948,-0.109113,0.066292,-0.52884,0.145173,-2.1948,0.021493,0.0
