chrisxuxuhui/mimic_robot/GMR/RetargetData/lafan1/csv/pm01/fight1_subject3_cut3.csv
frame,root pos x,root pos y,root pos z,root rot x,root rot y,root rot z,root rot w,j00_hip_pitch_l_joint,j01_hip_roll_l_joint,j02_hip_yaw_l_joint,j03_knee_pitch_l_joint,j04_ankle_pitch_l_joint,j05_ankle_roll_l_joint,j06_hip_pitch_r_joint,j07_hip_roll_r_joint,j08_hip_yaw_r_joint,j09_knee_pitch_r_joint,j10_ankle_pitch_r_joint,j11_ankle_roll_r_joint,j12_waist_yaw_joint,j13_shoulder_pitch_l_joint,j14_shoulder_roll_l_joint,j15_shoulder_yaw_l_joint,j16_elbow_pitch_l_joint,j17_elbow_yaw_l_joint,j18_shoulder_pitch_r_joint,j19_shoulder_roll_r_joint,j20_shoulder_yaw_r_joint,j21_elbow_pitch_r_joint,j22_elbow_yaw_r_joint,j23_head_yaw_joint
0,-0.639203,-1.918,0.778723,-0.074067,0.114555,0.466978,0.873683,-0.91718,0.3256,0.352266,0.323869,-0.273399,-0.056517,-0.419146,-0.11763,-0.38472,0.681963,-0.468953,0.080759,0.132044,0.172096,0.543767,0.001479,-1.423816,-0.321461,0.065007,-0.458183,0.385544,-0.911202,0.604454,0.0
1,-0.644707,-1.944196,0.78388,-0.069725,0.128773,0.473487,0.868543,-0.928335,0.317046,0.469065,0.409124,-0.206836,-0.06531,-0.502683,-0.134007,-0.385036,0.718916,-0.442188,0.048503,0.0969,0.161173,0.521125,-0.050089,-1.502582,-0.374552,0.101977,-0.490598,0.354738,-0.835244,0.59097,0.0
2,-0.647953,-1.971028,0.790499,-0.065837,0.137905,0.479456,0.864158,-0.910941,0.297492,0.476235,0.498927,-0.199094,-0.046659,-0.553092,-0.132332,-0.391841,0.716149,-0.415027,0.01077,0.053179,0.161235,0.520586,-0.109594,-1.543937,-0.39885,0.122262,-0.494227,0.320962,-0.734558,0.591316,0.0
3,-0.64876,-1.995094,0.797209,-0.061833,0.136733,0.487099,0.860358,-0.864384,0.280524,0.450923,0.598247,-0.22514,-0.05569,-0.547277,-0.113795,-0.415849,0.665848,-0.388621,-0.021082,0.004182,0.188056,0.538138,-0.172508,-1.571927,-0.401118,0.134918,-0.473539,0.276411,-0.622613,0.57164,0.0
4,-0.647361,-2.01861,0.803464,-0.058106,0.131649,0.496187,0.856207,-0.795664,0.259243,0.412218,0.682322,-0.23222,-0.064362,-0.522613,-0.087138,-0.444695,0.60074,-0.35994,-0.048006,-0.049808,0.223788,0.562477,-0.224524,-1.588843,-0.389233,0.147703,-0.455043,0.240411,-0.5386,0.532439,0.0
5,-0.645333,-2.042293,0.807471,-0.054161,0.125122,0.504635,0.852499,-0.713826,0.234879,0.373909,0.755196,-0.240008,-0.077651,-0.498194,-0.059282,-0.469078,0.540307,-0.336618,-0.067331,-0.098821,0.261558,0.584464,-0.266731,-1.604332,-0.387758,0.174694,-0.452494,0.2236,-0.503749,0.487827,0.0
6,-0.64439,-2.066723,0.80819,-0.051038,0.120078,0.50962,0.850449,-0.633582,0.207901,0.337332,0.825015,-0.247223,-0.110317,-0.490721,-0.033423,-0.482966,0.499884,-0.323944,-0.092011,-0.13733,0.292301,0.597951,-0.30058,-1.618956,-0.414861,0.212704,-0.46875,0.21951,-0.52055,0.460254,0.0
7,-0.644672,-2.091978,0.806875,-0.048937,0.116487,0.51269,0.849226,-0.556366,0.175934,0.304194,0.882865,-0.246266,-0.153267,-0.503866,-0.012139,-0.487387,0.485343,-0.315666,-0.119268,-0.169994,0.310807,0.598845,-0.327548,-1.624674,-0.472796,0.255967,-0.495643,0.21093,-0.575497,0.462953,0.0
8,-0.645465,-2.117445,0.805055,-0.046821,0.113619,0.51634,0.847521,-0.4754,0.144082,0.286145,0.915973,-0.229249,-0.192126,-0.528213,0.003217,-0.491058,0.486613,-0.303189,-0.151701,-0.206206,0.319295,0.583426,-0.345029,-1.613106,-0.551703,0.295378,-0.522097,0.183539,-0.64722,0.485074,0.0
9,-0.647458,-2.141842,0.803691,-0.043032,0.110808,0.521632,0.844849,-0.388318,0.106368,0.271009,0.915459,-0.212355,-0.237965,-0.551809,0.010166,-0.496931,0.489308,-0.285813,-0.180498,-0.250534,0.318115,0.549992,-0.355619,-1.579905,-0.629096,0.324112,-0.536562,0.136451,-0.712012,0.50566,0.0
10,-0.653217,-2.165762,0.802428,-0.041177,0.108141,0.530198,0.83994,-0.315192,0.060417,0.232857,0.888585,-0.199165,-0.261799,-0.578225,0.013543,-0.504976,0.488125,-0.263291,-0.2067,-0.299601,0.306539,0.517181,-0.3665,-1.542402,-0.684861,0.330097,-0.52367,0.086172,-0.749229,0.506364,0.0
11,-0.66229,-2.188569,0.801618,-0.041108,0.105103,0.54269,0.832317,-0.254846,0.015277,0.18279,0.836687,-0.167258,-0.2618,-0.597898,0.014772,-0.520628,0.470162,-0.23482,-0.22668,-0.348251,0.291357,0.491063,-0.375621,-1.514108,-0.71148,0.332077,-0.492381,0.04139,-0.775706,0.491336,0.0
12,-0.66859,-2.21177,0.799885,-0.044316,0.103072,0.552207,0.826123,-0.210631,-0.018085,0.125268,0.766328,-0.105593,-0.2618,-0.615331,0.029643,-0.536339,0.438771,-0.203675,-0.25176,-0.375891,0.272619,0.478987,-0.384768,-1.504783,-0.6894,0.333922,-0.453106,0.012771,-0.797742,0.471935,0.0
13,-0.664682,-2.236991,0.795371,-0.051053,0.102746,0.560268,0.820327,-0.17502,-0.031935,0.05487,0.669272,-0.136736,-0.211095,-0.630926,0.065623,-0.557939,0.398646,-0.180434,-0.2618,-0.38466,0.250601,0.483752,-0.394673,-1.512964,-0.636373,0.341257,-0.417899,0.015975,-0.82175,0.455773,0.0
14,-0.672627,-2.261906,0.79132,-0.05758,0.106784,0.56548,0.81579,-0.145156,-0.039108,0.061706,0.560588,-0.249691,-0.082635,-0.666023,0.083437,-0.568162,0.362211,-0.141504,-0.2618,-0.377779,0.223434,0.492808,-0.400231,-1.533442,-0.578886,0.344295,-0.404804,0.057911,-0.855314,0.450333,0.0
15,-0.684216,-2.28932,0.784567,-0.065922,0.115495,0.568255,0.812035,-0.155529,-0.043367,0.083982,0.497778,-0.380003,-0.032467,-0.727564,0.095798,-0.567695,0.343413,-0.102433,-0.2618,-0.361253,0.184872,0.495625,-0.404525,-1.548075,-0.548448,0.333468,-0.402017,0.116988,-0.901104,0.496376,0.0
16,-0.694909,-2.313282,0.779656,-0.071753,0.124357,0.56515,0.812399,-0.179229,-0.051831,0.121495,0.456074,-0.470167,-0.000342,-0.777772,0.112903,-0.551321,0.31612,-0.058831,-0.2618,-0.33418,0.144858,0.489126,-0.395596,-1.547747,-0.538808,0.33137,-0.419594,0.174029,-0.98293,0.594944,0.0
17,-0.701223,-2.340698,0.777001,-0.076292,0.134164,0.561284,0.813105,-0.227617,-0.054673,0.146518,0.443655,-0.524044,0.015772,-0.824854,0.134478,-0.520829,0.287174,-0.018354,-0.2618,-0.306935,0.0993,0.467848,-0.380635,-1.516514,-0.554818,0.337773,-0.443225,0.208062,-1.080205,0.691086,0.0
18,-0.707536,-2.364344,0.778876,-0.078563,0.139812,0.558969,0.813532,-0.275905,-0.056096,0.135768,0.447682,-0.534501,0.012517,-0.854773,0.14274,-0.451584,0.272872,0.019784,-0.123667,-0.285539,0.055752,0.428725,-0.35428,-1.442734,-0.581496,0.363603,-0.471148,0.224905,-1.178005,0.740105,0.0
19,-0.713715,-2.383533,0.785025,-0.081132,0.142091,0.556496,0.81458,-0.313693,-0.054183,0.129777,0.44585,-0.508262,0.010374,-0.86704,0.140109,-0.38681,0.281264,0.036243,-0.043614,-0.260565,0.024972,0.392197,-0.314302,-1.343569,-0.582355,0.377954,-0.492458,0.240337,-1.237618,0.724939,0.0
20,-0.718548,-2.402279,0.793602,-0.083632,0.141796,0.55389,0.816153,-0.336194,-0.048105,0.130888,0.424102,-0.467105,0.010069,-0.859417,0.122454,-0.388928,0.311568,0.013013,-0.096006,-0.23666,0.011749,0.365922,-0.259332,-1.224325,-0.542904,0.390604,-0.514673,0.25622,-1.275776,0.692173,0.0
21,-0.718807,-2.4206,0.801582,-0.08618,0.139983,0.551435,0.817861,-0.348676,-0.034445,0.132765,0.3945,-0.425994,0.004359,-0.839641,0.096445,-0.413927,0.365751,-0.03551,-0.095999,-0.21718,0.01888,0.35309,-0.204909,-1.102294,-0.46222,0.399364,-0.532581,0.268518,-1.304077,0.67206,0.0
22,-0.716226,-2.436576,0.807026,-0.089149,0.136737,0.553819,0.81648,-0.357639,-0.016721,0.12458,0.369921,-0.396144,-0.004651,-0.821107,0.0612,-0.399473,0.452362,-0.095212,-0.093258,-0.214739,0.048453,0.366978,-0.18071,-0.997017,-0.359881,0.404525,-0.54209,0.276958,-1.335477,0.668976,0.0
23,-0.712332,-2.449955,0.808899,-0.090955,0.132533,0.558265,0.813943,-0.366175,0.001307,0.110107,0.360756,-0.387174,-0.02079,-0.809776,0.018112,-0.35609,0.571401,-0.156136,-0.096011,-0.224953,0.094634,0.409035,-0.206462,-0.921736,-0.26527,0.408937,-0.547413,0.280116,-1.372209,0.668549,0.0
24,-0.707847,-2.460929,0.808685,-0.090617,0.128237,0.562426,0.811801,-0.375047,0.015902,0.0964,0.364869,-0.385196,-0.031292,-0.791422,-0.033345,-0.316936,0.689902,-0.210704,-0.090249,-0.239301,0.149046,0.466033,-0.273257,-0.881115,-0.213713,0.4093,-0.548709,0.278554,-1.40251,0.659628,0.0
25,-0.704462,-2.471753,0.808655,-0.091235,0.125782,0.562631,0.811974,-0.390603,0.02923,0.088276,0.37342,-0.380928,-0.035669,-0.761243,-0.088151,-0.305977,0.770711,-0.244555,-0.09426,-0.240339,0.197611,0.518488,-0.345245,-0.861076,-0.218795,0.391959,-0.538249,0.273248,-1.404298,0.647781,0.0
26,-0.701315,-2.481797,0.808917,-0.091262,0.121589,0.560246,0.814255,-0.401633,0.044871,0.08447,0.384304,-0.378579,-0.04343,-0.712534,-0.147137,-0.320908,0.815685,-0.274528,-0.100979,-0.220093,0.246157,0.556647,-0.383042,-0.850168,-0.243247,0.371732,-0.519135,0.258133,-1.370251,0.638171,0.0
27,-0.699019,-2.4941,0.809589,-0.091757,0.120517,0.555033,0.817921,-0.423793,0.058503,0.086288,0.399363,-0.370635,-0.047735,-0.670137,-0.199372,-0.334007,0.825483,-0.290415,-0.125255,-0.181526,0.273856,0.570187,-0.371654,-0.837135,-0.258952,0.345249,-0.495645,0.23742,-1.311115,0.638298,0.0
28,-0.694032,-2.505404,0.810107,-0.089932,0.11628,0.548864,0.822885,-0.433552,0.078806,0.097009,0.415048,-0.365353,-0.058967,-0.60965,-0.235147,-0.355015,0.794756,-0.308681,-0.14373,-0.13175,0.31165,0.577801,-0.318221,-0.843409,-0.24548,0.326445,-0.480405,0.225598,-1.241352,0.642446,0.0
29,-0.688453,-2.519894,0.810002,-0.089399,0.117371,0.538639,0.829518,-0.458856,0.098295,0.109376,0.433741,-0.354497,-0.069327,-0.569308,-0.25736,-0.383732,0.740186,-0.314953,-0.116088,-0.072711,0.323026,0.570689,-0.26501,-0.854373,-0.202153,0.308355,-0.480481,0.224782,-1.203672,0.658902,0.0
30,-0.68005,-2.531077,0.809896,-0.087248,0.115012,0.523801,0.839519,-0.460053,0.127257,0.138563,0.443332,-0.348277,-0.088325,-0.510995,-0.264243,-0.428932,0.656901,-0.306102,-0.0727,-0.008531,0.345967,0.567045,-0.214306,-0.87909,-0.136727,0.308018,-0.492731,0.233265,-1.196003,0.670632,0.0
31,-0.671186,-2.54417,0.808746,-0.085176,0.116117,0.508767,0.848775,-0.471402,0.153722,0.163632,0.457337,-0.341588,-0.104734,-0.474052,-0.269491,-0.481236,0.583754,-0.293565,-0.048326,0.043174,0.346286,0.557467,-0.184538,-0.895928,-0.098322,0.302282,-0.501604,0.243973,-1.202815,0.674049,0.0
32,-0.657219,-2.556698,0.808829,-0.08485,0.112802,0.493591,0.858163,-0.463278,0.195325,0.192999,0.456201,-0.3304,-0.130128,-0.420442,-0.247001,-0.523178,0.503809,-0.279285,0.063037,0.083486,0.35525,0.563737,-0.160235,-0.92229,-0.080137,0.304983,-0.505414,0.253127,-1.226985,0.667099,0.0
33,-0.64206,-2.567966,0.807985,-0.083914,0.109714,0.483404,0.864432,-0.454119,0.232424,0.211727,0.455009,-0.321807,-0.156674,-0.379067,-0.202316,-0.520817,0.439707,-0.292337,0.13538,0.10209,0.358455,0.567528,-0.141852,-0.948134,-0.098642,0.297352,-0.497783,0.259489,-1.245704,0.666034,0.0
34,-0.626166,-2.579008,0.807779,-0.086421,0.106248,0.476107,0.868657,-0.453153,0.274102,0.218954,0.457474,-0.312226,-0.179393,-0.364233,-0.159965,-0.521432,0.419155,-0.298044,0.139502,0.107288,0.34686,0.570297,-0.125378,-0.959842,-0.125078,0.272713,-0.470395,0.265617,-1.249818,0.668116,0.0
35,-0.606884,-2.589827,0.806081,-0.091061,0.100368,0.470563,0.871897,-0.456996,0.327459,0.218323,0.471901,-0.307212,-0.207035,-0.354965,-0.112532,-0.522491,0.420993,-0.307989,0.11734,0.106586,0.330407,0.572341,-0.101842,-0.953197,-0.142375,0.245045,-0.435201,0.269198,-1.238043,0.664427,0.0
36,-0.584865,-2.600293,0.801643,-0.094918,0.092283,0.46374,0.876025,-0.467615,0.38923,0.212775,0.511231,-0.308127,-0.229737,-0.342658,-0.064542,-0.517596,0.436069,-0.335069,0.096317,0.105509,0.311592,0.555971,-0.071282,-0.936655,-0.164163,0.221615,-0.39555,0.268395,-1.210934,0.657492,0.0
37,-0.564132,-2.609795,0.796188,-0.096404,0.087531,0.460122,0.878255,-0.508736,0.438821,0.191695,0.583434,-0.307364,-0.200306,-0.335742,-0.029819,-0.515729,0.458168,-0.371179,0.080894,0.092588,0.293042,0.52727,-0.053555,-0.946667,-0.199728,0.208653,-0.363168,0.263512,-1.194188,0.660259,0.0
38,-0.542059,-2.616836,0.79217,-0.095477,0.082916,0.459448,0.879157,-0.557498,0.479688,0.193247,0.672091,-0.301847,-0.084434,-0.313055,0.005373,-0.516768,0.460659,-0.404588,0.061403,0.070474,0.301033,0.520219,-0.05939,-1.009792,-0.242777,0.209284,-0.347927,0.259317,-1.196422,0.654016,0.0
39,-0.523889,-2.620918,0.790977,-0.091419,0.082685,0.453015,0.88294,-0.600657,0.499286,0.209911,0.760143,-0.298625,0.032627,-0.296837,0.02699,-0.506312,0.455409,-0.421174,0.049025,0.060581,0.313198,0.515977,-0.081094,-1.101213,-0.3178,0.205602,-0.355005,0.256395,-1.191458,0.639658,0.0
40,-0.51096,-2.622688,0.791533,-0.085723,0.084866,0.443009,0.888365,-0.64307,0.485218,0.201943,0.845002,-0.325891,0.055464,-0.287461,0.035783,-0.488305,0.449476,-0.425718,0.038871,0.065588,0.315147,0.490822,-0.106962,-1.18014,-0.454186,0.198927,-0.362416,0.248108,-1.159657,0.6282,0.0
41,-0.500053,-2.622658,0.793758,-0.078559,0.088045,0.431598,0.894315,-0.68245,0.440233,0.179004,0.912312,-0.327539,0.059404,-0.277293,0.037684,-0.467033,0.43863,-0.424484,0.034196,0.079091,0.302756,0.446091,-0.116075,-1.222381,-0.559711,0.191971,-0.355893,0.23684,-1.117143,0.634223,0.0
42,-0.491493,-2.621029,0.7964,-0.072005,0.092606,0.420193,0.899821,-0.721511,0.37913,0.159328,0.954843,-0.309727,0.044435,-0.270593,0.034841,-0.446196,0.427305,-0.417395,0.030814,0.100753,0.285396,0.396912,-0.106969,-1.245733,-0.582391,0.185145,-0.342453,0.222241,-1.091557,0.651695,0.0
43,-0.483629,-2.618248,0.798526,-0.067547,0.097652,0.412075,0.90338,-0.764147,0.314596,0.142861,0.97166,-0.27924,0.005369,-0.263406,0.032449,-0.43224,0.413631,-0.410903,0.033038,0.122724,0.27196,0.362026,-0.107071,-1.257122,-0.580231,0.183642,-0.331566,0.208412,-1.09364,0.657473,0.0
44,-0.474975,-2.61556,0.799355,-0.065117,0.103108,0.406927,0.905284,-0.807704,0.250809,0.127875,0.962303,-0.258691,-0.021741,-0.256794,0.033364,-0.425486,0.400776,-0.408464,0.032741,0.142368,0.259013,0.343757,-0.120074,-1.256634,-0.548142,0.188708,-0.332232,0.206493,-1.119007,0.63633,0.0
45,-0.464547,-2.611615,0.799087,-0.062398,0.108226,0.405748,0.905407,-0.840623,0.188075,0.125743,0.92514,-0.246327,-0.024162,-0.24261,0.034638,-0.427475,0.384226,-0.413013,0.030165,0.152916,0.251122,0.343724,-0.148564,-1.251954,-0.496295,0.208879,-0.355721,0.221022,-1.16953,0.591643,0.0
46,-0.454267,-2.606917,0.797942,-0.061288,0.114599,0.405373,0.904867,-0.871357,0.131414,0.137137,0.867873,-0.232784,-0.021225,-0.234796,0.035197,-0.430154,0.375598,-0.420929,0.030833,0.160126,0.243431,0.35192,-0.191418,-1.257893,-0.467239,0.222276,-0.387951,0.251285,-1.219087,0.572163,0.0
47,-0.443274,-2.601078,0.79586,-0.06169,0.1206,0.405758,0.903886,-0.897052,0.080571,0.155603,0.794487,-0.202602,-0.018301,-0.226893,0.037649,-0.432967,0.370475,-0.431688,0.034516,0.164684,0.236282,0.364888,-0.230745,-1.277097,-0.425121,0.230754,-0.424089,0.290354,-1.260323,0.578307,0.0
48,-0.431937,-2.594328,0.793456,-0.063317,0.126119,0.405428,0.903168,-0.915515,0.033529,0.177634,0.708971,-0.167683,-0.012487,-0.217349,0.043037,-0.435502,0.364078,-0.441002,0.03577,0.171413,0.228323,0.376366,-0.268366,-1.296534,-0.374181,0.236973,-0.461163,0.329791,-1.28895,0.603383,0.0
49,-0.420268,-2.586505,0.791066,-0.066201,0.130882,0.406018,0.902018,-0.924494,-0.007803,0.207665,0.614588,-0.138872,-0.019468,-0.204009,0.051133,-0.441265,0.353816,-0.445449,0.040417,0.176036,0.219264,0.386157,-0.302589,-1.313123,-0.344391,0.241232,-0.493735,0.368357,-1.304817,0.642231,0.0
50,-0.408841,-2.577654,0.788801,-0.070247,0.13518,0.407051,0.900612,-0.925408,-0.044302,0.237912,0.518025,-0.121743,-0.036536,-0.189379,0.06083,-0.446818,0.341843,-0.444864,0.047732,0.178727,0.208693,0.393142,-0.331222,-1.328839,-0.339937,0.239914,-0.519016,0.405536,-1.309836,0.685672,0.0
51,-0.397896,-2.567901,0.786826,-0.074545,0.138833,0.406835,0.899807,-0.91798,-0.072289,0.262996,0.431371,-0.109862,-0.023715,-0.174619,0.069197,-0.451882,0.331685,-0.4409,0.055688,0.181514,0.197067,0.397656,-0.353631,-1.338484,-0.366516,0.235221,-0.537943,0.440336,-1.310156,0.725969,0.0
52,-0.386317,-2.556421,0.785086,-0.078245,0.140516,0.404744,0.900175,-0.899392,-0.089142,0.28656,0.377146,-0.103592,0.01346,-0.157553,0.075088,-0.453347,0.328332,-0.43017,0.065758,0.18586,0.184454,0.395306,-0.369314,-1.337712,-0.387969,0.2321,-0.550539,0.466939,-1.307809,0.75783,0.0
53,-0.37289,-2.541748,0.783118,-0.079917,0.139248,0.399108,0.902738,-0.880949,-0.097455,0.26059,0.380585,-0.07051,0.105889,-0.134946,0.074489,-0.445147,0.33701,-0.414498,0.079936,0.194316,0.17185,0.386725,-0.381422,-1.327552,-0.384306,0.236463,-0.56098,0.483418,-1.306809,0.772629,0.0
54,-0.360695,-2.525826,0.784622,-0.078334,0.138027,0.393417,0.905558,-0.86077,-0.101525,0.255708,0.389614,-0.04455,0.22929,-0.116522,0.061687,-0.432327,0.352196,-0.37864,0.093244,0.199527,0.155872,0.367232,-0.389464,-1.317098,-0.375083,0.249012,-0.572767,0.484729,-1.305472,0.760904,0.0
55,-0.350215,-2.502872,0.788721,-0.068977,0.135097,0.381738,0.911739,-0.808029,-0.105341,0.280071,0.389422,-0.066643,0.256969,-0.107676,0.017232,-0.396477,0.402056,-0.318464,0.114411,0.213637,0.138328,0.325082,-0.398959,-1.291731,-0.361214,0.290024,-0.60143,0.457315,-1.304893,0.728121,0.0
56,-0.337507,-2.48029,0.791134,-0.064053,0.131866,0.383899,0.911664,-0.767584,-0.109911,0.289255,0.411646,-0.115638,0.235182,-0.128279,-0.024707,-0.381278,0.500155,-0.2246,0.120496,0.198284,0.111231,0.29889,-0.413999,-1.251624,-0.348361,0.324965,-0.612253,0.414367,-1.289766,0.695657,0.0
57,-0.323171,-2.459103,0.793102,-0.063072,0.128593,0.387913,0.910499,-0.73227,-0.110624,0.292759,0.432025,-0.160002,0.239739,-0.188647,-0.066477,-0.363083,0.647793,-0.091619,0.09635,0.180541,0.083277,0.290211,-0.431517,-1.218102,-0.385101,0.349078,-0.616746,0.375332,-1.266036,0.670308,0.0
58,-0.307898,-2.436342,0.795147,-0.060179,0.125609,0.390397,0.91005,-0.685946,-0.114776,0.299168,0.439831,-0.202589,0.239138,-0.278358,-0.119328,-0.321962,0.837496,0.031406,0.081209,0.162655,0.064431,0.277364,-0.44705,-1.195086,-0.518423,0.381478,-0.646348,0.344169,-1.263585,0.658359,0.0
59,-0.291065,-2.409137,0.798187,-0.055369,0.121047,0.398392,0.907505,-0.615027,-0.131357,0.296289,0.423997,-0.242795,0.223982,-0.36975,-0.176078,-0.284359,1.017765,0.142592,0.050544,0.129188,0.054651,0.257981,-0.442804,-1.173615,-0.56392,0.415963,-0.686801,0.322242,-1.280073,0.663631,0.0
60,-0.275535,-2.385242,0.797482,-0.046839,0.117327,0.410279,0.903167,-0.550036,-0.157647,0.287047,0.412017,-0.275859,0.220042,-0.448716,-0.216429,-0.236972,1.155809,0.110956,0.015543,0.082545,0.045034,0.23931,-0.420572,-1.158335,-0.517936,0.449838,-0.728175,0.28803,-1.297512,0.657419,0.0
61,-0.258953,-2.366591,0.797256,-0.042769,0.113336,0.42827,0.895495,-0.498379,-0.172232,0.260706,0.406397,-0.29965,0.210127,-0.523613,-0.227521,-0.199055,1.249351,0.00055,-0.009112,0.021524,0.033661,0.239089,-0.401438,-1.152175,-0.48547,0.451803,-0.733309,0.247022,-1.286147,0.631811,0.0
62,-0.242092,-2.348851,0.797814,-0.041853,0.109684,0.448223,0.886179,-0.452008,-0.178283,0.229097,0.401245,-0.321548,0.194043,-0.5971,-0.233289,-0.181235,1.290044,-0.057895,-0.041802,-0.042545,0.02327,0.251724,-0.384797,-1.158606,-0.504514,0.428088,-0.707959,0.199098,-1.247937,0.601073,0.0
63,-0.224306,-2.331944,0.798486,-0.041142,0.105677,0.468048,0.876396,-0.404487,-0.17941,0.197187,0.392619,-0.338726,0.179834,-0.660631,-0.229767,-0.174289,1.281774,-0.115075,-0.078817,-0.107735,0.021725,0.269633,-0.358019,-1.18631,-0.547485,0.395737,-0.670211,0.147499,-1.197878,0.578157,0.0
64,-0.205177,-2.316208,0.799539,-0.041381,0.101089,0.485918,0.867152,-0.357323,-0.17252,0.164058,0.381951,-0.354088,0.160172,-0.715537,-0.201504,-0.159453,1.229732,-0.173872,-0.106108,-0.166538,0.029311,0.28947,-0.32388,-1.229864,-0.581564,0.359803,-0.623255,0.100049,-1.148587,0.570054,0.0
65,-0.185683,-2.300673,0.800378,-0.043158,0.097482,0.502531,0.857961,-0.319034,-0.158602,0.133023,0.378072,-0.369393,0.13577,-0.763141,-0.162655,-0.14494,1.142251,-0.209703,-0.093189,-0.218235,0.039419,0.311872,-0.292238,-1.278472,-0.574669,0.326099,-0.569949,0.05372,-1.117118,0.573531,0.0
66,-0.167796,-2.284502,0.80016,-0.045499,0.095809,0.516333,0.849795,-0.286574,-0.145111,0.111085,0.377136,-0.383923,0.123912,-0.80405,-0.124936,-0.139245,1.025096,-0.223015,-0.083133,-0.257275,0.047843,0.335155,-0.267702,-1.323562,-0.521372,0.30081,-0.515389,0.012248,-1.107935,0.569191,0.0
67,-0.150616,-2.267151,0.799899,-0.047949,0.09356,0.524445,0.844929,-0.247618,-0.128354,0.102169,0.367866,-0.401071,0.106478,-0.822163,-0.089266,-0.156828,0.873684,-0.222414,-0.074148,-0.279369,0.063649,0.362189,-0.241616,-1.366418,-0.405673,0.289904,-0.461736,-0.01658,-1.119274,0.527413,0.0
68,-0.136385,-2.250001,0.798497,-0.04837,0.095034,0.52741,0.842893,-0.216534,-0.120625,0.104079,0.360766,-0.413589,0.092592,-0.834458,-0.057092,-0.187023,0.698955,-0.196973,-0.063644,-0.2886,0.068599,0.379604,-0.222705,-1.397075,-0.301071,0.280797,-0.416543,-0.030826,-1.145783,0.46619,0.0
69,-0.124248,-2.233175,0.796159,-0.046361,0.09945,0.525896,0.843442,-0.187009,-0.122731,0.115702,0.350484,-0.420883,0.081465,-0.833628,-0.027418,-0.243061,0.502568,-0.160019,-0.03256,-0.289381,0.066279,0.390868,-0.20997,-1.426312,-0.264699,0.268969,-0.375649,-0.035974,-1.185818,0.42449,0.0
70,-0.112922,-2.215974,0.791551,-0.040588,0.106606,0.520119,0.846442,-0.158442,-0.135685,0.136196,0.342973,-0.428647,0.072031,-0.825867,-0.005453,-0.346588,0.316093,-0.134599,0.026737,-0.286134,0.057707,0.391899,-0.20032,-1.443676,-0.241967,0.249536,-0.333174,-0.046972,-1.229102,0.424107,0.0
71,-0.100455,-2.19581,0.782845,-0.031358,0.113755,0.514883,0.849101,-0.136139,-0.154123,0.153271,0.365237,-0.449311,0.061578,-0.826441,-0.001088,-0.45683,0.233256,-0.166899,0.085484,-0.287125,0.047283,0.385686,-0.197979,-1.444182,-0.184479,0.224058,-0.284978,-0.076983,-1.263438,0.453102,0.0
72,-0.086425,-2.17351,0.775442,-0.023567,0.11478,0.514466,0.849467,-0.109821,-0.161478,0.157984,0.400969,-0.46048,0.048718,-0.843735,-0.024386,-0.486995,0.306203,-0.131779,0.010879,-0.298729,0.054154,0.38732,-0.197021,-1.443847,-0.119049,0.206921,-0.225036,-0.118623,-1.288021,0.484042,0.0
73,-0.069627,-2.15058,0.771159,-0.016515,0.111903,0.523698,0.844361,-0.089337,-0.156861,0.146766,0.454806,-0.439948,0.035332,-0.856188,-0.058666,-0.479742,0.397636,-0.0931,-0.134303,-0.329421,0.072848,0.392345,-0.201359,-1.451814,-0.09317,0.191052,-0.167188,-0.164843,-1.289799,0.478925,0.0
74,-0.049116,-2.126078,0.77369,-0.014399,0.097361,0.545206,0.832505,-0.086078,-0.12034,0.102478,0.553689,-0.365507,0.01042,-0.8117,-0.086208,-0.513557,0.444608,-0.054456,-0.2618,-0.384118,0.120576,0.416103,-0.200339,-1.463415,-0.095814,0.187531,-0.11134,-0.19637,-1.258216,0.414424,0.0
75,-0.02592,-2.100858,0.7751,-0.012265,0.082526,0.554983,0.827667,-0.129679,-0.07815,0.055842,0.717521,-0.219099,-0.057387,-0.76699,-0.10579,-0.530496,0.529334,-0.120926,-0.2618,-0.408934,0.167683,0.438972,-0.196707,-1.464188,-0.073268,0.18161,-0.074932,-0.212697,-1.19205,0.271083,0.0
76,-0.005495,-2.074728,0.775715,-0.008117,0.076067,0.550709,0.831184,-0.211817,-0.056919,0.007834,0.912045,-0.055197,-0.189622,-0.737458,-0.116506,-0.52507,0.604191,-0.188883,-0.2618,-0.406072,0.20267,0.448354,-0.193857,-1.47448,-0.007935,0.154239,-0.072365,-0.204438,-1.112143,0.060959,0.0
77,0.011873,-2.047552,0.779269,-0.001461,0.077625,0.538701,0.838912,-0.315522,-0.054405,-0.014462,1.09087,0.111375,-0.235844,-0.71052,-0.124358,-0.503335,0.647752,-0.243804,-0.261693,-0.3833,0.211072,0.455734,-0.209227,-1.509759,0.040832,0.106248,-0.10035,-0.164475,-1.078816,-0.02583,0.0
78,0.024659,-2.021412,0.783718,0.004789,0.080347,0.523731,0.848073,-0.406932,-0.015402,0.029665,1.21179,0.217702,-0.2618,-0.684826,-0.130502,-0.473566,0.673403,-0.279232,-0.249392,-0.343861,0.199148,0.480434,-0.237664,-1.557589,0.037584,0.060793,-0.135642,-0.076166,-1.110502,0.008761,0.0
79,0.038537,-1.998583,0.788985,0.01075,0.083629,0.506941,0.857847,-0.483507,0.055052,0.098354,1.295848,0.192101,-0.2618,-0.65163,-0.126807,-0.445601,0.67397,-0.304536,-0.228638,-0.300303,0.173733,0.500535,-0.26019,-1.598913,0.028387,0.01877,-0.165872,0.042848,-1.178069,0.035303,0.0
80,0.055277,-1.978838,0.792221,0.012859,0.084664,0.48554,0.87001,-0.553673,0.097044,0.102378,1.342985,0.114127,-0.245018,-0.613421,-0.105097,-0.419844,0.665154,-0.327656,-0.212746,-0.248171,0.144627,0.509505,-0.27243,-1.625956,0.027773,-0.023571,-0.196224,0.170117,-1.255281,0.035154,0.0
81,0.067187,-1.958313,0.795088,0.013208,0.085758,0.462478,0.882375,-0.620076,0.136091,0.100786,1.351119,0.072858,-0.180738,-0.581228,-0.087785,-0.390556,0.655618,-0.343098,-0.197944,-0.193709,0.112509,0.507679,-0.272311,-1.645951,0.024352,-0.073037,-0.238216,0.287908,-1.340419,0.062339,0.0
82,0.077046,-1.938007,0.797024,0.012298,0.086901,0.439167,0.894108,-0.675151,0.182895,0.105001,1.325927,0.029336,-0.156222,-0.553567,-0.072447,-0.357549,0.647204,-0.356851,-0.179115,-0.143467,0.078754,0.502962,-0.268441,-1.659832,0.010186,-0.125675,-0.285555,0.388857,-1.432488,0.154021,0.0
83,0.086524,-1.917448,0.797732,0.01062,0.086324,0.416642,0.9049,-0.717653,0.223046,0.101999,1.274337,-0.024368,-0.121866,-0.525642,-0.058422,-0.323195,0.643144,-0.3726,-0.16048,-0.099012,0.046938,0.498244,-0.268657,-1.667103,0.008035,-0.175272,-0.324499,0.469165,-1.515756,0.292047,0.0
84,0.095557,-1.896212,0.797689,0.008503,0.084069,0.39524,0.914683,-0.747187,0.253046,0.09242,1.199443,-0.068368,-0.09057,-0.497656,-0.04873,-0.291975,0.645342,-0.387269,-0.141481,-0.059378,0.020074,0.497724,-0.272813,-1.668296,0.023567,-0.222346,-0.350042,0.531106,-1.57358,0.448431,0.0
85,0.102443,-1.874944,0.796787,0.00784,0.082442,0.376433,0.922735,-0.76629,0.255968,0.067614,1.101406,-0.097832,-0.096553,-0.478177,-0.050376,-0.261085,0.657713,-0.402954,-0.119433,-0.028379,-0.0063,0.492861,-0.280054,-1.66563,0.02799,-0.263981,-0.35843,0.57061,-1.589641,0.533392,0.0
86,0.109867,-1.853747,0.795453,0.00693,0.08071,0.358787,0.929898,-0.769483,0.229179,0.011133,0.979279,-0.119978,-0.122341,-0.456876,-0.052277,-0.230618,0.667536,-0.421576,-0.098751,-0.001032,-0.029984,0.479179,-0.280993,-1.657026,0.031315,-0.293149,-0.340024,0.589293,-1.56149,0.516675,0.0
87,0.120707,-1.834259,0.795293,0.004562,0.075252,0.344345,0.935811,-0.746589,0.189815,-0.080533,0.83278,-0.137424,-0.170584,-0.411959,-0.04589,-0.21438,0.653627,-0.435739,-0.082454,0.018777,-0.043716,0.460815,-0.271314,-1.643261,0.044697,-0.335871,-0.293649,0.593359,-1.492559,0.411173,0.0
88,0.130876,-1.817933,0.795922,0.002712,0.072201,0.330008,0.941209,-0.71084,0.149072,-0.176793,0.677991,-0.145408,-0.221079,-0.373301,-0.041376,-0.199874,0.634356,-0.443856,-0.069904,0.036826,-0.06357,0.442495,-0.247946,-1.643083,0.028797,-0.388366,-0.245417,0.584587,-1.438649,0.346793,0.0
89,0.140104,-1.803457,0.7981,0.002399,0.068763,0.313799,0.946993,-0.657828,0.12549,-0.222092,0.533538,-0.128271,-0.256143,-0.330977,-0.037822,-0.18073,0.603677,-0.445244,-0.056147,0.064706,-0.098607,0.41657,-0.224515,-1.652618,0.007731,-0.443461,-0.210929,0.574465,-1.405486,0.304579,0.0
90,0.142226,-1.782127,0.79966,0.001972,0.065618,0.303642,0.950522,-0.618412,0.093365,-0.192671,0.441845,-0.06994,-0.2618,-0.298096,-0.05316,-0.164548,0.58444,-0.443253,-0.03119,0.082234,-0.157138,0.376001,-0.191227,-1.661956,0.024562,-0.505894,-0.179718,0.560899,-1.387184,0.206323,0.0
91,0.151533,-1.779165,0.801022,-0.002205,0.064296,0.304348,0.950386,-0.610542,0.089076,-0.135449,0.422374,-0.012774,-0.158451,-0.267251,-0.040215,-0.180313,0.556206,-0.439733,-0.029171,0.07776,-0.247561,0.341625,-0.150674,-1.678015,0.03207,-0.59122,-0.150348,0.537035,-1.383064,0.107944,0.0
92,0.153137,-1.766422,0.801548,-0.010304,0.064403,0.305452,0.949971,-0.612706,0.093998,-0.116471,0.439058,-0.043684,-0.128935,-0.251702,-0.038662,-0.190509,0.54062,-0.430001,-0.008279,0.068376,-0.361865,0.331335,-0.118075,-1.696562,0.035376,-0.711222,-0.124335,0.50364,-1.372623,0.066741,0.0
93,0.156448,-1.751249,0.804561,-0.015569,0.063893,0.28918,0.955013,-0.599328,0.107379,-0.096347,0.45824,-0.071388,-0.121518,-0.232573,-0.036211,-0.169038,0.514652,-0.408383,0.006052,0.089372,-0.489758,0.340282,-0.086964,-1.693056,0.04529,-0.843215,-0.102579,0.48426,-1.344972,0.053154,0.0
94,0.15863,-1.737608,0.807643,-0.02705,0.064211,0.276227,0.958563,-0.611889,0.130749,-0.082503,0.495457,-0.094652,-0.118251,-0.21668,-0.022119,-0.156079,0.480989,-0.373885,0.024093,0.09295,-0.624052,0.398113,-0.060669,-1.677497,0.040176,-1.010871,-0.059019,0.471702,-1.281725,0.088417,0.0
95,0.161073,-1.728654,0.811412,-0.042982,0.065905,0.265558,0.960879,-0.63201,0.162549,-0.081135,0.52077,-0.109574,-0.115944,-0.203419,0.008129,-0.140123,0.435521,-0.323499,0.038235,0.046513,-0.71034,0.524598,-0.001326,-1.674352,-0.000189,-1.262477,0.056635,0.474609,-1.118698,0.183643,0.0
96,0.165394,-1.722113,0.815299,-0.053736,0.070702,0.25734,0.962232,-0.636084,0.183927,-0.07374,0.51687,-0.116313,-0.110276,-0.197702,0.028737,-0.122886,0.399338,-0.276595,0.049946,-0.066176,-0.721418,0.714412,0.128138,-1.6619,-0.062537,-1.580032,0.255762,0.461294,-0.856103,0.249113,0.0
97,0.171427,-1.715278,0.818721,-0.053064,0.083297,0.258405,0.960975,-0.628733,0.172355,-0.059317,0.485677,-0.117597,-0.113959,-0.211835,0.017154,-0.116324,0.390941,-0.249465,0.070675,-0.228497,-0.693977,0.920568,0.311254,-1.570682,-0.064419,-1.925416,0.504393,0.358244,-0.553249,0.343198,0.0
98,0.174043,-1.705184,0.821541,-0.047912,0.091955,0.256565,0.960949,-0.604744,0.150762,-0.036327,0.450304,-0.114467,-0.105968,-0.232645,-0.01515,-0.121917,0.410209,-0.240515,0.115413,-0.277773,-0.732414,0.983229,0.365343,-1.485621,-0.025114,-2.047546,0.573818,0.273898,-0.452048,0.414276,0.0
99,0.17293,-1.697485,0.823273,-0.047348,0.098027,0.246875,0.962913,-0.593803,0.145477,-0.011612,0.431865,-0.116586,-0.10253,-0.264875,-0.04508,-0.151299,0.439911,-0.241228,0.205681,-0.24728,-0.813256,0.935964,0.342213,-1.469452,0.008006,-2.021745,0.559541,0.204269,-0.493409,0.384641,0.0
100,0.171949,-1.699665,0.824375,-0.055949,0.10137,0.231106,0.966014,-0.60313,0.175762,0.003743,0.429341,-0.121229,-0.11203,-0.305606,-0.049044,-0.206826,0.475747,-0.237287,0.2618,-0.186493,-0.9098,0.834564,0.275745,-1.49006,0.067461,-1.956795,0.530683,0.150611,-0.607133,0.257432,0.0
101,0.168705,-1.700318,0.826301,-0.072356,0.101939,0.210489,0.969571,-0.624293,0.223535,0.013082,0.443979,-0.129225,-0.116721,-0.342203,-0.043079,-0.27469,0.506752,-0.208744,0.2618,-0.08852,-1.008356,0.689942,0.167527,-1.528285,0.130006,-1.854074,0.457892,0.143827,-0.783288,0.218038,0.0
102,0.165822,-1.691812,0.827769,-0.087083,0.097516,0.188409,0.97335,-0.633366,0.265303,0.03137,0.478434,-0.155567,-0.113498,-0.352937,-0.046195,-0.308709,0.519069,-0.182351,0.2618,0.050335,-1.078553,0.513277,0.036976,-1.577201,0.162505,-1.687403,0.330128,0.1637,-1.044412,0.309267,0.0
103,0.165677,-1.684026,0.829111,-0.093988,0.09732,0.178655,0.974565,-0.632802,0.279599,0.043156,0.488831,-0.171353,-0.109446,-0.369495,-0.070634,-0.328739,0.537588,-0.136593,0.2618,0.115645,-1.098752,0.410072,-0.02996,-1.614759,0.222494,-1.599021,0.274918,0.194595,-1.18655,0.239031,0.0
104,0.16837,-1.67833,0.830226,-0.097199,0.095363,0.177283,0.974694,-0.623561,0.284496,0.048511,0.492744,-0.183319,-0.1053,-0.373855,-0.103534,-0.343885,0.54902,-0.07473,0.251004,0.147205,-1.103841,0.328339,-0.047862,-1.62507,0.360816,-1.534208,0.235119,0.221461,-1.290081,0.195805,0.0
105,0.171508,-1.678213,0.83115,-0.098726,0.095545,0.180147,0.973998,-0.618929,0.286256,0.045707,0.485959,-0.183525,-0.1033,-0.379934,-0.136256,-0.356241,0.554699,-0.032474,0.203408,0.154372,-1.130435,0.270332,-0.002825,-1.644625,0.312149,-1.514904,0.210794,0.224598,-1.361493,0.205646,0.0
106,0.174619,-1.680374,0.83203,-0.099987,0.094922,0.183873,0.973233,-0.611381,0.290091,0.040992,0.4736,-0.181705,-0.10963,-0.379332,-0.166863,-0.366363,0.550549,-0.012276,0.162346,0.15793,-1.167712,0.221506,0.015983,-1.684069,0.265791,-1.516987,0.191002,0.221424,-1.425074,0.195865,0.0
107,0.176734,-1.684464,0.832605,-0.100175,0.095982,0.187116,0.972492,-0.610294,0.292082,0.03517,0.46179,-0.17508,-0.113858,-0.384243,-0.200171,-0.3748,0.545232,0.006309,0.145897,0.159578,-1.21656,0.193781,0.013094,-1.714646,0.253989,-1.547771,0.163818,0.233577,-1.483724,0.221195,0.0
108,0.180109,-1.690255,0.83302,-0.099083,0.095599,0.191226,0.971842,-0.603486,0.294774,0.029668,0.447336,-0.166227,-0.119735,-0.382904,-0.23315,-0.381274,0.537836,0.024702,0.134246,0.157873,-1.268844,0.181646,0.00791,-1.754864,0.222202,-1.58292,0.13673,0.252711,-1.540039,0.248133,0.0
109,0.184173,-1.697004,0.833154,-0.095584,0.094163,0.196057,0.971369,-0.590228,0.295057,0.026664,0.430273,-0.156279,-0.128384,-0.37634,-0.264623,-0.377265,0.5274,0.036739,0.125487,0.151331,-1.319251,0.17068,0.002744,-1.789407,0.199968,-1.619271,0.115085,0.268066,-1.58737,0.258131,0.0
110,0.188687,-1.705271,0.832408,-0.089703,0.091711,0.201925,0.970963,-0.573682,0.29229,0.023949,0.413398,-0.146022,-0.135995,-0.365857,-0.291397,-0.361113,0.514816,0.039437,0.128335,0.142336,-1.367077,0.1592,-0.002533,-1.811777,0.186165,-1.65187,0.097891,0.270857,-1.628837,0.26309,0.0
111,0.193472,-1.715943,0.830498,-0.08258,0.088509,0.208039,0.970601,-0.558177,0.292097,0.021621,0.39937,-0.136854,-0.15326,-0.355752,-0.307787,-0.324229,0.502218,0.044044,0.174143,0.133986,-1.408904,0.143555,-0.007099,-1.825785,0.17083,-1.673159,0.085241,0.269744,-1.659352,0.266558,0.0
112,0.199969,-1.727382,0.827367,-0.073733,0.081234,0.211688,0.97116,-0.532917,0.296658,0.024775,0.393605,-0.134236,-0.174294,-0.3394,-0.308444,-0.259178,0.490896,0.036715,0.220412,0.123765,-1.423378,0.132333,-0.005081,-1.838423,0.146791,-1.674221,0.08641,0.264132,-1.675631,0.249347,0.0
113,0.206825,-1.742086,0.823085,-0.065484,0.074157,0.213826,0.971849,-0.513416,0.306639,0.024507,0.39164,-0.129581,-0.191829,-0.323919,-0.279341,-0.167939,0.470533,0.012723,0.261799,0.11226,-1.418648,0.126772,-0.000225,-1.849363,0.116112,-1.667207,0.095363,0.262517,-1.671021,0.241915,0.0
114,0.215435,-1.761633,0.819397,-0.061023,0.066595,0.215153,0.972394,-0.493039,0.331591,0.021265,0.379907,-0.119097,-0.221949,-0.303941,-0.223983,-0.124051,0.43485,0.045528,0.2618,0.098394,-1.391977,0.132873,-0.000481,-1.854196,0.094731,-1.647829,0.10928,0.263676,-1.65595,0.242155,0.0
115,0.219071,-1.776653,0.813965,-0.0561,0.062187,0.209142,0.974292,-0.489232,0.351565,0.027274,0.390551,-0.115095,-0.241769,-0.269408,-0.213451,-0.197127,0.414047,-0.053409,0.2618,0.09972,-1.35974,0.145557,0.00427,-1.849557,0.102099,-1.628431,0.118853,0.278111,-1.637815,0.258571,0.0
116,0.221234,-1.79585,0.805717,-0.051908,0.060393,0.195578,0.977449,-0.503663,0.382505,0.036291,0.421194,-0.115671,-0.261589,-0.245455,-0.19293,-0.242114,0.388834,-0.178414,0.247705,0.12126,-1.331223,0.163571,0.012039,-1.839201,0.114345,-1.612911,0.12367,0.29449,-1.617232,0.291317,0.0
117,0.225059,-1.811678,0.801458,-0.051544,0.057005,0.194313,0.977924,-0.516149,0.406466,0.023273,0.435132,-0.108529,-0.2618,-0.226626,-0.169507,-0.251794,0.379943,-0.242475,0.24,0.129664,-1.293858,0.177823,-0.001416,-1.833369,0.125275,-1.588206,0.120168,0.294436,-1.595914,0.287057,0.0
118,0.232767,-1.82697,0.800987,-0.051691,0.053544,0.201414,0.976675,-0.525467,0.421755,0.006569,0.437287,-0.089421,-0.25713,-0.207501,-0.145376,-0.269001,0.380844,-0.27055,0.219629,0.120113,-1.247481,0.186765,-0.009968,-1.832068,0.13679,-1.562669,0.116347,0.295282,-1.584971,0.293141,0.0
119,0.237489,-1.840865,0.80278,-0.049614,0.052784,0.211587,0.974671,-0.550733,0.422083,0.058649,0.464864,-0.078084,-0.166019,-0.197515,-0.130803,-0.291084,0.380733,-0.281104,0.196971,0.102608,-1.209184,0.188385,0.000683,-1.830415,0.134826,-1.543435,0.11569,0.309767,-1.573017,0.292464,0.0
120,0.236708,-1.848327,0.803754,-0.046105,0.053825,0.222968,0.972246,-0.581781,0.382259,0.044317,0.527412,-0.120955,-0.227995,-0.195183,-0.131062,-0.310355,0.379902,-0.284886,0.181147,0.087847,-1.188481,0.188909,0.008175,-1.825234,0.140629,-1.532803,0.118337,0.311452,-1.559099,0.281073,0.0
121,0.232291,-1.852976,0.803008,-0.044618,0.057191,0.229529,0.970595,-0.621512,0.321805,-0.008747,0.616533,-0.167216,-0.2618,-0.211862,-0.135887,-0.317783,0.391035,-0.292783,0.176974,0.08104,-1.187486,0.199775,0.008545,-1.819693,0.151679,-1.539286,0.128309,0.298071,-1.542669,0.273328,0.0
122,0.230879,-1.857789,0.801909,-0.043091,0.059804,0.231339,0.970077,-0.632238,0.26435,-0.05743,0.687784,-0.228927,-0.2618,-0.22889,-0.138088,-0.315914,0.407444,-0.301999,0.170186,0.084021,-1.196115,0.215976,0.00866,-1.817817,0.150366,-1.557639,0.142226,0.282443,-1.526824,0.267148,0.0
123,0.2296,-1.860076,0.801479,-0.041008,0.061096,0.234584,0.969307,-0.622938,0.208084,-0.082911,0.735793,-0.287792,-0.2618,-0.236623,-0.143331,-0.317584,0.416312,-0.306409,0.170244,0.085204,-1.205072,0.223398,0.011748,-1.816393,0.147353,-1.575291,0.153792,0.26808,-1.513195,0.268572,0.0
124,0.232418,-1.866156,0.801113,-0.041256,0.060009,0.239123,0.968255,-0.600983,0.167304,-0.105583,0.760828,-0.330735,-0.260045,-0.231531,-0.134797,-0.327572,0.418768,-0.314294,0.165368,0.081967,-1.209437,0.224868,0.019077,-1.813046,0.148806,-1.586286,0.166748,0.255621,-1.497321,0.278909,0.0
125,0.233883,-1.869617,0.801129,-0.042086,0.058552,0.244283,0.967019,-0.569719,0.135618,-0.106389,0.757745,-0.362704,-0.17157,-0.223176,-0.127745,-0.338667,0.415542,-0.317508,0.157981,0.075803,-1.20966,0.224949,0.025203,-1.809664,0.151118,-1.592024,0.177621,0.248603,-1.481274,0.281768,0.0
126,0.234038,-1.870078,0.801497,-0.043403,0.057864,0.247011,0.966309,-0.535185,0.130071,-0.076357,0.713287,-0.378395,-0.066089,-0.216611,-0.123665,-0.346839,0.408461,-0.314964,0.156792,0.072254,-1.206901,0.228654,0.028918,-1.807384,0.150407,-1.597603,0.1864,0.247392,-1.467761,0.286002,0.0
127,0.233171,-1.868336,0.804628,-0.043011,0.058048,0.2457,0.96665,-0.501322,0.131726,-0.049746,0.658762,-0.374258,-0.058959,-0.204996,-0.122205,-0.349661,0.382717,-0.299323,0.159104,0.077639,-1.196672,0.230908,0.039604,-1.805391,0.146022,-1.598659,0.193712,0.25768,-1.447128,0.281425,0.0
128,0.233054,-1.863888,0.806551,-0.043059,0.056138,0.239542,0.968305,-0.469103,0.130672,-0.03746,0.625893,-0.375767,-0.053085,-0.192935,-0.121161,-0.342166,0.363105,-0.284269,0.160696,0.092348,-1.179613,0.237244,0.052314,-1.804552,0.138764,-1.595824,0.200756,0.273216,-1.42104,0.267515,0.0
129,0.232785,-1.859031,0.80846,-0.044493,0.054783,0.23628,0.969119,-0.449904,0.131603,-0.024834,0.606192,-0.372013,-0.047291,-0.182075,-0.118922,-0.340231,0.344891,-0.266871,0.158217,0.10348,-1.157769,0.243611,0.062801,-1.802691,0.126673,-1.588432,0.206481,0.288678,-1.39528,0.255288,0.0
130,0.231524,-1.854637,0.810392,-0.047405,0.054828,0.236752,0.968863,-0.440104,0.132786,-0.017379,0.588613,-0.367542,-0.045352,-0.176505,-0.116922,-0.346784,0.331298,-0.247023,0.159893,0.107505,-1.133784,0.25281,0.066887,-1.799631,0.122703,-1.578091,0.212258,0.298486,-1.369841,0.251195,0.0
131,0.230403,-1.850144,0.812577,-0.050391,0.055115,0.235614,0.968973,-0.427089,0.134719,-0.00917,0.566785,-0.364284,-0.048043,-0.174529,-0.115173,-0.347996,0.321092,-0.224008,0.163413,0.109363,-1.104377,0.26711,0.073494,-1.79255,0.128761,-1.568752,0.222896,0.308577,-1.339998,0.247017,0.0
132,0.230401,-1.845763,0.815066,-0.053792,0.055169,0.232075,0.969641,-0.408835,0.138706,0.001664,0.540285,-0.358947,-0.048394,-0.177059,-0.112111,-0.343439,0.317908,-0.197451,0.163789,0.114825,-1.069731,0.281454,0.084592,-1.786744,0.134324,-1.559395,0.234858,0.323585,-1.308391,0.243908,0.0
133,0.231447,-1.841839,0.817329,-0.057339,0.054437,0.226299,0.970844,-0.387377,0.14623,0.017304,0.514198,-0.352851,-0.044919,-0.186783,-0.108587,-0.335734,0.329573,-0.172948,0.157171,0.124682,-1.031155,0.292344,0.094955,-1.782568,0.143778,-1.545655,0.247389,0.337311,-1.283304,0.245479,0.0
134,0.232944,-1.83848,0.81851,-0.062002,0.053742,0.222474,0.97148,-0.373808,0.156677,0.027411,0.499178,-0.352609,-0.051024,-0.20595,-0.105286,-0.344269,0.361989,-0.15527,0.139376,0.131551,-0.995225,0.301345,0.10138,-1.779101,0.157343,-1.531154,0.255242,0.351322,-1.265694,0.25368,0.0
135,0.234466,-1.836444,0.819092,-0.068866,0.054155,0.21868,0.971856,-0.373352,0.172667,0.033728,0.496628,-0.35397,-0.053709,-0.238159,-0.10154,-0.380638,0.415774,-0.143804,0.109812,0.138708,-0.969385,0.308925,0.107028,-1.774662,0.169826,-1.520499,0.257705,0.365663,-1.250599,0.253199,0.0
136,0.235566,-1.835937,0.819345,-0.077015,0.055332,0.214615,0.972084,-0.384262,0.193426,0.036461,0.505983,-0.359201,-0.063618,-0.275983,-0.092298,-0.410243,0.477994,-0.154997,0.080309,0.146769,-0.954287,0.311616,0.113055,-1.765664,0.17577,-1.517289,0.254131,0.380017,-1.235893,0.250472,0.0
137,0.237945,-1.836543,0.81918,-0.084634,0.05572,0.211979,0.972007,-0.398991,0.214652,0.034202,0.523448,-0.363785,-0.06867,-0.308018,-0.070977,-0.412771,0.529657,-0.186215,0.049039,0.15085,-0.948425,0.3083,0.121503,-1.750716,0.18063,-1.520372,0.245771,0.396347,-1.219748,0.252776,0.0
138,0.241949,-1.837754,0.818798,-0.090838,0.054959,0.212571,0.971361,-0.411018,0.233574,0.027125,0.542589,-0.369504,-0.07625,-0.330301,-0.042896,-0.405322,0.561768,-0.206878,0.034506,0.144624,-0.950378,0.30286,0.129218,-1.730821,0.189026,-1.528217,0.234296,0.414008,-1.2038,0.253644,0.0
139,0.247236,-1.83971,0.817612,-0.095125,0.053014,0.21436,0.970665,-0.420883,0.250649,0.019533,0.565435,-0.376602,-0.083439,-0.343722,-0.008691,-0.384515,0.570946,-0.232315,0.045262,0.128857,-0.959371,0.300063,0.136536,-1.713126,0.195895,-1.5443,0.219963,0.43365,-1.191201,0.249697,0.0
140,0.254451,-1.841904,0.815626,-0.097651,0.049702,0.215055,0.970436,-0.421487,0.266306,0.012235,0.586454,-0.388417,-0.088886,-0.350334,0.029318,-0.347281,0.561976,-0.255268,0.068172,0.105997,-0.975316,0.302106,0.145085,-1.702932,0.191917,-1.569508,0.204452,0.455046,-1.188478,0.258534,0.0
141,0.262931,-1.843807,0.813303,-0.098433,0.046072,0.215805,0.970369,-0.415038,0.279863,0.009001,0.603881,-0.405075,-0.099177,-0.351817,0.066412,-0.303178,0.538044,-0.268472,0.085687,0.074771,-0.997848,0.303067,0.154543,-1.69731,0.181679,-1.597491,0.188794,0.476293,-1.195108,0.274699,0.0
142,0.272231,-1.846391,0.810623,-0.097722,0.042481,0.216199,0.970517,-0.403479,0.291168,0.007735,0.61825,-0.421044,-0.105709,-0.347303,0.099732,-0.268369,0.50238,-0.276271,0.100185,0.037631,-1.026817,0.300919,0.161255,-1.695211,0.171005,-1.625021,0.172387,0.492213,-1.209672,0.289305,0.0
143,0.281559,-1.849336,0.807794,-0.095762,0.039189,0.213615,0.971423,-0.388846,0.302175,0.012628,0.631498,-0.436666,-0.114903,-0.339923,0.123958,-0.259389,0.465921,-0.266306,0.111316,0.000887,-1.06151,0.298729,0.164897,-1.695768,0.157092,-1.65278,0.155038,0.501368,-1.230131,0.304097,0.0
144,0.288479,-1.849774,0.806988,-0.094354,0.036651,0.205355,0.973439,-0.368176,0.312761,0.033123,0.637925,-0.449011,-0.119896,-0.330008,0.138416,-0.303628,0.441374,-0.225908,-0.012795,-0.025597,-1.097807,0.298237,0.162429,-1.693796,0.140766,-1.680795,0.134158,0.505058,-1.252268,0.323283,0.0
145,0.293515,-1.855916,0.805325,-0.09071,0.035708,0.192546,0.976434,-0.36189,0.32477,0.052309,0.655689,-0.445192,-0.130563,-0.316256,0.14923,-0.320391,0.42666,-0.233402,-0.055721,-0.035752,-1.141134,0.288338,0.159858,-1.688321,0.116255,-1.710176,0.103539,0.518873,-1.272173,0.350028,0.0
146,0.301408,-1.862056,0.803922,-0.086806,0.031556,0.179647,0.979386,-0.356509,0.339809,0.064214,0.691568,-0.428606,-0.141743,-0.295466,0.160535,-0.304606,0.419272,-0.246346,-0.05909,-0.044189,-1.177204,0.283816,0.151494,-1.679124,0.084688,-1.731473,0.073149,0.525583,-1.294101,0.375089,0.0
147,0.312681,-1.866548,0.803429,-0.081855,0.023167,0.16829,0.98206,-0.361346,0.353652,0.059392,0.759008,-0.379533,-0.153116,-0.265136,0.168794,-0.277553,0.420533,-0.255487,-0.050902,-0.052386,-1.200553,0.276696,0.132665,-1.671295,0.06561,-1.739368,0.042769,0.529114,-1.31893,0.400317,0.0
148,0.327294,-1.871488,0.802322,-0.07716,0.01003,0.154475,0.984928,-0.402514,0.371946,0.030171,0.887393,-0.27797,-0.130102,-0.218832,0.182757,-0.253989,0.418671,-0.27049,-0.052219,-0.061854,-1.202853,0.279274,0.111823,-1.668416,0.06178,-1.726351,0.01686,0.527153,-1.35401,0.414162,0.0
149,0.341481,-1.876619,0.802893,-0.068247,0.000271,0.139249,0.987903,-0.486891,0.376417,-0.00807,1.046828,-0.134635,-0.082477,-0.167363,0.189084,-0.229517,0.396253,-0.284056,-0.066665,-0.05977,-1.207634,0.270245,0.093852,-1.667746,0.080205,-1.712026,-0.01958,0.541565,-1.389435,0.420557,0.0
150,0.356031,-1.884954,0.805328,-0.056163,-0.00691,0.125924,0.990425,-0.598117,0.384182,-0.023539,1.201534,0.020947,-0.005865,-0.114902,0.190622,-0.207543,0.362404,-0.293306,-0.080128,-0.057404,-1.216674,0.258023,0.080791,-1.66463,0.093872,-1.698277,-0.063819,0.562529,-1.4294,0.432086,0.0
151,0.36566,-1.892556,0.808708,-0.042563,-0.009564,0.113216,0.992612,-0.698102,0.35707,-0.032786,1.316809,0.079848,0.05695,-0.086109,0.181368,-0.186141,0.342236,-0.288663,-0.095688,-0.05394,-1.238317,0.233058,0.065143,-1.661155,0.110017,-1.696918,-0.10649,0.581658,-1.461342,0.449365,0.0
152,0.369023,-1.895583,0.812585,-0.030785,-0.009717,0.102589,0.9942,-0.79762,0.272125,-0.058189,1.422145,0.043802,0.076722,-0.078308,0.164375,-0.167332,0.33644,-0.276497,-0.107201,-0.060654,-1.262765,0.205067,0.049574,-1.662123,0.135489,-1.694285,-0.145868,0.589367,-1.503777,0.471299,0.0
153,0.372816,-1.89947,0.814546,-0.023211,-0.006851,0.099483,0.994745,-0.903306,0.196884,-0.053187,1.508103,-0.001593,0.078482,-0.08308,0.153632,-0.165464,0.342337,-0.269238,-0.114936,-0.086318,-1.295613,0.177435,0.038688,-1.670766,0.156808,-1.697212,-0.18777,0.5905,-1.559888,0.504925,0.0
154,0.376844,-1.902533,0.815624,-0.01846,-0.002652,0.098231,0.994989,-0.999736,0.119997,-0.030759,1.56976,-0.012699,0.059564,-0.092147,0.146774,-0.166361,0.35125,-0.266243,-0.119719,-0.118832,-1.332622,0.150265,0.029082,-1.682595,0.173968,-1.703523,-0.231891,0.587441,-1.621356,0.535411,0.0
155,0.380611,-1.903791,0.816519,-0.01546,0.001048,0.094357,0.995418,-1.081231,0.027008,-0.008238,1.611508,0.019368,0.020547,-0.098342,0.142466,-0.162282,0.356486,-0.265289,-0.122655,-0.153094,-1.36972,0.124086,0.018989,-1.692134,0.194061,-1.71299,-0.27831,0.582217,-1.682842,0.562307,0.0
156,0.382801,-1.904326,0.817388,-0.013371,0.0045,0.091588,0.995697,-1.146134,-0.079987,0.016479,1.638047,0.041264,-0.035583,-0.10358,0.13916,-0.15753,0.357368,-0.263734,-0.125264,-0.194624,-1.407575,0.096725,0.008961,-1.700891,0.215523,-1.722851,-0.327934,0.575991,-1.743357,0.587901,0.0
157,0.385438,-1.907144,0.817186,-0.012361,0.007539,0.091751,0.995677,-1.195012,-0.15997,0.063567,1.665568,0.037908,-0.091676,-0.106408,0.141511,-0.156132,0.356539,-0.267277,-0.130619,-0.241809,-1.447148,0.067746,0.001462,-1.712376,0.228873,-1.731362,-0.381295,0.568247,-1.80401,0.603915,0.0
158,0.389202,-1.911789,0.816728,-0.012062,0.009358,0.089279,0.99589,-1.228158,-0.201525,0.131909,1.709076,0.048015,-0.138993,-0.105382,0.148907,-0.154321,0.354752,-0.272245,-0.13926,-0.283841,-1.483536,0.040486,-0.006394,-1.721658,0.237639,-1.737177,-0.438013,0.559612,-1.863212,0.614972,0.0
159,0.39341,-1.916129,0.816838,-0.011745,0.009661,0.081852,0.996528,-1.244838,-0.225938,0.199575,1.763979,0.084905,-0.173554,-0.099294,0.156881,-0.145894,0.350202,-0.273941,-0.146938,-0.318294,-1.516224,0.016271,-0.015481,-1.728218,0.242043,-1.737599,-0.492613,0.545347,-1.919566,0.627215,0.0
160,0.396407,-1.917763,0.817395,-0.010444,0.00901,0.069605,0.997479,-1.248684,-0.251191,0.254874,1.821593,0.112297,-0.214947,-0.090542,0.158986,-0.125761,0.343336,-0.275364,-0.143214,-0.343313,-1.548,-0.005889,-0.026171,-1.737427,0.238121,-1.732662,-0.540943,0.523449,-1.971423,0.635733,0.0
161,0.399417,-1.917358,0.817769,-0.008152,0.007451,0.050937,0.998641,-1.24754,-0.278807,0.293547,1.877552,0.129333,-0.245818,-0.079431,0.156116,-0.096057,0.337271,-0.280191,-0.1301,-0.357218,-1.578842,-0.022538,-0.037039,-1.748845,0.222796,-1.72561,-0.583343,0.49909,-2.0204,0.641386,0.0
162,0.40285,-1.915797,0.819347,-0.004469,0.006225,0.027441,0.999594,-1.240693,-0.296548,0.322208,1.924544,0.142543,-0.260984,-0.070819,0.148618,-0.062682,0.333667,-0.278921,-0.12018,-0.36348,-1.60743,-0.034637,-0.0502,-1.762049,0.209731,-1.71897,-0.619978,0.472919,-2.067358,0.649583,0.0
163,0.405326,-1.915121,0.822102,0.000875,0.006442,0.001095,0.999978,-1.231609,-0.294288,0.343859,1.966052,0.146211,-0.26126,-0.064658,0.138846,-0.024093,0.324034,-0.271579,-0.115245,-0.366933,-1.636449,-0.041082,-0.057442,-1.782017,0.189822,-1.713644,-0.649133,0.448518,-2.115275,0.657632,0.0
164,0.405108,-1.916108,0.82777,0.009193,0.00936,-0.031128,0.999429,-1.223943,-0.268722,0.361276,1.999489,0.138602,-0.258006,-0.062063,0.123946,0.023638,0.299156,-0.251651,-0.108759,-0.361712,-1.664853,-0.040844,-0.060415,-1.809085,0.165367,-1.712467,-0.675208,0.429144,-2.163058,0.66819,0.0
165,0.406169,-1.921075,0.832713,0.016445,0.011429,-0.057765,0.998129,-1.210366,-0.231081,0.376942,2.013072,0.146888,-0.217839,-0.060263,0.116407,0.066421,0.281646,-0.227775,-0.105071,-0.365939,-1.690633,-0.038559,-0.065299,-1.839978,0.146962,-1.721139,-0.700223,0.415777,-2.194783,0.684873,0.0
166,0.406666,-1.917206,0.836626,0.021199,0.012283,-0.082442,0.996295,-1.190949,-0.218254,0.403758,1.98939,0.138888,-0.229613,-0.068876,0.102248,0.110667,0.283971,-0.20575,-0.083886,-0.376264,-1.709798,-0.034773,-0.079842,-1.873808,0.131119,-1.743821,-0.707858,0.407867,-2.1948,0.699669,0.0
167,0.407993,-1.912377,0.840639,0.028119,0.01349,-0.10635,0.99384,-1.167033,-0.20851,0.441849,1.96087,0.133387,-0.260747,-0.083749,0.081845,0.155506,0.294918,-0.190905,-0.05043,-0.390935,-1.726853,-0.021915,-0.0989,-1.912667,0.112369,-1.77347,-0.701769,0.400206,-2.1948,0.719482,0.0
168,0.410542,-1.907898,0.844223,0.036884,0.014273,-0.127041,0.991109,-1.14039,-0.196395,0.488029,1.947492,0.149173,-0.261475,-0.09646,0.058983,0.188239,0.30465,-0.179733,-0.03107,-0.41075,-1.738802,-0.000961,-0.122354,-1.947002,0.096839,-1.799693,-0.688926,0.391552,-2.1948,0.744699,0.0
169,0.413168,-1.901932,0.846716,0.046274,0.01352,-0.141662,0.988741,-1.104585,-0.187472,0.539067,1.937505,0.176838,-0.261715,-0.104183,0.03246,0.208605,0.311605,-0.174706,-0.021865,-0.435089,-1.74026,0.022451,-0.15262,-1.971144,0.096144,-1.817909,-0.678124,0.383147,-2.1948,0.771788,0.0
170,0.415815,-1.896626,0.848929,0.056639,0.011272,-0.150503,0.986921,-1.057795,-0.176948,0.587629,1.921234,0.208331,-0.2618,-0.106101,0.001778,0.221198,0.315351,-0.176862,-0.006406,-0.462946,-1.736928,0.046734,-0.177857,-1.993725,0.095547,-1.828974,-0.67053,0.376971,-2.1948,0.796585,0.0
171,0.418626,-1.895371,0.851603,0.069334,0.007498,-0.155061,0.98544,-1.009181,-0.165727,0.625594,1.903643,0.231974,-0.2618,-0.101961,-0.030958,0.22791,0.317107,-0.1825,0.009037,-0.495998,-1.733037,0.066484,-0.191661,-2.019786,0.084558,-1.836959,-0.665244,0.378107,-2.1948,0.814645,0.0
172,0.421974,-1.894834,0.854266,0.082429,0.002578,-0.156738,0.984191,-0.966029,-0.162598,0.653222,1.881864,0.243111,-0.261632,-0.094191,-0.064162,0.22874,0.31966,-0.187081,0.016604,-0.530917,-1.725052,0.074126,-0.19548,-2.042702,0.063326,-1.84098,-0.659977,0.381499,-2.1948,0.830258,0.0
173,0.425566,-1.891984,0.856315,0.093765,-0.002807,-0.15335,0.983709,-0.926046,-0.167646,0.677098,1.857095,0.249279,-0.261631,-0.084584,-0.096704,0.223035,0.324234,-0.190361,0.021866,-0.571845,-1.711883,0.066726,-0.196326,-2.057621,0.041217,-1.839407,-0.6538,0.385229,-2.1948,0.844384,0.0
174,0.429776,-1.889916,0.858143,0.104455,-0.008307,-0.147493,0.983497,-0.892002,-0.174149,0.697802,1.839567,0.254492,-0.261369,-0.072225,-0.12811,0.214865,0.329749,-0.195824,0.030671,-0.614267,-1.696852,0.055155,-0.19574,-2.068129,0.017243,-1.834429,-0.649699,0.390358,-2.1948,0.853929,0.0
175,0.434315,-1.888,0.859935,0.11506,-0.012626,-0.140473,0.983295,-0.860713,-0.176894,0.720135,1.828766,0.255368,-0.254072,-0.060932,-0.158322,0.202429,0.335556,-0.201594,0.034971,-0.656964,-1.682477,0.046307,-0.197039,-2.075874,-0.005361,-1.8263,-0.652128,0.39641,-2.1948,0.86067,0.0
176,0.438098,-1.882077,0.860403,0.123345,-0.015767,-0.134532,0.983076,-0.840889,-0.187968,0.741997,1.81668,0.25738,-0.250331,-0.055154,-0.186115,0.187563,0.343925,-0.206789,0.025365,-0.694041,-1.666786,0.042098,-0.202504,-2.077183,-0.021828,-1.812128,-0.658784,0.40188,-2.1948,0.867798,0.0
177,0.440891,-1.874619,0.860338,0.130192,-0.017658,-0.127917,0.983044,-0.829274,-0.203185,0.754342,1.804793,0.263018,-0.261128,-0.052876,-0.212046,0.170464,0.352488,-0.214706,0.01868,-0.725613,-1.650452,0.044376,-0.210846,-2.074086,-0.03022,-1.792923,-0.670832,0.408705,-2.1948,0.871752,0.0
178,0.443862,-1.870415,0.860573,0.137123,-0.01814,-0.120235,0.983062,-0.816424,-0.212346,0.761188,1.798181,0.266898,-0.261409,-0.047129,-0.234556,0.153038,0.354402,-0.224861,0.011408,-0.751037,-1.638139,0.054695,-0.220218,-2.070092,-0.033393,-1.775196,-0.691467,0.417548,-2.1948,0.874017,0.0
179,0.446438,-1.867066,0.860852,0.143333,-0.017824,-0.114396,0.982879,-0.805952,-0.221049,0.763946,1.79121,0.268659,-0.254316,-0.042384,-0.254594,0.133829,0.353653,-0.235072,0.007965,-0.766898,-1.631125,0.071713,-0.23587,-2.06895,-0.025362,-1.760553,-0.713119,0.42604,-2.1948,0.875302,0.0
180,0.447639,-1.861361,0.860679,0.14812,-0.016257,-0.108181,0.9829,-0.798476,-0.231647,0.768655,1.780733,0.273404,-0.258059,-0.043147,-0.274049,0.111589,0.353914,-0.243883,0.004789,-0.777042,-1.63104,0.094637,-0.250269,-2.074785,-0.026499,-1.746678,-0.73425,0.430832,-2.1948,0.875582,0.0
181,0.448733,-1.856396,0.860373,0.153067,-0.014599,-0.098752,0.983161,-0.787628,-0.24387,0.775752,1.772312,0.284082,-0.261299,-0.041284,-0.293569,0.092969,0.353441,-0.253255,0.00998,-0.784907,-1.634335,0.121094,-0.272303,-2.08549,-0.024479,-1.734679,-0.757917,0.433546,-2.1948,0.874505,0.0
182,0.449429,-1.851739,0.860777,0.159632,-0.012368,-0.088744,0.983102,-0.769144,-0.251924,0.790573,1.765389,0.294992,-0.261517,-0.041032,-0.316529,0.071426,0.352333,-0.260391,0.015144,-0.787112,-1.636467,0.159495,-0.305785,-2.099516,-0.013894,-1.72405,-0.786526,0.434973,-2.1948,0.873319,0.0
183,0.44955,-1.845955,0.860811,0.166147,-0.010125,-0.078303,0.982935,-0.753987,-0.263897,0.806959,1.757322,0.312041,-0.260195,-0.042629,-0.340973,0.04631,0.3543,-0.268263,0.020494,-0.78261,-1.639224,0.217174,-0.350201,-2.124655,-0.000437,-1.710497,-0.816762,0.435286,-2.1948,0.870989,0.0
184,0.448183,-1.839226,0.860763,0.172724,-0.006787,-0.064657,0.982822,-0.738351,-0.275916,0.827004,1.744089,0.331972,-0.261605,-0.049422,-0.366821,0.020782,0.360342,-0.275053,0.028084,-0.773838,-1.641201,0.28981,-0.396629,-2.163962,0.006556,-1.69299,-0.848229,0.431071,-2.1948,0.868705,0.0
185,0.446118,-1.832956,0.861418,0.180845,-0.003166,-0.04775,0.982347,-0.720933,-0.28932,0.848822,1.730839,0.342871,-0.261644,-0.056339,-0.395926,-0.006199,0.367703,-0.279824,0.036326,-0.759712,-1.642623,0.370521,-0.445379,-2.194783,0.015341,-1.672714,-0.879994,0.422764,-2.1948,0.864295,0.0
186,0.445461,-1.827981,0.861855,0.189837,-0.000525,-0.029365,0.981376,-0.699001,-0.301905,0.87182,1.721327,0.353984,-0.247936,-0.060159,-0.426357,-0.040782,0.382009,-0.284232,0.042562,-0.734751,-1.655968,0.452048,-0.494728,-2.1948,0.023845,-1.648775,-0.91129,0.412942,-2.1948,0.856018,0.0
187,0.447525,-1.820965,0.860118,0.199258,0.001733,-0.004598,0.979935,-0.65925,-0.315547,0.903126,1.71194,0.367404,-0.220443,-0.061226,-0.464173,-0.095262,0.41456,-0.300147,0.049325,-0.695619,-1.678568,0.538871,-0.559871,-2.1948,0.038794,-1.601721,-0.965343,0.386977,-2.1948,0.837917,0.0
188,0.44666,-1.813909,0.856721,0.210509,0.00304,0.028025,0.977185,-0.628981,-0.333609,0.934953,1.703885,0.393069,-0.193366,-0.059598,-0.509107,-0.152361,0.457505,-0.321531,0.060023,-0.637677,-1.708958,0.617043,-0.625507,-2.1948,0.045926,-1.548647,-1.039838,0.356948,-2.1948,0.802612,0.0
189,0.451115,-1.795553,0.845474,0.226637,0.008515,0.084643,0.970257,-0.563713,-0.394425,0.980211,1.685662,0.370907,-0.123267,-0.057983,-0.600398,-0.255836,0.562199,-0.396868,0.111543,-0.491893,-1.835372,0.578445,-0.713166,-2.1948,0.030233,-1.3645,-1.320014,0.150319,-2.1948,0.733535,0.0
190,0.448821,-1.792641,0.836153,0.240359,0.025656,0.131996,0.961325,-0.557111,-0.404517,1.028677,1.696554,0.389901,-0.080183,-0.100492,-0.665771,-0.316055,0.647854,-0.44286,0.118384,-0.306988,-1.961512,0.542157,-0.742203,-2.1948,-0.002371,-1.197336,-1.583933,-0.081152,-2.1948,0.716522,0.0
191,0.446042,-1.793295,0.829733,0.257659,0.038312,0.177303,0.949056,-0.543473,-0.411964,1.088376,1.688618,0.443952,-0.076557,-0.115249,-0.728167,-0.371234,0.711644,-0.462352,0.110682,-0.232026,-1.945507,0.699267,-0.71598,-2.1948,-0.060696,-1.202677,-1.616851,-0.152011,-2.1948,0.697046,0.0
192,0.441813,-1.79429,0.812691,0.274292,0.051918,0.242961,0.928998,-0.525966,-0.429994,1.147918,1.689246,0.47162,-0.06858,-0.134509,-0.813008,-0.43601,0.840076,-0.524678,0.125574,-0.216071,-1.776483,0.97527,-0.566616,-2.1948,-0.138845,-1.299594,-1.625413,-0.226949,-2.023347,0.599485,0.0
193,0.43273,-1.791243,0.805204,0.271662,0.055376,0.301605,0.912232,-0.493825,-0.436,1.197189,1.629455,0.470743,-0.093284,-0.078486,-0.83944,-0.537569,0.89523,-0.519819,0.146651,-0.30777,-1.213237,1.473077,-0.05103,-2.1948,-0.067152,-1.393814,-1.455837,-0.346419,-1.657059,0.367336,0.0
194,0.437531,-1.777295,0.774408,0.232785,0.05705,0.3753,0.895381,-0.531493,-0.430677,1.160874,1.629279,0.28639,-0.13403,-0.050771,-0.781966,-0.601622,1.029082,-0.568495,0.160333,-0.22663,-0.960026,1.52826,0.100748,-2.1948,-0.067622,-1.602808,-1.512945,-0.489459,-1.04664,0.178452,0.0
195,0.448187,-1.76698,0.760936,0.198824,0.076704,0.422172,0.881111,-0.640621,-0.418662,1.091334,1.554567,0.152783,-0.224536,-0.060394,-0.741727,-0.67244,1.082073,-0.571319,0.168798,0.08543,-0.846993,1.220776,0.112843,-2.179089,-0.033141,-1.971962,-1.889552,-0.534961,-0.555042,0.18765,0.0
196,0.468985,-1.754369,0.759134,0.146803,0.106829,0.435857,0.881513,-0.830317,-0.363622,0.935605,1.448836,0.040403,-0.242791,-0.131827,-0.644421,-0.678574,1.060071,-0.532244,0.1706,0.359081,-0.793623,0.928319,0.060549,-2.137164,-0.245463,-1.972901,-1.982974,-0.300012,-0.037234,-0.042031,0.0
197,0.484767,-1.748949,0.749241,0.117135,0.025001,0.425304,0.89709,-0.756178,-0.149277,0.801987,1.369497,-0.079486,-0.109472,0.090495,-0.482702,-0.772337,1.016058,-0.483737,0.153311,0.255541,-0.519875,0.954555,0.023664,-1.908379,-0.573685,-0.821116,-0.921722,-0.711237,-0.095047,-0.721519,0.0
198,0.529333,-1.728602,0.739899,0.064748,-0.030738,0.424342,0.902661,-0.815247,0.038625,0.48625,1.33735,-0.240515,0.016252,0.281178,-0.206748,-0.819041,0.822138,-0.437628,0.140371,0.35943,-0.381816,0.871003,-0.085487,-1.748192,-0.725511,-0.689046,-0.396035,-0.822495,-0.875446,-0.388885,0.0
199,0.537747,-1.695245,0.735878,0.060962,-0.057119,0.40325,0.911269,-0.773482,0.084697,0.319786,1.143976,-0.323018,0.173671,0.386857,-0.180284,-0.800196,0.760666,-0.400271,0.164347,0.527986,-0.217252,0.790194,-0.228174,-1.757578,-0.603219,-0.915256,-0.290279,-0.297207,-1.087491,-0.471378,0.0
200,0.545514,-1.660894,0.735344,0.059034,-0.10089,0.376206,0.919133,-0.638435,0.130646,0.157576,0.954838,-0.365123,0.222023,0.522279,-0.139466,-0.752278,0.67816,-0.327324,0.173354,0.6469,-0.001925,0.866267,-0.271347,-1.860162,-0.526631,-1.139033,-0.180651,0.108704,-1.256351,-0.214373,0.0
201,0.556137,-1.639112,0.739728,0.055423,-0.15002,0.366278,0.916658,-0.460396,0.233976,0.148413,0.819982,-0.251641,-0.030824,0.654165,-0.071762,-0.745924,0.5941,-0.206433,0.145465,0.700857,0.143035,0.911639,-0.263159,-1.890164,-0.487328,-1.42656,-0.031878,0.315656,-1.201217,-0.179601,0.0
202,0.572485,-1.617835,0.733079,0.034513,-0.159554,0.422187,0.891689,-0.542146,0.248662,0.057713,0.931674,-0.265291,-0.083288,0.678155,0.022974,-0.797212,0.578844,-0.037222,0.1266,0.58363,0.116783,0.819714,-0.2285,-1.810906,-0.355731,-1.798263,0.220644,0.32348,-0.951527,-0.055193,0.0
203,0.58467,-1.592671,0.736141,0.022701,-0.152219,0.485608,0.860522,-0.584898,0.212962,0.00886,0.953818,-0.244252,-0.111688,0.636723,0.06454,-0.795051,0.617577,0.18284,0.155691,0.498333,0.062884,0.690318,-0.203585,-1.737116,-0.340297,-2.006652,0.382833,0.204544,-0.814298,0.116681,0.0
204,0.598452,-1.56326,0.7507,0.027533,-0.148044,0.506575,0.848944,-0.502528,0.168412,0.004995,0.899198,-0.251486,-0.080347,0.577005,0.0182,-0.725042,0.703179,0.413151,0.176196,0.49846,0.057447,0.57876,-0.164335,-1.676992,-0.376087,-2.104612,0.510371,0.151817,-0.749106,0.1406,0.0
205,0.61097,-1.536016,0.768372,0.0289,-0.142221,0.52768,0.836954,-0.416994,0.124076,-0.006739,0.811726,-0.229685,-0.012275,0.467323,-0.03363,-0.629756,0.809064,0.622998,0.19864,0.498154,0.072704,0.508579,-0.16472,-1.644089,-0.385979,-2.122104,0.609041,0.153731,-0.760528,0.153508,0.0
206,0.625945,-1.526672,0.785297,0.014847,-0.140207,0.54573,0.826014,-0.378248,0.138551,-0.039177,0.727038,-0.197109,-0.013841,0.329301,-0.02312,-0.521761,0.891834,0.586653,0.240048,0.490908,0.092869,0.508145,-0.19666,-1.620944,-0.318541,-2.115007,0.6108,0.203261,-0.837318,0.134846,0.0
207,0.639103,-1.510202,0.799225,-0.004702,-0.138999,0.55061,0.823096,-0.347004,0.179893,-0.047777,0.671028,-0.202366,-0.043379,0.237453,-0.095441,-0.581979,0.94065,0.534522,0.164585,0.479488,0.125072,0.547815,-0.21409,-1.607271,-0.218543,-2.104502,0.6108,0.264271,-0.935471,0.130831,0.0
208,0.659806,-1.495676,0.811433,-0.022364,-0.138491,0.55301,0.821279,-0.309387,0.232749,-0.055062,0.613556,-0.217119,-0.102738,0.166231,-0.165152,-0.653875,0.953334,0.515113,0.132141,0.467392,0.166338,0.608081,-0.22905,-1.617224,-0.199983,-2.07147,0.6108,0.327858,-1.024051,0.105886,0.0
209,0.688551,-1.491446,0.821568,-0.038085,-0.138206,0.562865,0.814022,-0.280452,0.29038,-0.080626,0.540959,-0.214419,-0.171576,0.061625,-0.167872,-0.608049,0.945129,0.508366,0.147159,0.439084,0.210287,0.669481,-0.231396,-1.642614,-0.229291,-2.016206,0.6108,0.388767,-1.100779,0.102568,0.0
210,0.717912,-1.488434,0.82802,-0.051761,-0.137177,0.574419,0.805324,-0.265052,0.344815,-0.111238,0.481626,-0.210278,-0.233715,-0.036828,-0.159767,-0.527018,0.924804,0.454234,0.204596,0.408959,0.241052,0.715255,-0.229533,-1.660804,-0.249632,-1.96077,0.6108,0.435775,-1.145858,0.128609,0.0
211,0.742501,-1.480266,0.831446,-0.062811,-0.136245,0.585182,0.796903,-0.255086,0.387731,-0.137665,0.44596,-0.217888,-0.261799,-0.098407,-0.185948,-0.492695,0.880539,0.415553,0.200257,0.383198,0.259358,0.74885,-0.224832,-1.669326,-0.245841,-1.908227,0.6108,0.470665,-1.155268,0.130012,0.0
212,0.765172,-1.469469,0.833371,-0.071397,-0.136784,0.593514,0.789895,-0.235557,0.427039,-0.153954,0.416784,-0.233314,-0.2618,-0.128779,-0.223813,-0.491668,0.805176,0.409942,0.166276,0.361642,0.275604,0.77694,-0.20735,-1.674531,-0.242181,-1.858474,0.6108,0.494504,-1.15118,0.139134,0.0
213,0.790439,-1.459401,0.833696,-0.078688,-0.139641,0.600745,0.783208,-0.209855,0.471304,-0.170256,0.386611,-0.243251,-0.2618,-0.140313,-0.234185,-0.481476,0.709673,0.374512,0.118592,0.341034,0.293662,0.803479,-0.183199,-1.676843,-0.25836,-1.81354,0.6108,0.511834,-1.140567,0.175668,0.0
214,0.81892,-1.450295,0.832149,-0.08507,-0.145068,0.609144,0.775024,-0.185079,0.52205,-0.192885,0.359098,-0.243594,-0.2618,-0.137723,-0.213772,-0.444253,0.610012,0.329185,0.122933,0.317102,0.313397,0.831262,-0.161288,-1.677615,-0.277917,-1.778411,0.605793,0.527804,-1.122685,0.206921,0.0
215,0.84922,-1.440563,0.828435,-0.090124,-0.151804,0.61744,0.766551,-0.155388,0.575833,-0.214072,0.331699,-0.24156,-0.2618,-0.129322,-0.174087,-0.373264,0.517314,0.317445,0.141814,0.291861,0.328708,0.85188,-0.144306,-1.676664,-0.286891,-1.754682,0.602882,0.541692,-1.100685,0.252048,0.0
216,0.879036,-1.430982,0.822552,-0.093671,-0.158421,0.623213,0.760088,-0.123467,0.62894,-0.226374,0.31286,-0.249799,-0.2618,-0.11993,-0.121313,-0.266266,0.433381,0.307056,0.14611,0.272312,0.334748,0.858414,-0.131765,-1.674726,-0.274186,-1.733734,0.601818,0.556315,-1.077574,0.30102,0.0
217,0.906896,-1.422874,0.813601,-0.094394,-0.160586,0.626645,0.756715,-0.110134,0.669259,-0.239582,0.316464,-0.265762,-0.2618,-0.117418,-0.076978,-0.170363,0.372976,0.292494,0.173344,0.263406,0.32913,0.848189,-0.127979,-1.676278,-0.255819,-1.708069,0.600316,0.587976,-1.049828,0.348757,0.0
218,0.934502,-1.414876,0.800679,-0.094945,-0.163628,0.625856,0.756648,-0.111251,0.712234,-0.253046,0.351441,-0.300287,-0.2618,-0.124153,-0.037709,-0.141667,0.347739,0.346373,0.237836,0.263711,0.319302,0.841543,-0.120905,-1.673791,-0.240824,-1.683017,0.599439,0.611122,-1.029371,0.418812,0.0
219,0.954033,-1.409903,0.788037,-0.096478,-0.168135,0.619377,0.760786,-0.122302,0.749815,-0.262384,0.406672,-0.342595,-0.2618,-0.134686,-0.00931,-0.192454,0.365676,0.385298,0.226538,0.279259,0.305559,0.840569,-0.115279,-1.672832,-0.232487,-1.658011,0.59964,0.625901,-1.016102,0.489668,0.0
220,0.981815,-1.412963,0.765864,-0.096182,-0.175011,0.602035,0.773094,-0.139081,0.805663,-0.267159,0.492706,-0.393837,-0.2618,-0.087855,0.027998,-0.225089,0.385641,0.070843,0.261729,0.321125,0.301465,0.844666,-0.104096,-1.670106,-0.216011,-1.634408,0.599839,0.638701,-1.001321,0.546744,0.0
221,1.001855,-1.412531,0.752295,-0.095988,-0.175793,0.59524,0.778185,-0.15223,0.838295,-0.275764,0.533088,-0.417736,-0.2618,-0.086688,0.047848,-0.220981,0.427294,-0.095985,0.2618,0.335028,0.301408,0.820382,-0.092713,-1.662912,-0.186203,-1.596213,0.601449,0.670431,-0.979998,0.606848,0.0
222,1.017728,-1.408717,0.747887,-0.098316,-0.174303,0.595626,0.777935,-0.148236,0.862185,-0.273348,0.5303,-0.420704,-0.2618,-0.131219,0.057883,-0.208633,0.521923,-0.144148,0.2618,0.323509,0.314937,0.777397,-0.070476,-1.628222,-0.134795,-1.544882,0.603839,0.694784,-0.968186,0.676784,0.0
223,1.031622,-1.410614,0.747523,-0.100409,-0.163379,0.592224,0.782621,-0.163634,0.872022,-0.251804,0.521487,-0.395821,-0.2618,-0.18027,0.060243,-0.205599,0.57391,-0.167003,0.252471,0.309805,0.338584,0.717835,-0.050497,-1.587632,-0.099642,-1.482812,0.606548,0.732654,-0.948687,0.696963,0.0
224,1.044775,-1.41597,0.749814,-0.102222,-0.148407,0.591584,0.785846,-0.216206,0.874137,-0.240038,0.514752,-0.344928,-0.2618,-0.197871,0.06813,-0.198696,0.558697,-0.208088,0.24227,0.278288,0.370311,0.687846,-0.041891,-1.571123,-0.098069,-1.407121,0.605689,0.769538,-0.93161,0.677594,0.0
225,1.048891,-1.421519,0.755935,-0.101134,-0.130698,0.598024,0.784256,-0.311397,0.858548,-0.17791,0.528638,-0.275397,-0.2618,-0.213018,0.05692,-0.196907,0.529549,-0.216191,0.229496,0.230283,0.406985,0.690956,-0.061293,-1.589811,-0.109402,-1.325901,0.598658,0.796041,-0.920355,0.649654,0.0
226,1.053719,-1.429334,0.761222,-0.102175,-0.111518,0.601849,0.784157,-0.409006,0.842703,-0.132245,0.546809,-0.219855,-0.2618,-0.245656,0.046174,-0.196262,0.512851,-0.213456,0.216968,0.18485,0.44348,0.721454,-0.109891,-1.638885,-0.124679,-1.251045,0.588763,0.823577,-0.910417,0.609526,0.0
227,1.056485,-1.436346,0.765439,-0.105116,-0.09115,0.606228,0.783026,-0.490666,0.820533,-0.099186,0.549585,-0.17873,-0.2618,-0.285169,0.032724,-0.193533,0.501092,-0.211841,0.210979,0.14324,0.473018,0.782236,-0.174283,-1.71332,-0.158749,-1.177925,0.557188,0.848488,-0.914138,0.574228,0.0
228,1.055229,-1.439523,0.766688,-0.109852,-0.083212,0.607864,0.781991,-0.533962,0.810547,-0.110113,0.551123,-0.169811,-0.2618,-0.299465,0.033357,-0.192411,0.484537,-0.211826,0.199637,0.16007,0.559223,0.924421,-0.216046,-1.863976,-0.19875,-1.020119,0.398539,0.857712,-1.041766,0.573196,0.0
229,1.048092,-1.440593,0.768164,-0.104637,-0.068105,0.610495,0.782118,-0.52153,0.767097,-0.086334,0.536368,-0.173759,-0.2618,-0.328131,-0.005688,-0.183048,0.49288,-0.216064,0.205901,0.171039,0.612171,1.022,-0.253967,-1.976596,-0.208936,-0.836768,0.211564,0.863523,-1.203607,0.618577,0.0
230,1.041169,-1.441167,0.769516,-0.09856,-0.049009,0.61351,0.781978,-0.502413,0.714408,-0.056694,0.512662,-0.192781,-0.2618,-0.368042,-0.051674,-0.168368,0.509068,-0.218258,0.21569,0.158815,0.625057,1.065665,-0.281226,-2.032145,-0.216244,-0.694982,0.065988,0.845245,-1.326798,0.646962,0.0
231,1.032241,-1.443447,0.771264,-0.093064,-0.028094,0.618177,0.780004,-0.506402,0.658323,-0.038167,0.494949,-0.208859,-0.2618,-0.412662,-0.099843,-0.151177,0.519534,-0.218177,0.223834,0.124637,0.607936,1.063257,-0.298187,-2.045823,-0.235174,-0.604599,-0.026879,0.822757,-1.384656,0.657387,0.0
232,1.025241,-1.443617,0.773015,-0.087111,-0.011339,0.623787,0.776642,-0.52254,0.607666,-0.034727,0.494842,-0.21803,-0.2618,-0.441214,-0.142379,-0.140546,0.525426,-0.226469,0.226295,0.091779,0.590657,1.048665,-0.306351,-2.04192,-0.266904,-0.504826,-0.115793,0.781162,-1.441816,0.672944,0.0
233,1.019431,-1.443454,0.774424,-0.080859,0.003879,0.628922,0.773243,-0.536427,0.558539,-0.035905,0.498242,-0.235336,-0.2618,-0.466698,-0.183575,-0.132458,0.533003,-0.239425,0.230974,0.065215,0.570249,1.020698,-0.302978,-2.022969,-0.302383,-0.398444,-0.191933,0.713862,-1.484038,0.692052,0.0
234,1.013075,-1.443614,0.776261,-0.073056,0.016915,0.633651,0.769976,-0.534241,0.511502,-0.027322,0.492269,-0.253212,-0.2618,-0.484175,-0.225076,-0.127221,0.536067,-0.25579,0.231293,0.044618,0.544139,0.977801,-0.300845,-1.994081,-0.342284,-0.291979,-0.25474,0.636207,-1.507166,0.710284,0.0
235,1.007875,-1.444405,0.778457,-0.064863,0.028052,0.638614,0.766276,-0.521504,0.46777,-0.016083,0.47353,-0.266987,-0.2618,-0.496624,-0.262208,-0.121118,0.537056,-0.271308,0.230915,0.021996,0.508529,0.921116,-0.304213,-1.958118,-0.377415,-0.203134,-0.303993,0.573075,-1.507141,0.727099,0.0
236,1.004217,-1.442832,0.780689,-0.055442,0.033571,0.643155,0.762988,-0.49362,0.433858,-0.001656,0.454129,-0.287118,-0.2618,-0.4885,-0.294475,-0.124408,0.533013,-0.286686,0.23191,0.008008,0.474126,0.859014,-0.319331,-1.91099,-0.39616,-0.102434,-0.35306,0.508782,-1.512303,0.73411,0.0
237,1.000712,-1.443369,0.782294,-0.048696,0.040143,0.646592,0.760221,-0.479498,0.402545,0.004732,0.437501,-0.300019,-0.2618,-0.494251,-0.322115,-0.12275,0.534107,-0.295992,0.233736,-0.00062,0.436482,0.794458,-0.328826,-1.861431,-0.368555,-0.026598,-0.390546,0.465169,-1.499372,0.728236,0.0
238,0.997066,-1.443588,0.783322,-0.04399,0.043727,0.649125,0.758149,-0.472836,0.378518,0.000787,0.432182,-0.313591,-0.2618,-0.493712,-0.341094,-0.121558,0.529532,-0.297053,0.235554,-0.001833,0.40472,0.734529,-0.331423,-1.808143,-0.324742,0.042739,-0.4198,0.432994,-1.488762,0.723946,0.0
239,0.992936,-1.444041,0.783754,-0.042052,0.04536,0.649872,0.757523,-0.47768,0.359602,-0.017969,0.442271,-0.330733,-0.2618,-0.492298,-0.354266,-0.124942,0.52166,-0.296561,0.244132,0.004218,0.381067,0.685973,-0.328664,-1.761091,-0.290197,0.099299,-0.440343,0.414032,-1.485941,0.716524,0.0
240,0.987691,-1.443219,0.782963,-0.042425,0.045012,0.647627,0.759443,-0.491534,0.338672,-0.066599,0.472391,-0.360699,-0.2618,-0.492025,-0.361006,-0.125453,0.515126,-0.299175,0.2533,0.021409,0.367785,0.647092,-0.324826,-1.722973,-0.272883,0.144248,-0.457202,0.407895,-1.492922,0.697311,0.0
241,0.979018,-1.440764,0.780742,-0.043366,0.043565,0.639521,0.766312,-0.503936,0.298932,-0.163399,0.523229,-0.407881,-0.2618,-0.498755,-0.366365,-0.11451,0.50933,-0.300192,0.2618,0.055461,0.359241,0.614843,-0.328379,-1.694314,-0.268612,0.181716,-0.478068,0.41091,-1.50998,0.680315,0.0
242,0.969804,-1.436019,0.777058,-0.044677,0.038698,0.624187,0.779036,-0.507578,0.251165,-0.271818,0.599575,-0.457153,-0.2618,-0.508499,-0.362859,-0.092624,0.509061,-0.308798,0.2618,0.106305,0.35616,0.59873,-0.339314,-1.679184,-0.269158,0.220072,-0.501348,0.419254,-1.539898,0.681102,0.0
243,0.96256,-1.434352,0.773592,-0.048182,0.036175,0.60627,0.792974,-0.516064,0.213824,-0.330885,0.668713,-0.475697,-0.2618,-0.536663,-0.350266,-0.061562,0.513177,-0.311785,0.2618,0.1522,0.342747,0.589768,-0.351056,-1.673402,-0.270589,0.234864,-0.51992,0.440358,-1.565979,0.696601,0.0
244,0.953045,-1.434907,0.770577,-0.051495,0.036372,0.589994,0.804943,-0.533181,0.195915,-0.343057,0.716556,-0.485515,-0.231868,-0.567409,-0.339534,-0.026475,0.507211,-0.305247,0.2618,0.179244,0.325976,0.580585,-0.362252,-1.675357,-0.272219,0.232763,-0.539001,0.464375,-1.588067,0.70582,0.0
245,0.937686,-1.433891,0.767111,-0.053417,0.036661,0.572743,0.817171,-0.542945,0.189424,-0.317196,0.754503,-0.506317,-0.224645,-0.590282,-0.337313,0.005513,0.486828,-0.300822,0.2618,0.196475,0.315463,0.574609,-0.371234,-1.683517,-0.271658,0.227121,-0.560511,0.482181,-1.611508,0.70554,0.0
246,0.920065,-1.432345,0.764113,-0.054337,0.037436,0.558731,0.82672,-0.560179,0.182817,-0.278193,0.796678,-0.529234,-0.21057,-0.601623,-0.343968,0.022197,0.455259,-0.305601,0.2618,0.193749,0.309423,0.571654,-0.378393,-1.694351,-0.272017,0.217306,-0.579167,0.493625,-1.631278,0.710791,0.0
247,0.90064,-1.42762,0.761953,-0.05343,0.035525,0.551649,0.831605,-0.57468,0.163543,-0.252506,0.84153,-0.545944,-0.185306,-0.576027,-0.363035,0.011849,0.400964,-0.325651,0.261551,0.170257,0.315827,0.579064,-0.385557,-1.711303,-0.266811,0.21678,-0.584384,0.494753,-1.647757,0.723508,0.0
248,0.882456,-1.425822,0.760319,-0.052081,0.035159,0.551296,0.83194,-0.591728,0.136383,-0.242656,0.872122,-0.552787,-0.164393,-0.542317,-0.385043,-0.012455,0.342668,-0.349618,0.235536,0.128626,0.31479,0.586317,-0.395467,-1.725213,-0.267258,0.215391,-0.575248,0.493317,-1.652761,0.73204,0.0
249,0.866055,-1.426363,0.758341,-0.050689,0.035744,0.549629,0.833103,-0.61129,0.113236,-0.231535,0.898912,-0.555098,-0.152414,-0.520729,-0.405063,-0.046587,0.296346,-0.376245,0.197251,0.091987,0.301822,0.591735,-0.411746,-1.740747,-0.275575,0.216152,-0.563464,0.490485,-1.652687,0.729944,0.0
250,0.850925,-1.430954,0.755741,-0.052507,0.039426,0.542349,0.837583,-0.645793,0.098433,-0.218497,0.927135,-0.551039,-0.138111,-0.54411,-0.41644,-0.08286,0.282543,-0.394929,0.15255,0.071564,0.272582,0.590185,-0.430107,-1.755519,-0.288198,0.211859,-0.550142,0.489962,-1.647532,0.727861,0.0
251,0.837689,-1.436263,0.753559,-0.056772,0.042136,0.530636,0.844646,-0.680064,0.096194,-0.203056,0.952585,-0.546532,-0.117959,-0.582659,-0.416598,-0.12269,0.287061,-0.410247,0.107026,0.067781,0.241528,0.588816,-0.447952,-1.770005,-0.286965,0.211053,-0.539194,0.491161,-1.642845,0.726008,0.0
252,0.827361,-1.442388,0.751812,-0.062345,0.044276,0.517763,0.8521,-0.714045,0.101332,-0.191871,0.974765,-0.539032,-0.095694,-0.615406,-0.407337,-0.159999,0.287179,-0.432315,0.073634,0.073685,0.210792,0.589469,-0.461467,-1.778833,-0.268332,0.211847,-0.534489,0.496952,-1.639069,0.729054,0.0
253,0.818857,-1.44875,0.750905,-0.068093,0.046016,0.505885,0.858677,-0.745448,0.110471,-0.183064,0.991399,-0.53116,-0.081653,-0.637664,-0.394971,-0.206921,0.28349,-0.458406,0.03134,0.084167,0.181891,0.592228,-0.470731,-1.781307,-0.251784,0.21614,-0.537651,0.507025,-1.636891,0.738299,0.0
254,0.809474,-1.456692,0.754438,-0.076313,0.047309,0.488286,0.868052,-0.766971,0.133182,-0.165975,0.983912,-0.516632,-0.071607,-0.667367,-0.371658,-0.288418,0.311921,-0.431408,0.019191,0.110972,0.155332,0.592583,-0.474537,-1.776572,-0.257325,0.220065,-0.544332,0.52347,-1.639239,0.753758,0.0
255,0.800138,-1.466335,0.758833,-0.083661,0.049836,0.466332,0.879233,-0.785389,0.162278,-0.139934,0.968185,-0.497869,-0.064515,-0.693431,-0.346578,-0.373702,0.357418,-0.400771,0.008314,0.149212,0.133984,0.580293,-0.471732,-1.761214,-0.275587,0.220484,-0.557292,0.542213,-1.64266,0.779935,0.0
256,0.791264,-1.476166,0.763943,-0.089486,0.053067,0.445396,0.889269,-0.798578,0.189284,-0.11227,0.944453,-0.474205,-0.058945,-0.701915,-0.32446,-0.426194,0.405973,-0.38825,-0.005345,0.186427,0.115973,0.558927,-0.465007,-1.734039,-0.296805,0.22075,-0.572249,0.559089,-1.648851,0.81013,0.0
257,0.783703,-1.485645,0.77061,-0.094125,0.055223,0.430704,0.895871,-0.801958,0.210518,-0.089758,0.908046,-0.446902,-0.055374,-0.689124,-0.305888,-0.443672,0.457408,-0.38301,-0.015955,0.213552,0.099701,0.536516,-0.457429,-1.700078,-0.313488,0.224879,-0.582932,0.571046,-1.655646,0.831106,0.0
258,0.77961,-1.493808,0.779413,-0.09409,0.053862,0.420943,0.900585,-0.773787,0.226365,-0.062372,0.849012,-0.411122,-0.050891,-0.654504,-0.296041,-0.435666,0.518143,-0.370363,-0.028764,0.233469,0.091636,0.511993,-0.450308,-1.660899,-0.31321,0.245097,-0.596177,0.575071,-1.668397,0.834153,0.0
259,0.774456,-1.50141,0.787152,-0.092075,0.053476,0.41365,0.904188,-0.744863,0.23184,-0.036695,0.7905,-0.376278,-0.04952,-0.618073,-0.300059,-0.427802,0.58531,-0.335402,-0.043099,0.249741,0.085363,0.486495,-0.444476,-1.625968,-0.302903,0.263172,-0.610829,0.576331,-1.680431,0.830861,0.0
260,0.76724,-1.510598,0.792707,-0.091897,0.054924,0.406956,0.907152,-0.735583,0.232898,-0.022636,0.746849,-0.346312,-0.044811,-0.582135,-0.307734,-0.421965,0.650131,-0.327673,-0.041555,0.266397,0.076241,0.467538,-0.441318,-1.60031,-0.300754,0.264743,-0.620034,0.580769,-1.687957,0.830091,0.0
261,0.763869,-1.518707,0.797756,-0.085373,0.05291,0.402322,0.909972,-0.699346,0.232604,0.004697,0.691906,-0.309265,-0.047733,-0.534584,-0.329687,-0.405482,0.730049,-0.320748,-0.045382,0.277939,0.079128,0.453204,-0.439984,-1.577847,-0.301401,0.280918,-0.641075,0.575399,-1.705707,0.8201,0.0
262,0.759565,-1.527545,0.800246,-0.081549,0.052918,0.397948,0.912243,-0.68852,0.233006,0.01993,0.660757,-0.27962,-0.055494,-0.495292,-0.350112,-0.386504,0.807214,-0.283573,-0.051954,0.284466,0.08171,0.446104,-0.434509,-1.557399,-0.309238,0.278051,-0.648098,0.571729,-1.71269,0.817324,0.0
263,0.756817,-1.538187,0.801417,-0.075872,0.052469,0.393415,0.914721,-0.676864,0.233885,0.034851,0.632291,-0.247402,-0.062506,-0.452532,-0.366895,-0.362602,0.87347,-0.240364,-0.034857,0.286257,0.092291,0.443493,-0.425175,-1.533273,-0.314067,0.273412,-0.648852,0.562377,-1.711234,0.814362,0.0
264,0.755607,-1.550392,0.801775,-0.065745,0.050587,0.390447,0.91688,-0.653365,0.230806,0.054937,0.598156,-0.213582,-0.07408,-0.399598,-0.365278,-0.312121,0.909596,-0.208956,0.026008,0.279698,0.114705,0.443759,-0.411144,-1.500599,-0.304404,0.277921,-0.650059,0.543941,-1.706083,0.808947,0.0
265,0.750385,-1.564201,0.80056,-0.060601,0.052097,0.387753,0.918292,-0.660096,0.227981,0.064446,0.579014,-0.179921,-0.070466,-0.36452,-0.332499,-0.239646,0.904581,-0.115799,0.110803,0.267663,0.123384,0.44309,-0.400074,-1.448054,-0.30301,0.257181,-0.623368,0.539019,-1.690779,0.816925,0.0
266,0.750445,-1.579788,0.799789,-0.053861,0.052924,0.383069,0.920628,-0.652955,0.230978,0.075507,0.550304,-0.150556,-0.07692,-0.311575,-0.282489,-0.177737,0.83632,0.026605,0.222356,0.257545,0.134008,0.452424,-0.389094,-1.399894,-0.305744,0.243163,-0.610413,0.527494,-1.675049,0.820561,0.0
267,0.750603,-1.598334,0.797298,-0.045782,0.056063,0.371256,0.925705,-0.650718,0.238467,0.090483,0.528438,-0.128948,-0.090706,-0.243676,-0.266805,-0.2168,0.724583,-0.051281,0.250186,0.260866,0.149457,0.466351,-0.373641,-1.365415,-0.308693,0.234846,-0.617859,0.510954,-1.659924,0.818105,0.0
268,0.75006,-1.619319,0.794598,-0.042371,0.060463,0.36102,0.929631,-0.663967,0.254388,0.099459,0.507766,-0.10669,-0.109304,-0.185352,-0.244232,-0.269932,0.618486,-0.172444,0.251842,0.261644,0.161402,0.477572,-0.360706,-1.329749,-0.313527,0.223952,-0.610503,0.498702,-1.650659,0.813674,0.0
269,0.750856,-1.641213,0.793215,-0.042846,0.065707,0.353066,0.932304,-0.68021,0.278111,0.10892,0.479673,-0.09372,-0.135396,-0.156056,-0.213699,-0.319736,0.538204,-0.274407,0.236674,0.25832,0.169094,0.490817,-0.347242,-1.303421,-0.325892,0.208584,-0.596586,0.488986,-1.63734,0.805902,0.0
270,0.751013,-1.663309,0.7926,-0.046677,0.073431,0.347681,0.933567,-0.709445,0.302988,0.115672,0.455359,-0.097486,-0.153817,-0.166489,-0.180673,-0.343367,0.496014,-0.331939,0.213565,0.25131,0.168646,0.495644,-0.334228,-1.283077,-0.358137,0.184993,-0.576609,0.48023,-1.611061,0.797231,0.0
271,0.75543,-1.686083,0.792766,-0.052201,0.079316,0.348334,0.932549,-0.729853,0.327655,0.114658,0.417387,-0.110503,-0.164486,-0.181198,-0.138412,-0.355093,0.472818,-0.370481,0.179747,0.231805,0.177611,0.496242,-0.313092,-1.272471,-0.403855,0.16717,-0.552252,0.464636,-1.573791,0.779411,0.0
272,0.75977,-1.707042,0.793436,-0.056362,0.085289,0.356469,0.928697,-0.74477,0.335181,0.107102,0.37122,-0.138213,-0.158629,-0.206567,-0.106931,-0.364344,0.475074,-0.384784,0.151304,0.19562,0.191189,0.490978,-0.294052,-1.274181,-0.433857,0.153442,-0.525162,0.446365,-1.525131,0.762739,0.0
273,0.761831,-1.726369,0.793205,-0.058619,0.092779,0.363933,0.924937,-0.757417,0.33417,0.107746,0.32794,-0.177239,-0.145272,-0.24988,-0.091325,-0.371704,0.503297,-0.395404,0.127026,0.160637,0.20702,0.485301,-0.278926,-1.29181,-0.435082,0.146044,-0.500697,0.421407,-1.470761,0.744291,0.0
274,0.760857,-1.743837,0.791491,-0.059391,0.102574,0.369988,0.921445,-0.776816,0.330466,0.132167,0.300148,-0.227226,-0.128436,-0.304173,-0.087742,-0.37661,0.541562,-0.41305,0.104294,0.132942,0.221132,0.485241,-0.274255,-1.322764,-0.42511,0.145948,-0.482646,0.386742,-1.416382,0.726014,0.0
275,0.758499,-1.75852,0.789951,-0.058664,0.112131,0.379436,0.916522,-0.80029,0.323832,0.184359,0.293694,-0.279,-0.099463,-0.354837,-0.092179,-0.383656,0.578897,-0.428055,0.083909,0.103408,0.231516,0.49064,-0.284334,-1.35847,-0.42317,0.156107,-0.476148,0.343438,-1.363165,0.705968,0.0
276,0.755087,-1.770489,0.790551,-0.05551,0.120649,0.391772,0.910427,-0.821454,0.312803,0.264347,0.312563,-0.283736,-0.086474,-0.39522,-0.106277,-0.397878,0.606519,-0.429547,0.06896,0.074832,0.238711,0.498069,-0.305866,-1.391931,-0.436854,0.177432,-0.482964,0.296916,-1.304043,0.689575,0.0
277,0.751127,-1.779784,0.792852,-0.049591,0.127204,0.404479,0.904299,-0.832886,0.292874,0.301249,0.350065,-0.23965,-0.101881,-0.42349,-0.1281,-0.413081,0.624944,-0.422354,0.059725,0.049342,0.245035,0.504478,-0.32687,-1.419213,-0.458927,0.205769,-0.496266,0.255593,-1.234981,0.681254,0.0
278,0.746923,-1.787094,0.796154,-0.042182,0.130741,0.416155,0.898856,-0.817204,0.261223,0.289736,0.376118,-0.2192,-0.148621,-0.439623,-0.15181,-0.426578,0.636196,-0.409272,0.054262,0.028825,0.250955,0.507138,-0.340638,-1.439211,-0.477026,0.236877,-0.511175,0.229345,-1.164885,0.689981,0.0
279,0.74353,-1.791456,0.800358,-0.032538,0.131087,0.425962,0.894603,-0.777811,0.224859,0.255699,0.400567,-0.198585,-0.199378,-0.438003,-0.175601,-0.435673,0.634834,-0.394154,0.052632,0.014143,0.256738,0.501551,-0.347775,-1.450382,-0.488388,0.27208,-0.527192,0.213511,-1.114726,0.706096,0.0
280,0.739965,-1.793843,0.804659,-0.021563,0.129163,0.431957,0.892337,-0.723997,0.188843,0.210084,0.43026,-0.167775,-0.239188,-0.426671,-0.198566,-0.437343,0.626562,-0.379328,0.056694,0.008372,0.259976,0.488041,-0.351501,-1.454452,-0.486848,0.313368,-0.543745,0.200118,-1.090084,0.703563,0.0
281,0.734194,-1.795733,0.807574,-0.01177,0.126456,0.435804,0.891036,-0.673362,0.152626,0.158769,0.475013,-0.150694,-0.261799,-0.417664,-0.220538,-0.435553,0.620622,-0.370082,0.06202,0.00743,0.260117,0.476504,-0.354595,-1.456909,-0.477312,0.356218,-0.561235,0.187796,-1.087661,0.674386,0.0
282,0.725176,-1.797146,0.808874,-0.004941,0.124163,0.439397,0.889657,-0.636525,0.114372,0.107326,0.536274,-0.150763,-0.2618,-0.417622,-0.242355,-0.434608,0.621328,-0.364443,0.066239,0.005509,0.257627,0.472335,-0.35537,-1.462894,-0.473155,0.391138,-0.577576,0.181406,-1.098218,0.637863,0.0
283,0.715499,-1.798815,0.808864,-0.000963,0.122435,0.44212,0.88856,-0.608795,0.076761,0.053527,0.603831,-0.151207,-0.2618,-0.422622,-0.259683,-0.433319,0.624284,-0.363646,0.07225,0.001727,0.254539,0.476226,-0.353756,-1.472879,-0.471603,0.412829,-0.592908,0.184868,-1.113264,0.617586,0.0
284,0.706216,-1.800305,0.808416,0.001394,0.120253,0.443988,0.887926,-0.575129,0.036966,-0.004637,0.657334,-0.171424,-0.2618,-0.426067,-0.271007,-0.428433,0.623654,-0.364077,0.078092,-0.004577,0.252551,0.485411,-0.350186,-1.484126,-0.476846,0.420213,-0.604089,0.194059,-1.126007,0.614057,0.0
285,0.700487,-1.803341,0.807509,0.001394,0.117296,0.442768,0.88893,-0.534285,0.00635,-0.059992,0.689029,-0.206016,-0.2618,-0.428815,-0.269542,-0.422074,0.621739,-0.366678,0.078122,-0.008735,0.251365,0.496847,-0.344435,-1.494237,-0.480784,0.411089,-0.604722,0.205722,-1.13283,0.619241,0.0
286,0.698168,-1.809922,0.806056,-0.001586,0.116217,0.436936,0.891952,-0.492772,-0.011583,-0.109146,0.676323,-0.228124,-0.2618,-0.445584,-0.255376,-0.408354,0.627451,-0.372281,0.069022,-0.007311,0.242757,0.504333,-0.339657,-1.49866,-0.474793,0.380657,-0.59298,0.21481,-1.133856,0.628857,0.0
287,0.695632,-1.815751,0.804498,-0.009139,0.111932,0.427498,0.897013,-0.433873,-0.004024,-0.126121,0.596731,-0.279218,-0.146431,-0.457003,-0.226641,-0.393729,0.628112,-0.371979,0.057251,-0.004817,0.250099,0.523594,-0.323096,-1.50936,-0.451172,0.344687,-0.569781,0.227528,-1.144931,0.640692,0.0
288,0.686598,-1.81702,0.805307,-0.015549,0.110762,0.416159,0.902387,-0.385756,0.013185,-0.073132,0.510296,-0.324395,-0.117331,-0.474505,-0.210152,-0.37113,0.61807,-0.352805,0.057416,-0.00384,0.257721,0.537011,-0.31069,-1.525726,-0.423502,0.298933,-0.547421,0.240539,-1.161282,0.647,0.0
289,0.677385,-1.817564,0.807021,-0.021975,0.110711,0.401751,0.908766,-0.35224,0.025511,-0.0185,0.443246,-0.348253,-0.094037,-0.491931,-0.190236,-0.343323,0.599819,-0.327587,0.05605,-0.000561,0.26358,0.552271,-0.305074,-1.542483,-0.39667,0.253663,-0.530908,0.258185,-1.184207,0.64231,0.0
290,0.666577,-1.818696,0.809055,-0.025914,0.115372,0.386875,0.914519,-0.342841,0.024162,0.020262,0.398153,-0.347338,-0.078635,-0.520165,-0.178729,-0.31271,0.581927,-0.309004,0.055831,0.003026,0.255771,0.557686,-0.308924,-1.551387,-0.387673,0.208546,-0.521458,0.274195,-1.206698,0.639631,0.0
291,0.655342,-1.818869,0.810497,-0.029611,0.119201,0.373735,0.919367,-0.338436,0.022286,0.046266,0.363056,-0.344007,-0.075088,-0.537955,-0.166774,-0.288051,0.554563,-0.296011,0.055278,0.00996,0.244651,0.562567,-0.317559,-1.560024,-0.380077,0.173026,-0.514442,0.290648,-1.23427,0.640189,0.0
292,0.645424,-1.818385,0.812008,-0.033283,0.119261,0.366761,0.922039,-0.335532,0.0219,0.060567,0.341813,-0.338719,-0.071935,-0.54153,-0.156693,-0.273425,0.526935,-0.277276,0.058808,0.016979,0.231228,0.571378,-0.327343,-1.571733,-0.357247,0.148302,-0.50799,0.308473,-1.267102,0.639579,0.0
293,0.636545,-1.817019,0.813415,-0.036787,0.11673,0.363962,0.923338,-0.334072,0.021286,0.064426,0.331684,-0.335267,-0.064714,-0.535663,-0.150459,-0.269094,0.502179,-0.257506,0.066087,0.027594,0.213991,0.576647,-0.331171,-1.580032,-0.316089,0.131865,-0.50413,0.324881,-1.299071,0.635362,0.0
294,0.62789,-1.816212,0.814239,-0.040052,0.113883,0.364825,0.923217,-0.340844,0.020076,0.061248,0.334924,-0.335562,-0.05784,-0.530178,-0.148717,-0.273124,0.484674,-0.244405,0.076724,0.040368,0.192216,0.565673,-0.326101,-1.575966,-0.281928,0.125242,-0.503358,0.337702,-1.327515,0.631178,0.0
295,0.619406,-1.815967,0.813967,-0.042606,0.111991,0.367667,0.922206,-0.356202,0.01792,0.055039,0.349518,-0.339988,-0.056909,-0.528978,-0.151947,-0.281002,0.479277,-0.258135,0.090432,0.055837,0.167041,0.53575,-0.313809,-1.560289,-0.273236,0.126481,-0.507377,0.3477,-1.353813,0.633208,0.0
296,0.611698,-1.815533,0.813274,-0.044492,0.110799,0.370157,0.921264,-0.372584,0.015418,0.051744,0.367162,-0.34843,-0.062543,-0.530782,-0.156416,-0.294899,0.500207,-0.295849,0.07616,0.073639,0.142343,0.498952,-0.298729,-1.5385,-0.2827,0.128365,-0.515907,0.35968,-1.376783,0.640442,0.0
297,0.606308,-1.816248,0.812276,-0.045382,0.110033,0.371026,0.920963,-0.388252,0.016399,0.05508,0.387188,-0.360474,-0.076952,-0.537392,-0.160324,-0.313457,0.567982,-0.313517,0.069572,0.090827,0.122823,0.462699,-0.28046,-1.50941,-0.294261,0.126947,-0.527305,0.373988,-1.391649,0.648132,0.0
298,0.600306,-1.817078,0.81037,-0.044684,0.111131,0.369462,0.921494,-0.410024,0.013004,0.062665,0.41418,-0.36944,-0.081856,-0.541197,-0.16843,-0.348338,0.649848,-0.34456,0.064556,0.10912,0.109205,0.430808,-0.262628,-1.471415,-0.287394,0.124598,-0.539818,0.383893,-1.395556,0.656563,0.0
299,0.597014,-1.816977,0.806639,-0.041286,0.109349,0.373679,0.920164,-0.429705,0.005658,0.057624,0.456376,-0.385344,-0.086424,-0.52536,-0.174396,-0.376463,0.728923,-0.343446,0.101847,0.114361,0.107575,0.412948,-0.253614,-1.426782,-0.233298,0.137069,-0.548615,0.38365,-1.395744,0.657592,0.0
300,0.593153,-1.814207,0.801352,-0.038621,0.107725,0.382857,0.916692,-0.459832,-0.007168,0.041022,0.517772,-0.410561,-0.088376,-0.504736,-0.155247,-0.36319,0.765105,-0.321525,0.068614,0.109939,0.114422,0.411757,-0.253737,-1.394484,-0.152303,0.146058,-0.545183,0.379756,-1.385718,0.657077,0.0
