chrisxuxuhui/mimic_robot/GMR/RetargetData/lafan1/csv/pm01/fight1_subject3_cut2.csv
frame,root pos x,root pos y,root pos z,root rot x,root rot y,root rot z,root rot w,j00_hip_pitch_l_joint,j01_hip_roll_l_joint,j02_hip_yaw_l_joint,j03_knee_pitch_l_joint,j04_ankle_pitch_l_joint,j05_ankle_roll_l_joint,j06_hip_pitch_r_joint,j07_hip_roll_r_joint,j08_hip_yaw_r_joint,j09_knee_pitch_r_joint,j10_ankle_pitch_r_joint,j11_ankle_roll_r_joint,j12_waist_yaw_joint,j13_shoulder_pitch_l_joint,j14_shoulder_roll_l_joint,j15_shoulder_yaw_l_joint,j16_elbow_pitch_l_joint,j17_elbow_yaw_l_joint,j18_shoulder_pitch_r_joint,j19_shoulder_roll_r_joint,j20_shoulder_yaw_r_joint,j21_elbow_pitch_r_joint,j22_elbow_yaw_r_joint,j23_head_yaw_joint
0,-0.291352,-1.41291,0.693203,-0.063144,-0.246613,-0.385718,0.886801,-0.389566,0.499942,0.233941,0.911537,0.085226,-0.2618,-0.044627,-0.593212,-0.273025,1.189503,-0.502164,0.2618,0.225174,0.37331,0.198265,0.169785,-1.878071,-0.449173,0.38557,-0.566948,-0.135466,-1.540428,0.851065,0.0
1,-0.30852,-1.39284,0.698167,-0.070558,-0.243465,-0.379023,0.889993,-0.346722,0.570931,0.336987,1.059751,-0.117837,-0.181208,-0.05821,-0.569783,-0.293048,1.151746,-0.475818,0.255238,0.171568,0.432057,0.215806,0.189838,-1.831854,-0.447464,0.421032,-0.572354,-0.218826,-1.490003,0.818981,0.0
2,-0.327101,-1.364912,0.70579,-0.075325,-0.242168,-0.37455,0.891848,-0.285431,0.607031,0.364626,1.202379,-0.233927,-0.072013,-0.087322,-0.559398,-0.303599,1.10467,-0.41775,0.237234,0.102039,0.485563,0.219172,0.207273,-1.780133,-0.43693,0.426729,-0.596348,-0.281081,-1.432373,0.792109,0.0
3,-0.344404,-1.336273,0.712771,-0.077855,-0.237812,-0.378571,0.891105,-0.214881,0.614607,0.327629,1.337156,-0.271591,-0.071197,-0.135691,-0.550094,-0.295166,1.056923,-0.373779,0.23448,0.029336,0.531126,0.227844,0.222043,-1.749734,-0.464756,0.413663,-0.61925,-0.329882,-1.392143,0.800966,0.0
4,-0.363153,-1.309162,0.714144,-0.083986,-0.227474,-0.382229,0.891685,-0.139205,0.655981,0.301099,1.451305,-0.262075,-0.039745,-0.203454,-0.528007,-0.285405,1.033,-0.353783,0.206725,-0.055932,0.54328,0.258144,0.242808,-1.732404,-0.477582,0.390678,-0.630595,-0.369219,-1.365338,0.789783,0.0
5,-0.382098,-1.280317,0.709509,-0.09522,-0.211199,-0.383601,0.893968,-0.059457,0.702372,0.272415,1.492208,-0.196593,0.003523,-0.283361,-0.498747,-0.283351,1.021272,-0.319982,0.180209,-0.136624,0.503871,0.333706,0.259921,-1.715747,-0.451716,0.379928,-0.613486,-0.419484,-1.339891,0.744327,0.0
6,-0.400917,-1.248834,0.70379,-0.115247,-0.185765,-0.382435,0.897749,0.008537,0.725215,0.224349,1.394295,0.015416,-0.036663,-0.34499,-0.443194,-0.307181,0.982759,-0.267762,0.169305,-0.19298,0.369512,0.486982,0.251278,-1.686439,-0.382863,0.398823,-0.54269,-0.499683,-1.311269,0.6827,0.0
7,-0.411506,-1.198669,0.699616,-0.133363,-0.151209,-0.368712,0.907415,0.04187,0.685564,0.148163,1.250719,-0.092257,-0.2618,-0.39554,-0.406081,-0.350291,0.890494,-0.19474,0.159643,-0.234315,0.15118,0.657329,0.204536,-1.68242,-0.280702,0.46345,-0.423522,-0.615391,-1.294953,0.613274,0.0
8,-0.422722,-1.149659,0.691038,-0.146491,-0.105896,-0.348254,0.919807,-0.015803,0.709903,0.158376,1.192012,-0.525811,-0.2618,-0.466755,-0.375112,-0.392955,0.798425,-0.11989,0.140557,-0.243567,-0.105705,0.781535,0.129757,-1.719378,-0.236653,0.579293,-0.307634,-0.705574,-1.266898,0.48999,0.0
9,-0.446376,-1.124485,0.690658,-0.150257,-0.066544,-0.327773,0.930354,-0.166751,0.736502,0.111423,1.123692,-0.6807,-0.2618,-0.521005,-0.337606,-0.44405,0.719603,-0.091025,0.098836,-0.212026,-0.300374,0.754198,0.068288,-1.824259,-0.312882,0.706801,-0.338437,-0.621415,-1.131323,0.306453,0.0
10,-0.452253,-1.09847,0.692426,-0.151076,-0.055942,-0.340705,0.926265,-0.284683,0.726033,0.062705,1.193942,-0.6807,-0.2618,-0.533805,-0.298938,-0.431155,0.637956,-0.150068,0.092948,-0.100333,-0.413941,0.623263,0.009331,-1.906179,-0.413271,0.826757,-0.457812,-0.297705,-1.0009,0.161689,0.0
11,-0.469943,-1.078219,0.693631,-0.144375,-0.040418,-0.351461,0.92412,-0.410196,0.720982,0.026695,1.224346,-0.67984,-0.2618,-0.556195,-0.280304,-0.473483,0.57362,-0.228158,0.122307,-0.013084,-0.497222,0.488285,-0.00395,-1.943406,-0.423603,0.894104,-0.542278,-0.018623,-0.994286,0.308866,0.0
12,-0.489104,-1.056505,0.698937,-0.144776,-0.031813,-0.381469,0.912419,-0.451055,0.733316,0.052161,1.226625,-0.657262,-0.2618,-0.563698,-0.275637,-0.58045,0.57391,-0.252485,0.114185,0.091634,-0.528183,0.39642,0.009155,-1.947968,-0.347127,0.90392,-0.563125,0.108886,-0.991048,0.307663,0.0
13,-0.508028,-1.036198,0.706774,-0.157535,-0.031025,-0.406682,0.89935,-0.462639,0.769258,0.078088,1.215237,-0.620872,-0.2618,-0.55823,-0.259739,-0.566274,0.673676,-0.218109,0.047639,0.161965,-0.493035,0.368769,0.029475,-1.941812,-0.246713,0.853605,-0.544188,0.150747,-0.99778,0.289098,0.0
14,-0.528306,-1.019339,0.717183,-0.172143,-0.034991,-0.416864,0.891833,-0.47257,0.797829,0.079309,1.183388,-0.573509,-0.2618,-0.526299,-0.256633,-0.496857,0.81468,-0.191947,0.02377,0.188345,-0.400711,0.371715,0.06474,-1.929634,-0.154739,0.788688,-0.514921,0.127477,-1.028914,0.374985,0.0
15,-0.54858,-1.001084,0.727946,-0.184963,-0.040878,-0.422864,0.886173,-0.481086,0.81614,0.078277,1.146299,-0.529794,-0.2618,-0.465413,-0.275233,-0.458476,0.945283,-0.167755,-0.023588,0.204023,-0.299011,0.392857,0.096879,-1.890019,-0.119031,0.730196,-0.485156,0.082808,-1.098379,0.502913,0.0
16,-0.567882,-0.980599,0.738158,-0.193089,-0.048563,-0.427052,0.882034,-0.480645,0.818466,0.089759,1.1088,-0.50114,-0.232987,-0.387913,-0.316571,-0.437464,1.066801,-0.127912,-0.090982,0.219794,-0.199572,0.414274,0.11444,-1.833173,-0.138951,0.674268,-0.46102,0.045921,-1.178433,0.6156,0.0
17,-0.58487,-0.959983,0.747042,-0.196801,-0.057727,-0.430064,0.879194,-0.464729,0.804955,0.112027,1.071619,-0.487468,-0.203198,-0.30698,-0.352121,-0.390076,1.174042,-0.048326,-0.11993,0.236564,-0.101713,0.426718,0.123212,-1.784614,-0.225995,0.627073,-0.448183,0.026469,-1.261007,0.676699,0.0
18,-0.601562,-0.938746,0.752577,-0.195274,-0.066781,-0.436046,0.875941,-0.449784,0.78664,0.144106,1.043945,-0.484927,-0.181633,-0.230158,-0.377286,-0.33773,1.257669,0.055471,-0.128211,0.257815,-0.012488,0.426265,0.14218,-1.753426,-0.340842,0.57703,-0.454158,0.031246,-1.337892,0.690892,0.0
19,-0.618742,-0.916547,0.755227,-0.189885,-0.074936,-0.442934,0.873005,-0.451217,0.762992,0.170458,1.026494,-0.48813,-0.154622,-0.149917,-0.396491,-0.306417,1.31498,0.179703,-0.096188,0.279363,0.071636,0.411605,0.171413,-1.724059,-0.340912,0.52197,-0.474959,0.057558,-1.407563,0.692411,0.0
20,-0.637755,-0.8949,0.754714,-0.18233,-0.080888,-0.451019,0.86994,-0.471818,0.742945,0.186307,1.015908,-0.483712,-0.13513,-0.072502,-0.384508,-0.276256,1.336547,0.327364,-0.007053,0.301674,0.147095,0.387721,0.199627,-1.694826,-0.23781,0.467263,-0.503905,0.092332,-1.480511,0.699068,0.0
21,-0.662036,-0.875137,0.752891,-0.174714,-0.08533,-0.462081,0.86526,-0.500023,0.732508,0.196086,1.000442,-0.466907,-0.118537,0.005335,-0.323079,-0.245128,1.300303,0.471039,0.108448,0.326981,0.205077,0.360059,0.217585,-1.676887,-0.183724,0.409299,-0.536746,0.1268,-1.553708,0.705941,0.0
22,-0.690169,-0.855717,0.747258,-0.165825,-0.089344,-0.479112,0.857305,-0.534748,0.733774,0.206861,0.992681,-0.449226,-0.112238,0.080094,-0.24712,-0.2294,1.208358,0.534158,0.167611,0.364777,0.24064,0.330778,0.223104,-1.680335,-0.201389,0.350805,-0.572154,0.152723,-1.630577,0.708637,0.0
23,-0.712564,-0.834206,0.73558,-0.15175,-0.08982,-0.502881,0.846177,-0.592848,0.738051,0.217699,1.011838,-0.421039,-0.086663,0.145197,-0.225086,-0.276781,1.057742,0.622634,0.087588,0.42082,0.253349,0.298287,0.21273,-1.707097,-0.230305,0.305324,-0.613434,0.148917,-1.725571,0.707395,0.0
24,-0.746289,-0.810993,0.719916,-0.134894,-0.085168,-0.536522,0.82867,-0.675833,0.769296,0.224796,1.02508,-0.382495,-0.078335,0.218188,-0.22776,-0.317785,1.004182,0.119514,0.182595,0.489013,0.249922,0.267447,0.208988,-1.73493,-0.208917,0.250998,-0.657025,0.142558,-1.822977,0.693733,0.0
25,-0.77954,-0.791458,0.708662,-0.120433,-0.081836,-0.555136,0.818916,-0.744133,0.778698,0.218743,1.010961,-0.360034,-0.061926,0.276986,-0.22172,-0.369331,0.937816,-0.308116,0.2618,0.514218,0.236343,0.246021,0.208162,-1.774508,-0.16677,0.193527,-0.694724,0.141532,-1.903401,0.67203,0.0
26,-0.805777,-0.773074,0.699811,-0.107875,-0.079375,-0.565741,0.813633,-0.793709,0.78129,0.227278,0.991136,-0.347402,-0.041595,0.283345,-0.218378,-0.407637,0.891325,-0.554185,0.2618,0.52407,0.193796,0.232217,0.198712,-1.83283,-0.181175,0.144491,-0.709706,0.146566,-1.954607,0.665984,0.0
27,-0.822805,-0.753933,0.693544,-0.094723,-0.075375,-0.573339,0.810326,-0.831274,0.778183,0.257779,0.970261,-0.329001,-0.013159,0.232285,-0.240699,-0.430024,0.907,-0.680685,0.2618,0.522026,0.132884,0.213729,0.182692,-1.902714,-0.191145,0.1095,-0.708452,0.16164,-1.97282,0.665498,0.0
28,-0.834736,-0.735968,0.695431,-0.084843,-0.070273,-0.56461,0.817973,-0.837303,0.762165,0.326221,0.923131,-0.328188,0.002646,0.19258,-0.242801,-0.446723,0.900954,-0.6807,0.2618,0.471446,0.067949,0.217777,0.156381,-1.987263,-0.175326,0.087157,-0.696408,0.184868,-1.959695,0.678805,0.0
29,-0.844984,-0.71951,0.696968,-0.075973,-0.068247,-0.547875,0.830303,-0.825462,0.749655,0.423188,0.887205,-0.351876,0.011792,0.16426,-0.250374,-0.476588,0.906222,-0.6807,0.2618,0.40212,-0.006649,0.248299,0.123587,-2.071255,-0.123352,0.081321,-0.676238,0.20315,-1.927023,0.7157,0.0
30,-0.852394,-0.705181,0.700404,-0.064582,-0.071577,-0.536739,0.838223,-0.809455,0.727123,0.458152,0.887499,-0.32184,0.014839,0.132675,-0.278633,-0.491063,0.927166,-0.6807,0.2618,0.350065,-0.089935,0.281145,0.088972,-2.144402,-0.077458,0.092858,-0.652017,0.214022,-1.885242,0.760498,0.0
31,-0.857205,-0.692967,0.70602,-0.048351,-0.081079,-0.532943,0.840869,-0.791289,0.676323,0.38522,0.921155,-0.261353,-0.004404,0.105416,-0.324896,-0.486895,0.943416,-0.6807,0.261576,0.315376,-0.181662,0.309508,0.051923,-2.1948,-0.088757,0.121013,-0.638855,0.216841,-1.83849,0.785532,0.0
32,-0.861154,-0.68003,0.712481,-0.033055,-0.092113,-0.529881,0.842407,-0.746394,0.64016,0.348069,0.955957,-0.223775,-0.05018,0.081412,-0.370217,-0.476698,0.954054,-0.6807,0.259662,0.28157,-0.297363,0.335937,0.005987,-2.1948,-0.137575,0.152682,-0.626227,0.211583,-1.78016,0.787618,0.0
33,-0.864672,-0.668297,0.718882,-0.019741,-0.10191,-0.526816,0.843617,-0.690967,0.617353,0.326138,0.982596,-0.212794,-0.040587,0.059748,-0.409056,-0.465946,0.960784,-0.6807,0.251912,0.247957,-0.391732,0.348832,-0.031105,-2.1948,-0.155763,0.18066,-0.607447,0.195749,-1.703058,0.775232,0.0
34,-0.867005,-0.658052,0.724905,-0.008011,-0.109995,-0.523362,0.844943,-0.630628,0.60631,0.312175,1.000885,-0.210173,-0.037435,0.042448,-0.44351,-0.458005,0.962987,-0.6807,0.248324,0.216554,-0.465937,0.345035,-0.060698,-2.1948,-0.144366,0.212796,-0.5901,0.165352,-1.616138,0.763033,0.0
35,-0.868255,-0.64785,0.729136,0.002025,-0.115211,-0.518603,0.847215,-0.580798,0.600011,0.300316,1.010861,-0.201163,-0.035752,0.020706,-0.476284,-0.452014,0.971218,-0.6807,0.248862,0.188157,-0.540555,0.331408,-0.098919,-2.1948,-0.18136,0.247752,-0.57761,0.120389,-1.516312,0.753249,0.0
36,-0.868042,-0.636738,0.731534,0.010325,-0.117752,-0.513456,0.849936,-0.540534,0.591199,0.277753,1.011513,-0.187437,-0.072794,-0.007684,-0.507668,-0.443296,0.9848,-0.6807,0.253495,0.16395,-0.612865,0.318709,-0.14684,-2.1948,-0.244612,0.278786,-0.565612,0.07023,-1.393825,0.730921,0.0
37,-0.865809,-0.62483,0.7343,0.016815,-0.116816,-0.507168,0.853728,-0.501173,0.576141,0.253446,0.994934,-0.192563,-0.102639,-0.03503,-0.533123,-0.438225,0.988885,-0.665716,0.259307,0.141601,-0.672235,0.309854,-0.199032,-2.1948,-0.273112,0.303894,-0.55601,0.017984,-1.250002,0.695159,0.0
38,-0.862015,-0.6124,0.736176,0.023015,-0.114354,-0.499239,0.858577,-0.460846,0.557347,0.238576,0.964564,-0.188777,-0.129793,-0.064735,-0.558455,-0.432345,0.993978,-0.64531,0.261114,0.121268,-0.719415,0.303448,-0.250645,-2.1948,-0.285818,0.330848,-0.563439,-0.026088,-1.091089,0.627083,0.0
39,-0.856829,-0.599973,0.736332,0.029559,-0.110768,-0.490259,0.864004,-0.422658,0.525013,0.214422,0.923044,-0.150655,-0.177105,-0.097529,-0.58645,-0.424541,1.003152,-0.629801,0.261653,0.101761,-0.763013,0.307153,-0.299855,-2.1948,-0.31118,0.359614,-0.581893,-0.039081,-0.920372,0.541538,0.0
40,-0.850065,-0.587075,0.736066,0.038037,-0.107714,-0.480129,0.869728,-0.386358,0.457236,0.155661,0.865834,-0.014479,-0.2618,-0.130021,-0.620885,-0.41396,1.011305,-0.616685,0.2618,0.084136,-0.805411,0.309961,-0.342322,-2.1948,-0.364567,0.391066,-0.607161,-0.006146,-0.752859,0.473722,0.0
41,-0.833324,-0.559766,0.738289,0.051895,-0.105943,-0.463724,0.87809,-0.359862,0.357215,0.127967,0.794898,0.160902,-0.2618,-0.172323,-0.686581,-0.39595,1.000943,-0.574111,0.2618,0.063284,-0.842536,0.297912,-0.370467,-2.1948,-0.405376,0.427399,-0.632443,0.062745,-0.616936,0.473111,0.0
42,-0.828473,-0.546199,0.735031,0.060536,-0.101666,-0.448243,0.886046,-0.30167,0.312183,0.18637,0.704967,-0.033695,-0.2618,-0.20673,-0.724376,-0.390405,1.017941,-0.569341,0.2618,0.044501,-0.875707,0.293598,-0.384412,-2.1948,-0.430394,0.466049,-0.630019,0.14098,-0.530721,0.528945,0.0
43,-0.825559,-0.53624,0.72988,0.062063,-0.094246,-0.429531,0.895974,-0.315158,0.294006,0.196783,0.679644,-0.142594,-0.2618,-0.219974,-0.744172,-0.409385,1.039213,-0.567902,0.2618,0.0167,-0.907286,0.296583,-0.392675,-2.1948,-0.439352,0.498626,-0.605796,0.189587,-0.483646,0.566889,0.0
44,-0.820353,-0.528246,0.726543,0.059719,-0.087727,-0.412969,0.904541,-0.376736,0.286623,0.161749,0.724605,-0.178613,-0.2618,-0.210826,-0.754242,-0.440325,1.047,-0.557759,0.2618,-0.006003,-0.918976,0.301699,-0.392883,-2.1948,-0.437864,0.521819,-0.572704,0.202064,-0.448072,0.552492,0.0
45,-0.811526,-0.521918,0.727966,0.053392,-0.082905,-0.40667,0.908237,-0.418888,0.285617,0.126541,0.76937,-0.184613,-0.2618,-0.181368,-0.745885,-0.470155,1.021001,-0.536327,0.2618,-0.004345,-0.915157,0.314737,-0.397377,-2.1948,-0.439904,0.532435,-0.527178,0.188289,-0.422393,0.5271,0.0
46,-0.804875,-0.516345,0.731875,0.044605,-0.076834,-0.405696,0.90968,-0.427764,0.290125,0.110265,0.772367,-0.201137,-0.2618,-0.152337,-0.721851,-0.497782,0.979919,-0.51052,0.2618,0.016684,-0.922509,0.327721,-0.403073,-2.1948,-0.450654,0.532536,-0.474601,0.174713,-0.419774,0.500514,0.0
47,-0.801783,-0.512451,0.73626,0.035344,-0.070899,-0.408402,0.909358,-0.418542,0.302393,0.114067,0.753794,-0.220089,-0.2618,-0.132993,-0.692946,-0.518906,0.940927,-0.486373,0.2618,0.05298,-0.93946,0.321656,-0.396076,-2.1948,-0.452612,0.530224,-0.433521,0.18222,-0.442018,0.465168,0.0
48,-0.798186,-0.508702,0.740745,0.026732,-0.065871,-0.415195,0.906951,-0.410177,0.317703,0.11906,0.744571,-0.227527,-0.2618,-0.122792,-0.664561,-0.525766,0.901166,-0.46197,0.2618,0.103034,-0.96062,0.304524,-0.380859,-2.1948,-0.448443,0.523982,-0.413443,0.203817,-0.479241,0.437742,0.0
49,-0.795112,-0.506025,0.744101,0.017509,-0.059705,-0.420222,0.905286,-0.414133,0.336873,0.116912,0.746544,-0.232788,-0.2618,-0.111483,-0.633592,-0.535401,0.864741,-0.441552,0.2618,0.154226,-0.986018,0.291901,-0.366243,-2.1948,-0.470045,0.511727,-0.412835,0.221677,-0.530001,0.441815,0.0
50,-0.794213,-0.503686,0.746345,0.008427,-0.052558,-0.421936,0.905062,-0.428698,0.356958,0.106462,0.75,-0.235676,-0.2618,-0.10337,-0.603435,-0.548235,0.837122,-0.424475,0.2618,0.205629,-1.009494,0.275618,-0.3581,-2.1948,-0.503084,0.497873,-0.434243,0.233214,-0.595963,0.482364,0.0
51,-0.793723,-0.501053,0.748095,0.000637,-0.045491,-0.42437,0.904345,-0.445356,0.375131,0.096508,0.754178,-0.237543,-0.2618,-0.103589,-0.577216,-0.554409,0.815237,-0.408689,0.2618,0.263654,-1.02837,0.252791,-0.353939,-2.1948,-0.535164,0.483361,-0.472188,0.233333,-0.670882,0.540397,0.0
52,-0.792642,-0.498652,0.749724,-0.006163,-0.039489,-0.42645,0.903628,-0.459755,0.390696,0.088254,0.759904,-0.240803,-0.2618,-0.102258,-0.553813,-0.559061,0.793693,-0.39494,0.2618,0.319123,-1.035754,0.226597,-0.349658,-2.1948,-0.550955,0.470701,-0.519507,0.220261,-0.747251,0.589435,0.0
53,-0.791727,-0.497558,0.751476,-0.012639,-0.034764,-0.426997,0.903496,-0.468377,0.403639,0.078634,0.759361,-0.244226,-0.2618,-0.092244,-0.529823,-0.568066,0.769511,-0.383753,0.2618,0.364722,-1.031942,0.207907,-0.342536,-2.1948,-0.561073,0.458846,-0.566983,0.193778,-0.818417,0.623314,0.0
54,-0.791433,-0.497567,0.753413,-0.019564,-0.031168,-0.426752,0.90362,-0.47113,0.416831,0.068851,0.753847,-0.244056,-0.2618,-0.075845,-0.504087,-0.581257,0.74355,-0.372812,0.2618,0.402454,-1.023429,0.202518,-0.34065,-2.1948,-0.571309,0.44276,-0.605263,0.157698,-0.875435,0.629925,0.0
55,-0.79187,-0.496616,0.755442,-0.026293,-0.027386,-0.426016,0.903919,-0.477428,0.429961,0.058459,0.748436,-0.242179,-0.2618,-0.061984,-0.479247,-0.595373,0.717783,-0.360381,0.2618,0.433314,-1.011088,0.203472,-0.343209,-2.1948,-0.580688,0.415434,-0.632037,0.120036,-0.915926,0.615556,0.0
56,-0.793491,-0.49567,0.757381,-0.032958,-0.022988,-0.424561,0.904507,-0.489303,0.444227,0.04593,0.743239,-0.235867,-0.2618,-0.050824,-0.453391,-0.610763,0.693133,-0.348306,0.2618,0.457991,-0.997443,0.208327,-0.348085,-2.1948,-0.582793,0.377733,-0.646838,0.085411,-0.945025,0.595705,0.0
57,-0.795625,-0.494886,0.759509,-0.039042,-0.018014,-0.422911,0.905151,-0.502081,0.457052,0.031588,0.734611,-0.227934,-0.2618,-0.043105,-0.427748,-0.624261,0.669542,-0.335137,0.2618,0.47944,-0.98391,0.212845,-0.347936,-2.1948,-0.583127,0.338288,-0.656011,0.05391,-0.972763,0.582861,0.0
58,-0.79744,-0.494406,0.76209,-0.043663,-0.012814,-0.422285,0.90532,-0.509536,0.467438,0.022992,0.720278,-0.21817,-0.2618,-0.038181,-0.40398,-0.634649,0.644453,-0.321802,0.2618,0.502877,-0.969979,0.212634,-0.343982,-2.1948,-0.580594,0.306911,-0.664476,0.024856,-1.008472,0.57752,0.0
59,-0.799035,-0.493305,0.764844,-0.046594,-0.007617,-0.421777,0.905469,-0.515806,0.473936,0.017831,0.703719,-0.207776,-0.2618,-0.035928,-0.383569,-0.642055,0.618229,-0.308472,0.2618,0.524065,-0.955758,0.210346,-0.337074,-2.1948,-0.583309,0.283707,-0.670714,3.1e-05,-1.050759,0.581553,0.0
60,-0.801075,-0.492244,0.767111,-0.049289,-0.002167,-0.420582,0.905912,-0.526307,0.480033,0.009898,0.689175,-0.196334,-0.2618,-0.035305,-0.363858,-0.649765,0.595098,-0.297978,0.2618,0.541015,-0.944353,0.208762,-0.330144,-2.1948,-0.580567,0.265002,-0.669544,-0.014876,-1.09523,0.593239,0.0
61,-0.803158,-0.49098,0.769061,-0.051292,0.00389,-0.418247,0.906876,-0.542175,0.484349,-0.000544,0.676503,-0.186037,-0.2618,-0.037504,-0.346401,-0.658234,0.575058,-0.288782,0.2618,0.55375,-0.935335,0.20696,-0.323182,-2.1948,-0.57819,0.252148,-0.662189,-0.017904,-1.141506,0.600915,0.0
62,-0.804811,-0.489157,0.770838,-0.052155,0.010083,-0.415845,0.907883,-0.559783,0.485341,-0.011421,0.66575,-0.178128,-0.2618,-0.04279,-0.333017,-0.665421,0.557811,-0.280139,0.2618,0.563926,-0.924892,0.206001,-0.317891,-2.1948,-0.579201,0.247742,-0.653321,-0.009222,-1.188111,0.601231,0.0
63,-0.806256,-0.488255,0.772334,-0.052422,0.01619,-0.41368,0.908768,-0.57568,0.485383,-0.021979,0.654469,-0.168814,-0.2618,-0.049173,-0.32132,-0.670663,0.54397,-0.274344,0.2618,0.571672,-0.913839,0.205443,-0.315916,-2.1948,-0.573613,0.250503,-0.642243,0.010101,-1.233665,0.601216,0.0
64,-0.80729,-0.487481,0.773664,-0.052382,0.022083,-0.411912,0.909449,-0.590244,0.485064,-0.030928,0.644347,-0.160974,-0.2618,-0.056658,-0.311618,-0.674599,0.532124,-0.267611,0.2618,0.579629,-0.905425,0.204981,-0.313387,-2.1948,-0.565381,0.259298,-0.627817,0.037686,-1.274572,0.609498,0.0
65,-0.808271,-0.486865,0.774917,-0.052516,0.027921,-0.409959,0.910163,-0.605512,0.484927,-0.040153,0.635269,-0.152349,-0.2618,-0.063872,-0.302123,-0.679393,0.521536,-0.261166,0.2618,0.586251,-0.896746,0.204553,-0.310013,-2.1948,-0.564817,0.272284,-0.610862,0.071053,-1.305108,0.626052,0.0
66,-0.809195,-0.486125,0.775932,-0.05303,0.033568,-0.407654,0.910977,-0.621967,0.485345,-0.050553,0.627871,-0.145264,-0.2618,-0.070393,-0.292399,-0.684113,0.511728,-0.254861,0.2618,0.589634,-0.878431,0.204298,-0.302964,-2.1948,-0.558288,0.285916,-0.591873,0.109431,-1.321271,0.649752,0.0
67,-0.809834,-0.485177,0.776988,-0.053825,0.038968,-0.406012,0.911449,-0.638202,0.48654,-0.060013,0.622271,-0.139874,-0.2618,-0.07639,-0.282628,-0.68802,0.500987,-0.247262,0.2618,0.590929,-0.843889,0.202516,-0.28746,-2.1948,-0.538632,0.300834,-0.57552,0.150489,-1.323162,0.668048,0.0
68,-0.810624,-0.485363,0.777808,-0.055543,0.044654,-0.405184,0.911453,-0.654248,0.49084,-0.071586,0.618059,-0.133664,-0.2618,-0.082079,-0.269308,-0.689656,0.490561,-0.240706,0.2618,0.592146,-0.788071,0.201768,-0.261684,-2.1948,-0.511786,0.317029,-0.561769,0.19055,-1.312694,0.678312,0.0
69,-0.811567,-0.485389,0.7786,-0.058578,0.050698,-0.404719,0.911154,-0.672577,0.498775,-0.084795,0.614668,-0.128079,-0.2618,-0.087242,-0.252999,-0.692871,0.478577,-0.231423,0.2618,0.593972,-0.703123,0.211973,-0.230539,-2.1948,-0.478556,0.334547,-0.549088,0.224667,-1.292011,0.682257,0.0
70,-0.812746,-0.485911,0.779245,-0.06317,0.05705,-0.405139,0.910284,-0.69207,0.511207,-0.099742,0.612341,-0.122812,-0.2618,-0.090851,-0.231582,-0.694577,0.463843,-0.222447,0.2618,0.598065,-0.595719,0.235975,-0.190782,-2.1948,-0.477559,0.352416,-0.53591,0.250379,-1.262573,0.681155,0.0
71,-0.813633,-0.485814,0.779807,-0.068906,0.063321,-0.405818,0.90915,-0.712605,0.52513,-0.116924,0.611728,-0.120702,-0.2618,-0.091496,-0.206754,-0.696755,0.44384,-0.212136,0.2618,0.606716,-0.477818,0.261212,-0.146427,-2.1948,-0.500276,0.374619,-0.522444,0.266163,-1.227627,0.679858,0.0
72,-0.814444,-0.486232,0.780264,-0.075119,0.069879,-0.407471,0.907437,-0.732916,0.541364,-0.133913,0.611615,-0.11872,-0.2618,-0.090845,-0.179052,-0.698172,0.420614,-0.202731,0.2618,0.623027,-0.353744,0.276777,-0.097852,-2.1948,-0.53614,0.406175,-0.511567,0.271648,-1.19291,0.683958,0.0
73,-0.814747,-0.486245,0.780592,-0.080758,0.076687,-0.409596,0.905444,-0.754538,0.556212,-0.150995,0.612573,-0.117907,-0.2618,-0.091845,-0.15295,-0.697128,0.397703,-0.193924,0.2618,0.645442,-0.23226,0.282414,-0.049852,-2.1948,-0.566633,0.446446,-0.501945,0.265119,-1.157517,0.683795,0.0
74,-0.815121,-0.485621,0.780933,-0.085518,0.084011,-0.412207,0.903169,-0.777852,0.569484,-0.166971,0.613349,-0.117102,-0.2618,-0.097787,-0.130181,-0.694053,0.378515,-0.18443,0.2618,0.671339,-0.121475,0.278555,-0.002218,-2.1948,-0.597296,0.489864,-0.496006,0.249416,-1.118158,0.667441,0.0
75,-0.815428,-0.485365,0.781227,-0.089575,0.091377,-0.414024,0.901227,-0.80057,0.580043,-0.183498,0.612546,-0.114212,-0.2618,-0.104167,-0.109086,-0.691546,0.361297,-0.17646,0.2618,0.698486,-0.016535,0.268328,0.043242,-2.1948,-0.614648,0.532744,-0.492986,0.225219,-1.073815,0.643699,0.0
76,-0.815797,-0.483676,0.781826,-0.091775,0.099036,-0.412149,0.901056,-0.82788,0.581065,-0.202433,0.608708,-0.110418,-0.2618,-0.110119,-0.091929,-0.695524,0.341501,-0.168337,0.261318,0.720785,0.078419,0.257147,0.081526,-2.193807,-0.624921,0.572875,-0.493485,0.196511,-1.023991,0.617716,0.0
77,-0.816407,-0.481896,0.78249,-0.092969,0.107054,-0.40694,0.902383,-0.857562,0.574564,-0.225872,0.601119,-0.102863,-0.2618,-0.115057,-0.076648,-0.705414,0.321352,-0.1606,0.2618,0.737439,0.154416,0.246304,0.114318,-2.184881,-0.644193,0.610009,-0.497445,0.170174,-0.973284,0.598751,0.0
78,-0.81651,-0.479101,0.783493,-0.092693,0.116107,-0.398602,0.90501,-0.890249,0.559541,-0.251132,0.591146,-0.09492,-0.2618,-0.12173,-0.064737,-0.719892,0.300231,-0.150551,0.2618,0.749678,0.220181,0.232282,0.138498,-2.176118,-0.64482,0.644706,-0.504382,0.147428,-0.927319,0.585393,0.0
79,-0.816391,-0.476661,0.784313,-0.091304,0.126862,-0.388144,0.908248,-0.927625,0.538523,-0.280134,0.58085,-0.084093,-0.2618,-0.131897,-0.054405,-0.737667,0.281006,-0.140921,0.2618,0.759569,0.270205,0.221665,0.150874,-2.156795,-0.639534,0.679172,-0.51826,0.132455,-0.894808,0.579304,0.0
80,-0.816164,-0.472947,0.784791,-0.08891,0.139006,-0.377429,0.911219,-0.971121,0.512492,-0.309953,0.574135,-0.073548,-0.2618,-0.148751,-0.047872,-0.754937,0.265844,-0.131658,0.2618,0.768626,0.301439,0.215366,0.153683,-2.127003,-0.651535,0.712385,-0.540803,0.128337,-0.877598,0.577735,0.0
81,-0.815365,-0.468928,0.784931,-0.086027,0.151987,-0.367594,0.913441,-1.015364,0.485099,-0.337498,0.571313,-0.064462,-0.2618,-0.169612,-0.043433,-0.769641,0.254109,-0.123814,0.2618,0.775173,0.322035,0.206769,0.150483,-2.097299,-0.663677,0.739733,-0.570336,0.130226,-0.87283,0.579496,0.0
82,-0.814081,-0.465033,0.784743,-0.08289,0.165035,-0.359919,0.914522,-1.056811,0.459208,-0.361591,0.571426,-0.058152,-0.2618,-0.193677,-0.041343,-0.779576,0.246244,-0.116791,0.2618,0.77897,0.338543,0.198605,0.144102,-2.063909,-0.673478,0.757543,-0.606106,0.130299,-0.878649,0.588691,0.0
83,-0.812203,-0.461388,0.784459,-0.079999,0.176958,-0.35402,0.914853,-1.09376,0.436076,-0.380752,0.575093,-0.054461,-0.2618,-0.216685,-0.040742,-0.786004,0.240676,-0.110484,0.2618,0.780871,0.351427,0.192478,0.131751,-2.023403,-0.685741,0.763147,-0.643471,0.123736,-0.89334,0.591309,0.0
84,-0.809797,-0.457648,0.783751,-0.077836,0.187765,-0.349004,0.914812,-1.129016,0.415043,-0.397599,0.583518,-0.053876,-0.2618,-0.237125,-0.040437,-0.791629,0.235788,-0.103854,0.2618,0.779639,0.357963,0.188796,0.114067,-1.974392,-0.699113,0.753634,-0.677514,0.107401,-0.918778,0.588255,0.0
85,-0.807257,-0.454804,0.782869,-0.076354,0.196981,-0.346217,0.914058,-1.159465,0.39861,-0.412772,0.595332,-0.056039,-0.2618,-0.254769,-0.039733,-0.793128,0.232418,-0.098978,0.2618,0.775108,0.358165,0.185006,0.096071,-1.916946,-0.714697,0.728132,-0.70919,0.081775,-0.957847,0.591832,0.0
86,-0.804109,-0.45246,0.781901,-0.075551,0.204199,-0.344847,0.913058,-1.184693,0.385915,-0.425127,0.610266,-0.060693,-0.26039,-0.267807,-0.039079,-0.792397,0.22922,-0.094435,0.2618,0.76808,0.352581,0.179661,0.079951,-1.853401,-0.727248,0.6909,-0.738724,0.051923,-1.012608,0.604057,0.0
87,-0.803217,-0.4438,0.774531,-0.085287,0.226024,-0.339277,0.909137,-1.303714,0.352795,-0.503234,0.677403,-0.064578,-0.254638,-0.301548,-0.009624,-0.816616,0.218657,-0.065182,0.2618,0.742242,0.298839,0.17769,0.090096,-1.768797,-0.738317,0.605642,-0.75576,0.047194,-1.115975,0.627278,0.0
88,-0.798357,-0.446736,0.777193,-0.078016,0.224893,-0.34134,0.909298,-1.277007,0.350422,-0.482886,0.674362,-0.080621,-0.255976,-0.304267,-0.026915,-0.795528,0.224759,-0.078519,0.2618,0.738112,0.299046,0.171061,0.061814,-1.705496,-0.723322,0.569788,-0.788328,0.005166,-1.169216,0.632264,0.0
89,-0.797256,-0.439181,0.770199,-0.087143,0.240725,-0.340341,0.90478,-1.368958,0.327814,-0.537693,0.7336,-0.087394,-0.24577,-0.331162,-0.005339,-0.811257,0.222797,-0.058684,0.2618,0.72011,0.255401,0.174416,0.073911,-1.61618,-0.696132,0.482774,-0.786901,0.010271,-1.281587,0.639996,0.0
90,-0.792276,-0.443975,0.773478,-0.079357,0.236374,-0.343582,0.905418,-1.32862,0.33474,-0.509395,0.722923,-0.103725,-0.253262,-0.326709,-0.023215,-0.786994,0.228045,-0.074498,0.2618,0.714119,0.264278,0.165373,0.057701,-1.540382,-0.634836,0.445115,-0.807308,-0.009691,-1.337026,0.636082,0.0
91,-0.790342,-0.437532,0.766433,-0.08882,0.252142,-0.341247,0.901158,-1.417302,0.310966,-0.562165,0.780147,-0.112903,-0.246728,-0.349225,-0.000254,-0.805,0.223668,-0.055815,0.2618,0.688441,0.233898,0.180162,0.078538,-1.443899,-0.575073,0.357095,-0.794238,0.02705,-1.444177,0.632355,0.0
92,-0.785628,-0.443678,0.769451,-0.081405,0.248701,-0.343506,0.901956,-1.379812,0.319388,-0.538495,0.7678,-0.128261,-0.253181,-0.344281,-0.014694,-0.782242,0.228007,-0.07135,0.2618,0.674417,0.253414,0.184496,0.065426,-1.373745,-0.539178,0.321567,-0.814418,0.040908,-1.497505,0.627799,0.0
93,-0.783635,-0.436878,0.762255,-0.090835,0.263733,-0.340085,0.898074,-1.463975,0.290366,-0.589658,0.825764,-0.138599,-0.246397,-0.365976,0.004827,-0.803134,0.227673,-0.055565,0.2618,0.660722,0.232202,0.202505,0.06432,-1.296795,-0.531733,0.238976,-0.79543,0.090885,-1.579316,0.619918,0.0
94,-0.779938,-0.437199,0.760317,-0.091563,0.267337,-0.341876,0.896252,-1.479981,0.285492,-0.599205,0.84887,-0.153295,-0.243663,-0.373716,0.003265,-0.797389,0.236392,-0.057394,0.2618,0.657199,0.231971,0.21186,0.049174,-1.227804,-0.512978,0.187118,-0.791785,0.132612,-1.631909,0.613631,0.0
95,-0.776434,-0.437734,0.758718,-0.092104,0.27081,-0.345107,0.893912,-1.494896,0.283366,-0.607056,0.87028,-0.164805,-0.239215,-0.382582,0.002032,-0.790461,0.24492,-0.05611,0.2618,0.656576,0.23787,0.222608,0.029686,-1.172396,-0.491633,0.138331,-0.777539,0.173458,-1.672146,0.617133,0.0
96,-0.773272,-0.438583,0.757402,-0.092201,0.274041,-0.349207,0.891322,-1.5085,0.283326,-0.613115,0.889757,-0.174793,-0.235863,-0.392146,0.000653,-0.78215,0.253507,-0.053716,0.2618,0.654535,0.24611,0.237456,0.000782,-1.125042,-0.459529,0.094499,-0.751728,0.216982,-1.700585,0.623682,0.0
97,-0.770297,-0.441055,0.758218,-0.089273,0.270966,-0.357162,0.889406,-1.494529,0.302996,-0.594303,0.890246,-0.184245,-0.238919,-0.39364,-0.00873,-0.765202,0.262291,-0.054554,0.2618,0.654423,0.266116,0.259801,-0.0414,-1.080533,-0.4094,0.073723,-0.720613,0.261752,-1.716575,0.628703,0.0
98,-0.76797,-0.442723,0.75878,-0.086845,0.271929,-0.36165,0.887537,-1.49295,0.311701,-0.584626,0.892292,-0.190385,-0.242329,-0.401605,-0.014286,-0.749733,0.268989,-0.048325,0.2618,0.645594,0.278003,0.285659,-0.089622,-1.045127,-0.361934,0.05268,-0.681106,0.305293,-1.715264,0.63269,0.0
99,-0.766133,-0.444046,0.759563,-0.083861,0.275337,-0.364055,0.885788,-1.496732,0.31399,-0.577541,0.891454,-0.189544,-0.243722,-0.416688,-0.020581,-0.733026,0.280067,-0.03972,0.2618,0.63427,0.283123,0.308838,-0.137349,-1.025232,-0.333185,0.035608,-0.641484,0.344774,-1.695132,0.639145,0.0
100,-0.764414,-0.446846,0.761573,-0.078707,0.274582,-0.367339,0.88514,-1.483104,0.325816,-0.552313,0.880606,-0.18848,-0.245385,-0.44138,-0.043407,-0.676514,0.321946,-0.034233,0.2618,0.627131,0.299888,0.338188,-0.181536,-1.032392,-0.322157,0.027088,-0.611466,0.381981,-1.655426,0.635059,0.0
101,-0.757225,-0.450646,0.762114,-0.069602,0.267834,-0.375427,0.884576,-1.44967,0.340179,-0.508646,0.890021,-0.204793,-0.243179,-0.480209,-0.08689,-0.553436,0.389315,-0.033462,0.261799,0.609884,0.33462,0.379417,-0.221306,-1.068146,-0.317906,0.015157,-0.584321,0.444781,-1.604719,0.631169,0.0
102,-0.755944,-0.454538,0.760224,-0.057005,0.260397,-0.393059,0.880028,-1.422603,0.366767,-0.459953,0.90382,-0.225542,-0.246089,-0.542791,-0.127362,-0.445313,0.443644,-0.044515,0.2618,0.595134,0.360718,0.415251,-0.254604,-1.116696,-0.317586,-0.002175,-0.543116,0.521762,-1.548066,0.655777,0.0
103,-0.75358,-0.459537,0.756144,-0.04371,0.244415,-0.425082,0.870434,-1.372668,0.424512,-0.385719,0.932641,-0.266281,-0.257246,-0.591359,-0.186297,-0.42917,0.481499,-0.057084,0.2618,0.607746,0.373769,0.446115,-0.26259,-1.166835,-0.313395,0.006301,-0.504924,0.57829,-1.508482,0.680068,0.0
104,-0.740585,-0.47688,0.751822,-0.038268,0.192408,-0.469874,0.860658,-1.163995,0.526218,-0.23533,0.961811,-0.33903,-0.2618,-0.568473,-0.273524,-0.400303,0.554743,-0.068191,0.256062,0.642484,0.449592,0.528171,-0.218133,-1.22939,-0.290986,0.085479,-0.486433,0.585029,-1.495121,0.643041,0.0
105,-0.734178,-0.488245,0.741402,-0.039101,0.148937,-0.517032,0.842002,-1.000956,0.617,-0.102585,1.027016,-0.401161,-0.2618,-0.606034,-0.312181,-0.278696,0.679881,-0.029366,0.2618,0.624336,0.525253,0.609469,-0.087983,-1.261609,-0.263428,0.11805,-0.444222,0.602911,-1.477736,0.574807,0.0
106,-0.726418,-0.495458,0.727064,-0.027883,0.109495,-0.562477,0.819056,-0.832876,0.661246,0.051824,1.104206,-0.449498,-0.2618,-0.699539,-0.387505,-0.222964,0.829874,-0.045124,0.2618,0.54856,0.594656,0.669457,0.050021,-1.251294,-0.269532,0.139318,-0.442431,0.612147,-1.470285,0.499139,0.0
107,-0.720244,-0.502222,0.7196,-0.00171,0.070567,-0.592909,0.80217,-0.659462,0.622997,0.198335,1.133342,-0.452451,-0.2618,-0.8292,-0.492299,-0.184364,0.956285,-0.046166,0.171279,0.400464,0.66744,0.736227,0.142342,-1.214124,-0.259469,0.153101,-0.491725,0.595284,-1.50212,0.45656,0.0
108,-0.719037,-0.517107,0.720403,0.025271,0.020752,-0.61026,0.791526,-0.464065,0.528585,0.308867,1.096044,-0.399557,-0.2618,-0.901768,-0.614297,-0.165917,1.034786,-0.074904,0.094476,0.205721,0.806126,0.862733,0.167013,-1.180565,-0.190743,0.171147,-0.57156,0.535265,-1.569569,0.447643,0.0
109,-0.72333,-0.536621,0.72621,0.039373,-0.024577,-0.620289,0.782999,-0.295944,0.446855,0.373412,1.02725,-0.313509,-0.2618,-0.903403,-0.683799,-0.111865,1.064052,-0.108002,0.07487,0.009889,1.024776,1.085618,0.177895,-1.191205,-0.124753,0.134314,-0.602693,0.431613,-1.600696,0.434286,0.0
110,-0.731965,-0.556948,0.731424,0.045766,-0.067297,-0.628736,0.773349,-0.15743,0.385087,0.413444,0.965854,-0.195165,-0.2618,-0.869186,-0.727306,-0.04326,1.078941,-0.141029,0.117062,-0.143417,1.287605,1.365614,0.225943,-1.180544,-0.078287,0.049302,-0.573005,0.288511,-1.55802,0.446584,0.0
111,-0.741097,-0.578103,0.733298,0.0548,-0.112747,-0.640041,0.758046,-0.055296,0.318905,0.417441,0.934541,-0.027498,-0.2618,-0.847943,-0.773189,0.045098,1.093831,-0.205432,0.166574,-0.281822,1.3946,1.512812,0.235671,-1.0698,-0.064297,-0.05176,-0.544637,0.168641,-1.515825,0.483164,0.0
112,-0.751513,-0.603672,0.731772,0.059279,-0.154559,-0.665605,0.727714,0.023491,0.254316,0.366896,0.93015,0.182595,-0.2618,-0.816389,-0.788972,0.127012,1.103137,-0.320763,0.183319,-0.372266,1.358646,1.549916,0.248892,-0.910936,-0.143855,-0.132633,-0.506567,0.06498,-1.475214,0.488395,0.0
113,-0.773457,-0.63336,0.724292,0.065601,-0.202832,-0.674041,0.707265,0.060326,0.162768,0.211633,0.914428,0.437075,-0.2618,-0.823638,-0.832938,0.252153,1.172585,-0.427627,0.225684,-0.509853,1.199891,1.463814,0.256744,-0.86867,-0.295178,-0.192211,-0.472412,-0.002588,-1.452117,0.518759,0.0
114,-0.791386,-0.658892,0.720496,0.068042,-0.232983,-0.688108,0.683811,0.072678,0.078898,0.047454,0.915448,0.529926,-0.2618,-0.821042,-0.842187,0.330812,1.221075,-0.492243,0.226664,-0.584128,1.000278,1.361551,0.263525,-0.909349,-0.329243,-0.208449,-0.432526,-0.088919,-1.455718,0.53995,0.0
115,-0.804817,-0.671509,0.724176,0.06706,-0.232888,-0.7123,0.658707,0.067836,0.116173,0.062071,0.902307,0.34794,-0.2618,-0.787192,-0.78954,0.331221,1.217816,-0.512369,0.222374,-0.583268,0.831431,1.320971,0.27475,-0.994032,-0.307209,-0.176645,-0.398932,-0.177114,-1.458449,0.525477,0.0
116,-0.840723,-0.679786,0.707143,0.080072,-0.243926,-0.714796,0.650503,0.028816,0.152141,0.066582,0.835725,0.135259,-0.2618,-0.885473,-0.770791,0.406517,1.337997,-0.603094,0.184055,-0.622188,0.66765,1.223075,0.284908,-1.190169,-0.261747,-0.119032,-0.419198,-0.226627,-1.452154,0.512914,0.0
117,-0.845015,-0.687211,0.702798,0.093428,-0.23929,-0.730114,0.633202,-0.027368,0.116531,0.028583,0.745482,-0.017282,-0.2618,-0.970735,-0.727381,0.489453,1.370329,-0.622947,0.193326,-0.617544,0.535024,1.124625,0.304774,-1.3859,-0.244676,-0.055039,-0.427321,-0.221781,-1.396604,0.519432,0.0
118,-0.84024,-0.697129,0.701915,0.112426,-0.224875,-0.755172,0.605398,-0.081517,0.020507,-0.10243,0.6143,-0.141579,-0.2618,-1.072794,-0.651497,0.588951,1.3806,-0.615394,0.21662,-0.575759,0.410286,1.022186,0.272416,-1.570047,-0.264486,0.002623,-0.425704,-0.204714,-1.303595,0.539826,0.0
119,-0.842681,-0.706616,0.699166,0.143234,-0.200033,-0.792764,0.55767,-0.143467,-0.032835,-0.154709,0.458177,-0.176694,-0.2618,-1.21352,-0.520992,0.683068,1.407565,-0.61087,0.235297,-0.479591,0.307061,0.942816,0.174452,-1.733684,-0.324078,0.047827,-0.424044,-0.185619,-1.190374,0.543809,0.0
120,-0.84634,-0.687917,0.704692,0.237745,-0.132792,-0.858843,0.433857,-0.327318,0.025141,0.022428,0.416267,-0.15233,-0.2618,-1.494025,-0.157305,0.728063,1.38387,-0.507998,0.195351,-0.184251,0.200267,0.932924,0.065351,-1.931776,-0.416849,-0.024244,-0.401852,-0.162033,-1.035004,0.532485,0.0
121,-0.839417,-0.683637,0.696894,0.314462,-0.102559,-0.877085,0.348307,-0.464788,0.04462,0.158243,0.468998,-0.162134,-0.2618,-1.725502,0.004616,0.677477,1.374866,-0.468033,0.140014,-0.053226,0.139896,0.918306,-0.022829,-2.093672,-0.466696,-0.075757,-0.468983,-0.082874,-0.917176,0.528764,0.0
122,-0.839071,-0.681566,0.687476,0.374839,-0.087575,-0.880201,0.277618,-0.537277,0.054656,0.274688,0.469918,-0.187095,-0.2618,-1.89936,0.079153,0.573521,1.351377,-0.41768,0.120632,0.015021,0.106187,0.917264,-0.101473,-2.1948,-0.489971,-0.118842,-0.535931,0.022134,-0.798288,0.542142,0.0
123,-0.845505,-0.680153,0.680189,0.410253,-0.088463,-0.876681,0.235155,-0.566065,0.049199,0.359157,0.466337,-0.180159,-0.2618,-1.985961,0.149567,0.528038,1.348135,-0.352294,0.091342,0.00339,0.092421,0.902658,-0.181505,-2.1948,-0.477933,-0.142393,-0.562941,0.116821,-0.693824,0.578757,0.0
124,-0.862683,-0.676998,0.680151,0.419355,-0.081401,-0.880207,0.206763,-0.575178,0.088981,0.393403,0.495429,-0.118118,-0.2618,-1.966424,0.19464,0.4754,1.338112,-0.33816,0.027904,-0.011791,0.176489,0.913615,-0.222367,-2.1948,-0.449218,-0.151384,-0.515922,0.165416,-0.568992,0.611804,0.0
125,-0.885529,-0.669666,0.679673,0.422275,-0.077891,-0.881049,0.198417,-0.63641,0.144004,0.369981,0.600644,-0.002392,-0.2618,-1.934366,0.218858,0.445753,1.350535,-0.36615,-0.02646,-0.039222,0.291671,0.920436,-0.218074,-2.194439,-0.405942,-0.107844,-0.467842,0.140222,-0.504197,0.592666,0.0
126,-0.913691,-0.662566,0.680912,0.418786,-0.08026,-0.882818,0.196999,-0.715885,0.201442,0.338854,0.751667,0.129451,-0.2618,-1.889428,0.217121,0.420281,1.371994,-0.410381,-0.069757,-0.063342,0.358309,0.887528,-0.222052,-2.100397,-0.373351,-0.011283,-0.442986,0.105813,-0.498914,0.518651,0.0
127,-0.94639,-0.654722,0.679096,0.409993,-0.080336,-0.888787,0.188441,-0.799375,0.221375,0.220766,0.917433,0.149048,-0.2618,-1.825143,0.22139,0.381943,1.39916,-0.466214,-0.109378,-0.04587,0.39525,0.834582,-0.231056,-1.982297,-0.384208,0.123175,-0.440902,0.096227,-0.525459,0.433727,0.0
128,-0.96213,-0.659131,0.684608,0.411,-0.087178,-0.889108,0.181565,-0.913985,0.189383,0.152387,1.083862,0.080941,-0.2618,-1.798528,0.209416,0.385581,1.392597,-0.482803,-0.115479,-0.017809,0.384945,0.755783,-0.241629,-1.870107,-0.444285,0.235212,-0.478261,0.112324,-0.554788,0.396234,0.0
129,-0.979067,-0.661093,0.688768,0.415426,-0.092611,-0.888356,0.172243,-1.040655,0.179447,0.136782,1.227301,0.044335,-0.2618,-1.778319,0.205156,0.384604,1.385975,-0.497091,-0.119189,0.011992,0.388512,0.680064,-0.21499,-1.777202,-0.517968,0.328728,-0.525631,0.151866,-0.591782,0.421882,0.0
130,-0.995652,-0.660297,0.691232,0.425384,-0.096411,-0.885702,0.159016,-1.187373,0.16471,0.122291,1.336201,0.043319,-0.2618,-1.765956,0.218936,0.385338,1.3755,-0.511043,-0.125008,0.042311,0.39038,0.61597,-0.169415,-1.697804,-0.553154,0.386287,-0.577287,0.19432,-0.622464,0.478765,0.0
131,-1.010968,-0.661268,0.69546,0.433008,-0.096495,-0.884257,0.145881,-1.330346,0.125746,0.093345,1.40409,0.02316,-0.2618,-1.743272,0.229741,0.3844,1.35385,-0.518372,-0.119428,0.064477,0.408288,0.581411,-0.114349,-1.618892,-0.541377,0.419377,-0.619024,0.231531,-0.64794,0.533971,0.0
132,-1.027152,-0.663258,0.699906,0.438407,-0.095332,-0.883673,0.133542,-1.460373,0.060695,0.05711,1.435995,-0.008001,-0.2618,-1.714786,0.239766,0.38481,1.333706,-0.5206,-0.118546,0.075601,0.43733,0.57282,-0.067252,-1.534011,-0.492349,0.424446,-0.648226,0.248318,-0.665939,0.560451,0.0
133,-1.044554,-0.665131,0.703431,0.441502,-0.092961,-0.883756,0.124133,-1.573853,-0.014207,0.027288,1.438134,-0.021942,-0.2618,-1.682583,0.243488,0.380486,1.318083,-0.526931,-0.11236,0.077901,0.470528,0.583608,-0.036012,-1.445506,-0.403342,0.401545,-0.663913,0.23985,-0.685335,0.556523,0.0
134,-1.062515,-0.667512,0.706217,0.443333,-0.089714,-0.884376,0.115269,-1.668595,-0.094164,0.006834,1.416217,-0.023914,-0.2618,-1.645603,0.243857,0.372179,1.300578,-0.540143,-0.109527,0.076492,0.503167,0.596078,-0.014177,-1.362269,-0.260321,0.355081,-0.671964,0.210269,-0.717749,0.546363,0.0
135,-1.082041,-0.666482,0.70731,0.44459,-0.085284,-0.885268,0.106614,-1.749967,-0.170334,-0.008823,1.380477,-0.02533,-0.2618,-1.604489,0.246493,0.35528,1.283955,-0.557681,-0.114308,0.073102,0.540102,0.617445,-0.007166,-1.310002,-0.201334,0.292877,-0.673241,0.164711,-0.773713,0.543283,0.0
136,-1.116172,-0.663929,0.712028,0.426974,-0.074969,-0.89539,0.101735,-1.7586,-0.237168,-0.039231,1.34198,-0.061972,-0.2618,-1.482166,0.219612,0.308408,1.24372,-0.593415,-0.112954,0.074271,0.616352,0.674815,0.001086,-1.284482,-0.23699,0.255843,-0.657597,0.112442,-0.857995,0.537125,0.0
137,-1.136727,-0.663036,0.709752,0.427441,-0.070929,-0.896697,0.090541,-1.817455,-0.307482,-0.031355,1.298987,-0.063835,-0.2618,-1.441584,0.225814,0.290965,1.233399,-0.612647,-0.123432,0.079481,0.66997,0.684791,-0.0029,-1.29708,-0.290965,0.194834,-0.648135,0.050886,-0.959672,0.541031,0.0
138,-1.153208,-0.664407,0.701826,0.436286,-0.067251,-0.894286,0.073375,-1.89391,-0.373265,-0.007729,1.249168,-0.046746,-0.2618,-1.434018,0.250268,0.287536,1.243002,-0.638946,-0.13617,0.097231,0.697513,0.673191,-0.011712,-1.315604,-0.327586,0.120193,-0.644101,-0.001553,-1.070096,0.54493,0.0
139,-1.176199,-0.667971,0.693111,0.441254,-0.057333,-0.893986,0.052884,-1.935356,-0.426923,0.002901,1.184452,-0.031688,-0.2618,-1.399788,0.276411,0.278451,1.244271,-0.673801,-0.138075,0.132323,0.739165,0.667073,-0.004279,-1.339873,-0.339523,0.063239,-0.621873,-0.048189,-1.198521,0.549014,0.0
140,-1.199674,-0.677853,0.680675,0.448616,-0.041992,-0.89266,0.011738,-1.961252,-0.436,0.003797,1.106589,0.013031,-0.2618,-1.376968,0.336434,0.289137,1.263578,-0.6807,-0.136977,0.201549,0.771633,0.646903,-0.00085,-1.357008,-0.319821,-0.00224,-0.600014,-0.063023,-1.305414,0.552726,0.0
141,-1.219481,-0.660814,0.675764,0.45791,-0.034792,-0.888225,-0.012853,-1.965704,-0.436,-0.0005,1.058562,0.085876,0.00293,-1.357222,0.389345,0.265827,1.256222,-0.666196,-0.170316,0.225139,0.801145,0.638419,-0.000405,-1.376867,-0.290711,-0.077995,-0.567917,-0.049316,-1.389993,0.55133,0.0
142,-1.238844,-0.663594,0.666176,0.470439,-0.02334,-0.88149,-0.033427,-1.941698,-0.408324,0.015017,1.069938,-0.121428,0.191051,-1.372124,0.420538,0.243894,1.288436,-0.643795,-0.168923,0.232936,0.812935,0.653491,-0.007027,-1.39787,-0.270297,-0.178049,-0.530744,-0.016387,-1.432571,0.53908,0.0
143,-1.260532,-0.664609,0.661539,0.485029,-0.018119,-0.873076,-0.046442,-1.988239,-0.397914,0.006903,1.140555,-0.172869,0.210434,-1.386795,0.432663,0.227133,1.306676,-0.616636,-0.159091,0.214892,0.803462,0.684889,-0.042921,-1.42592,-0.26812,-0.260544,-0.507649,0.03191,-1.46554,0.529732,0.0
144,-1.281702,-0.66221,0.657718,0.500614,-0.01405,-0.863945,-0.052792,-2.025412,-0.398145,-0.012632,1.19569,-0.219163,0.202301,-1.399771,0.43322,0.201838,1.313134,-0.59352,-0.133575,0.191613,0.763686,0.733871,-0.081667,-1.458447,-0.27455,-0.321761,-0.481672,0.083256,-1.494953,0.531271,0.0
145,-1.299916,-0.656588,0.656376,0.515209,-0.009794,-0.855151,-0.056397,-2.044923,-0.390004,-0.024587,1.223182,-0.271684,0.198415,-1.412145,0.43366,0.17482,1.311375,-0.565066,-0.074744,0.173234,0.685035,0.768334,-0.100598,-1.48104,-0.289662,-0.354625,-0.464604,0.130635,-1.519327,0.540431,0.0
146,-1.317577,-0.647766,0.657808,0.526386,-0.008438,-0.848109,-0.059645,-2.057236,-0.379329,-0.041748,1.246448,-0.302397,0.177546,-1.425684,0.433459,0.1526,1.317148,-0.516315,0.046835,0.163168,0.560582,0.741214,-0.085969,-1.483869,-0.304744,-0.347885,-0.474124,0.17207,-1.537403,0.55562,0.0
147,-1.337118,-0.638518,0.663421,0.532668,-0.009163,-0.843514,-0.068296,-2.051875,-0.353234,-0.054268,1.263105,-0.321742,0.153007,-1.435592,0.432972,0.141064,1.330294,-0.445661,0.213229,0.170541,0.408078,0.656529,-0.037282,-1.477654,-0.322591,-0.294611,-0.515417,0.210834,-1.560888,0.57612,0.0
148,-1.35286,-0.620202,0.669548,0.53719,-0.012898,-0.839869,-0.076678,-2.043508,-0.316128,-0.071846,1.271332,-0.335917,0.115955,-1.463864,0.428324,0.104398,1.365437,-0.363812,0.2618,0.182729,0.263072,0.564803,0.023665,-1.494942,-0.311403,-0.221705,-0.571561,0.236636,-1.578641,0.599822,0.0
149,-1.36687,-0.60458,0.675056,0.541537,-0.015825,-0.836443,-0.082769,-2.034222,-0.284927,-0.08431,1.273263,-0.344064,0.085414,-1.51636,0.406196,0.053703,1.418246,-0.273623,0.2618,0.194335,0.135141,0.488869,0.066795,-1.528904,-0.273856,-0.154656,-0.6203,0.246071,-1.565748,0.622203,0.0
150,-1.388142,-0.60573,0.68626,0.539935,-0.018611,-0.836161,-0.094653,-1.981711,-0.253689,-0.072956,1.250479,-0.357266,0.074988,-1.557493,0.370963,0.046475,1.45711,-0.208814,0.2618,0.221205,0.041575,0.419193,0.071201,-1.56361,-0.250128,-0.063254,-0.667203,0.222034,-1.527465,0.626922,0.0
151,-1.408011,-0.609624,0.695884,0.541303,-0.017746,-0.833755,-0.107373,-1.945118,-0.227709,-0.063673,1.232945,-0.358693,0.079236,-1.620557,0.349938,0.050727,1.489521,-0.214944,0.2618,0.248379,-0.026616,0.381675,0.061796,-1.609739,-0.236068,-0.006516,-0.68812,0.190134,-1.46045,0.622586,0.0
152,-1.430858,-0.610478,0.704552,0.535147,-0.017779,-0.836106,-0.119283,-1.883411,-0.196912,-0.056142,1.216223,-0.377389,0.074793,-1.669317,0.330615,0.064617,1.502356,-0.252054,0.235244,0.268582,-0.043484,0.378291,0.03749,-1.671121,-0.215007,0.049497,-0.694644,0.142739,-1.379561,0.610624,0.0
153,-1.448584,-0.605094,0.709815,0.535017,-0.017306,-0.834703,-0.129337,-1.851771,-0.167571,-0.055339,1.209224,-0.394249,0.062712,-1.754311,0.313581,0.052612,1.498078,-0.261705,0.17966,0.275438,-0.045818,0.397494,0.02991,-1.735051,-0.200255,0.070481,-0.689262,0.102036,-1.307742,0.614246,0.0
154,-1.46713,-0.596433,0.713924,0.533448,-0.016746,-0.83422,-0.138674,-1.822118,-0.136369,-0.059556,1.211551,-0.405813,0.041786,-1.836062,0.30058,0.036749,1.455071,-0.249351,0.129377,0.281059,-0.027463,0.430166,0.022518,-1.793733,-0.198714,0.08773,-0.677854,0.050755,-1.242953,0.613746,0.0
155,-1.485389,-0.585078,0.71578,0.531071,-0.017647,-0.834487,-0.14589,-1.796479,-0.110068,-0.069577,1.223547,-0.408635,0.015984,-1.907817,0.302443,0.031424,1.369236,-0.241199,0.093818,0.282097,7.9e-05,0.468628,0.014274,-1.836314,-0.216762,0.103395,-0.666248,-0.002769,-1.187461,0.600874,0.0
156,-1.506857,-0.569071,0.715961,0.522619,-0.018011,-0.838941,-0.150741,-1.751832,-0.074841,-0.077744,1.240621,-0.419193,-0.016563,-1.939023,0.310846,0.036721,1.237658,-0.230623,0.095587,0.282867,0.045486,0.513506,-0.004217,-1.860981,-0.251383,0.126712,-0.64772,-0.051395,-1.13017,0.571118,0.0
157,-1.52856,-0.550832,0.711014,0.515381,-0.019247,-0.843664,-0.149139,-1.715052,-0.049263,-0.088077,1.269735,-0.432757,-0.04088,-1.960338,0.32349,0.059911,1.084313,-0.179056,0.125396,0.274111,0.081687,0.555273,-0.027722,-1.857587,-0.296826,0.143346,-0.626447,-0.083134,-1.080636,0.539388,0.0
158,-1.537341,-0.535512,0.69895,0.527485,-0.02524,-0.837285,-0.14169,-1.757071,-0.04649,-0.094947,1.317146,-0.437498,-0.061143,-2.021775,0.370456,0.142244,0.892754,0.005782,0.171336,0.249834,0.082662,0.563981,-0.051289,-1.839826,-0.351784,0.122039,-0.603372,-0.089142,-1.045263,0.528047,0.0
159,-1.558669,-0.513854,0.686533,0.523323,-0.021468,-0.841956,-0.129547,-1.740999,-0.031405,-0.134721,1.365292,-0.462941,-0.099608,-2.003121,0.430612,0.324456,0.746905,0.146211,0.210489,0.235836,0.094017,0.600161,-0.086532,-1.802005,-0.408318,0.117702,-0.566728,-0.081337,-0.998232,0.52516,0.0
160,-1.575986,-0.501103,0.688038,0.517125,-0.008005,-0.848934,-0.108764,-1.725773,-0.036203,-0.197037,1.379322,-0.424237,-0.13303,-1.967075,0.435957,0.440336,0.714156,0.226457,0.2618,0.229524,0.110002,0.651868,-0.125431,-1.771416,-0.4583,0.109078,-0.504822,-0.060099,-0.948442,0.526458,0.0
161,-1.606968,-0.481355,0.688699,0.489399,0.001935,-0.865866,-0.103737,-1.628105,0.005751,-0.246072,1.389311,-0.403993,-0.188384,-1.874553,0.42453,0.415602,0.806403,0.014794,0.244687,0.240474,0.164668,0.695432,-0.148967,-1.735332,-0.495378,0.135863,-0.471909,-0.023163,-0.904059,0.50654,0.0
162,-1.620068,-0.470688,0.687713,0.496963,-0.013493,-0.861308,-0.104854,-1.624894,0.001237,-0.24319,1.386926,-0.362986,-0.24112,-1.917841,0.433383,0.400758,0.87007,-0.000342,0.21108,0.237338,0.163866,0.64651,-0.153904,-1.724425,-0.510589,0.12242,-0.496984,0.012217,-0.887172,0.515511,0.0
163,-1.631081,-0.457624,0.688702,0.507423,-0.020305,-0.855682,-0.099585,-1.610246,0.001349,-0.245279,1.348609,-0.357148,-0.261111,-1.937916,0.434019,0.385115,0.895694,-0.03427,0.193935,0.228272,0.15314,0.590458,-0.151647,-1.70772,-0.512058,0.085761,-0.517621,0.0682,-0.871249,0.524325,0.0
164,-1.646098,-0.442906,0.697056,0.514398,-0.021844,-0.851825,-0.096499,-1.561562,0.02505,-0.230232,1.268072,-0.36166,-0.261147,-1.922445,0.433953,0.365642,0.891997,-0.063196,0.168222,0.219762,0.152944,0.550333,-0.140643,-1.676823,-0.484065,0.026745,-0.515711,0.150749,-0.870921,0.541588,0.0
165,-1.658078,-0.4303,0.708246,0.52228,-0.0238,-0.847125,-0.095061,-1.524096,0.045713,-0.211459,1.185413,-0.341526,-0.255623,-1.899745,0.434078,0.350419,0.860406,-0.064208,0.136677,0.200667,0.161544,0.528488,-0.136014,-1.649218,-0.437738,-0.047908,-0.491438,0.201135,-0.935025,0.611529,0.0
166,-1.668011,-0.418095,0.720501,0.527655,-0.024195,-0.844063,-0.092478,-1.490487,0.060837,-0.209106,1.106151,-0.300027,-0.261281,-1.867421,0.433687,0.338079,0.817695,-0.054253,0.108718,0.171241,0.185716,0.53953,-0.156427,-1.642874,-0.404211,-0.126447,-0.447674,0.217682,-1.068917,0.694822,0.0
167,-1.677437,-0.407277,0.732512,0.528731,-0.025724,-0.84379,-0.088318,-1.445637,0.069019,-0.210961,1.026528,-0.249871,-0.2618,-1.828512,0.421248,0.31598,0.774821,-0.044194,0.071963,0.133612,0.221426,0.575305,-0.196818,-1.663996,-0.40115,-0.197111,-0.383742,0.21375,-1.250727,0.698415,0.0
168,-1.690404,-0.395667,0.747261,0.520231,-0.025963,-0.850064,-0.077948,-1.362813,0.078379,-0.214686,0.922945,-0.188619,-0.2618,-1.758338,0.387726,0.296234,0.726629,-0.048937,0.047072,0.083576,0.287299,0.633066,-0.222646,-1.703389,-0.428603,-0.244352,-0.30852,0.218388,-1.455688,0.625276,0.0
169,-1.698597,-0.386915,0.756883,0.514723,-0.03025,-0.854107,-0.068164,-1.310606,0.079432,-0.207726,0.854717,-0.133255,-0.2618,-1.714144,0.362675,0.295287,0.694951,-0.051414,0.034663,0.047752,0.332001,0.669029,-0.243173,-1.74064,-0.452172,-0.304618,-0.270398,0.221363,-1.645941,0.553017,0.0
170,-1.707829,-0.377671,0.765968,0.506516,-0.033849,-0.85972,-0.056367,-1.252759,0.081049,-0.201184,0.788754,-0.080681,-0.2618,-1.664109,0.332061,0.288005,0.666605,-0.061709,0.020072,0.019156,0.373777,0.694869,-0.244922,-1.764608,-0.448002,-0.362934,-0.241408,0.211447,-1.836995,0.478842,0.0
171,-1.717399,-0.369289,0.77461,0.496717,-0.037957,-0.865923,-0.04483,-1.191198,0.082781,-0.190002,0.724785,-0.030999,-0.2618,-1.615124,0.299376,0.278765,0.643732,-0.069751,0.011176,-0.00753,0.40602,0.70575,-0.231834,-1.771411,-0.409378,-0.422659,-0.21301,0.188833,-2.009494,0.416642,0.0
172,-1.722802,-0.361414,0.780017,0.493536,-0.045799,-0.86768,-0.038167,-1.158528,0.077522,-0.171362,0.683645,0.010678,-0.2618,-1.597398,0.283092,0.278978,0.634242,-0.06401,-0.00104,-0.023169,0.405294,0.692754,-0.220737,-1.770025,-0.35863,-0.500864,-0.195518,0.166913,-2.14338,0.373242,0.0
173,-1.729217,-0.353329,0.785594,0.487843,-0.051357,-0.87091,-0.029806,-1.121754,0.077964,-0.144814,0.643557,0.051277,-0.2618,-1.572291,0.263318,0.271449,0.626194,-0.064091,-0.013104,-0.042011,0.400436,0.680735,-0.194697,-1.752881,-0.303419,-0.599576,-0.168281,0.14693,-2.194794,0.329551,0.0
174,-1.735345,-0.345749,0.790778,0.482038,-0.055774,-0.874144,-0.020037,-1.087976,0.079203,-0.11219,0.606527,0.089192,-0.2618,-1.547607,0.241783,0.260295,0.619004,-0.06623,-0.027559,-0.065016,0.393111,0.671404,-0.157823,-1.728115,-0.262882,-0.709241,-0.142716,0.133078,-2.1948,0.305057,0.0
175,-1.740357,-0.338319,0.79477,0.478421,-0.059556,-0.876064,-0.008824,-1.063605,0.078993,-0.077768,0.57361,0.125249,-0.2618,-1.529367,0.220685,0.247098,0.611758,-0.072103,-0.040366,-0.089093,0.381518,0.663828,-0.115617,-1.699524,-0.240514,-0.802093,-0.13365,0.128325,-2.1948,0.339831,0.0
176,-1.744082,-0.331044,0.797605,0.476682,-0.062582,-0.876839,0.003383,-1.047901,0.077638,-0.047245,0.545322,0.154252,-0.2618,-1.514211,0.200753,0.236251,0.601347,-0.083577,-0.048688,-0.11369,0.367747,0.657771,-0.073083,-1.670562,-0.235363,-0.881298,-0.140447,0.140908,-2.1948,0.431368,0.0
177,-1.746797,-0.32591,0.799761,0.477148,-0.064859,-0.876299,0.014925,-1.038601,0.074637,-0.020883,0.519836,0.173998,-0.2618,-1.505179,0.182058,0.225555,0.589034,-0.09408,-0.049737,-0.133644,0.353566,0.653793,-0.03683,-1.64402,-0.239309,-0.941807,-0.152382,0.16922,-2.1948,0.53917,0.0
178,-1.748578,-0.322155,0.801489,0.47938,-0.066956,-0.874715,0.024206,-1.034708,0.070722,0.005937,0.498158,0.187734,-0.2618,-1.503796,0.167785,0.21522,0.578915,-0.100103,-0.053675,-0.145571,0.340437,0.651064,-0.00989,-1.623261,-0.245266,-0.983553,-0.160477,0.206678,-2.1948,0.613281,0.0
179,-1.750108,-0.318454,0.80248,0.483166,-0.068353,-0.872319,0.030646,-1.034364,0.067701,0.032503,0.479702,0.198771,-0.2618,-1.505954,0.160201,0.205601,0.569552,-0.103766,-0.058405,-0.151157,0.329453,0.648835,0.007045,-1.608405,-0.246392,-1.020673,-0.174072,0.245686,-2.1948,0.659366,0.0
180,-1.751284,-0.314883,0.803089,0.488738,-0.069064,-0.868935,0.0363,-1.0395,0.065103,0.059996,0.463702,0.209117,-0.2618,-1.511959,0.156916,0.198572,0.559523,-0.106871,-0.062075,-0.153403,0.32084,0.653192,0.015441,-1.600122,-0.247064,-1.040316,-0.188037,0.274052,-2.1948,0.683144,0.0
181,-1.752144,-0.311798,0.803461,0.495127,-0.068744,-0.86508,0.041967,-1.048614,0.062497,0.083439,0.45059,0.219146,-0.2618,-1.519848,0.154474,0.188181,0.549052,-0.108533,-0.067328,-0.153166,0.316068,0.664316,0.016991,-1.598362,-0.247507,-1.045682,-0.208323,0.302762,-2.1948,0.68349,0.0
182,-1.751974,-0.308475,0.80348,0.501663,-0.06764,-0.861102,0.04756,-1.059405,0.059792,0.10069,0.438665,0.224366,-0.2618,-1.52878,0.153932,0.176398,0.538245,-0.109293,-0.073669,-0.152997,0.315637,0.677419,0.016532,-1.598678,-0.250126,-1.045678,-0.229356,0.318391,-2.1948,0.695507,0.0
183,-1.751727,-0.305373,0.803302,0.508202,-0.065752,-0.857084,0.053051,-1.07058,0.056937,0.111378,0.431973,0.228329,-0.2618,-1.536854,0.154624,0.164443,0.526129,-0.110268,-0.079557,-0.150574,0.317729,0.691334,0.015238,-1.600406,-0.249995,-1.039596,-0.246342,0.33364,-2.1948,0.714172,0.0
184,-1.751258,-0.302965,0.803182,0.513984,-0.06356,-0.853474,0.057981,-1.080056,0.053158,0.115617,0.433036,0.231208,-0.2618,-1.543909,0.155598,0.154631,0.514832,-0.110371,-0.083696,-0.147701,0.319505,0.701941,0.014187,-1.601311,-0.247891,-1.030552,-0.262612,0.347318,-2.1948,0.732182,0.0
185,-1.750868,-0.301079,0.803022,0.519486,-0.060574,-0.850061,0.062147,-1.088049,0.049682,0.114242,0.438524,0.233458,-0.2618,-1.550766,0.157819,0.144885,0.505046,-0.109155,-0.08611,-0.14313,0.319325,0.706338,0.013091,-1.602534,-0.247583,-1.023472,-0.283394,0.361996,-2.1948,0.744611,0.0
186,-1.749974,-0.299306,0.802643,0.524694,-0.056444,-0.84675,0.067265,-1.096138,0.048316,0.114147,0.44594,0.232673,-0.2618,-1.55779,0.160422,0.133291,0.495993,-0.107017,-0.088389,-0.140037,0.318894,0.708733,0.012076,-1.60462,-0.249824,-1.019025,-0.299989,0.374455,-2.1948,0.754668,0.0
187,-1.749062,-0.297205,0.801861,0.529619,-0.051317,-0.843578,0.07243,-1.103643,0.050074,0.11526,0.455038,0.233036,-0.2618,-1.565217,0.164462,0.118578,0.489706,-0.105418,-0.093909,-0.134221,0.31781,0.709311,0.010466,-1.606655,-0.25041,-1.009755,-0.315413,0.385681,-2.1948,0.77133,0.0
188,-1.747953,-0.295084,0.800742,0.534123,-0.045643,-0.840571,0.077907,-1.110104,0.052987,0.119176,0.463868,0.235013,-0.2618,-1.57378,0.168768,0.102947,0.487061,-0.105408,-0.100367,-0.130116,0.316702,0.708744,0.007202,-1.609205,-0.248505,-1.000436,-0.327613,0.400483,-2.1948,0.789284,0.0
189,-1.746669,-0.292997,0.799519,0.538274,-0.039395,-0.837609,0.084386,-1.115265,0.056381,0.125337,0.469175,0.233936,-0.2618,-1.582652,0.172145,0.087139,0.486055,-0.105954,-0.105767,-0.12752,0.314964,0.709669,0.00311,-1.611894,-0.24818,-0.990609,-0.33186,0.416396,-2.1948,0.803068,0.0
190,-1.745078,-0.291419,0.798674,0.541676,-0.032666,-0.834903,0.091961,-1.11995,0.0595,0.134894,0.471858,0.233636,-0.2618,-1.590338,0.173328,0.071404,0.484616,-0.10665,-0.108603,-0.128175,0.312927,0.709882,-0.000407,-1.613317,-0.246974,-0.979567,-0.3328,0.430565,-2.1948,0.809827,0.0
191,-1.743118,-0.29004,0.7981,0.544255,-0.025854,-0.832461,0.100634,-1.124612,0.062067,0.146013,0.472315,0.232657,-0.2618,-1.596471,0.172075,0.055465,0.482529,-0.107303,-0.110324,-0.132106,0.311491,0.709361,-0.003304,-1.614193,-0.247799,-0.967882,-0.337109,0.444673,-2.1948,0.814551,0.0
192,-1.741196,-0.288923,0.797565,0.546536,-0.01858,-0.830013,0.109685,-1.131847,0.064821,0.157353,0.471688,0.234751,-0.2618,-1.602558,0.169868,0.037561,0.481302,-0.107272,-0.111201,-0.13409,0.308641,0.708414,-0.008529,-1.617319,-0.248394,-0.954813,-0.338788,0.461361,-2.1948,0.812944,0.0
193,-1.738884,-0.288276,0.79701,0.548621,-0.010972,-0.827497,0.118928,-1.142121,0.067551,0.169136,0.46819,0.2357,-0.2618,-1.608662,0.167081,0.020399,0.480042,-0.107924,-0.111093,-0.130491,0.305151,0.704194,-0.017047,-1.624614,-0.248413,-0.940871,-0.342481,0.476332,-2.1948,0.806334,0.0
194,-1.736477,-0.288628,0.795928,0.551336,-0.002559,-0.824545,0.127074,-1.158184,0.071796,0.181125,0.464363,0.237167,-0.2618,-1.616405,0.165578,0.001757,0.478903,-0.108119,-0.11152,-0.124399,0.300933,0.696037,-0.026929,-1.637407,-0.245925,-0.928156,-0.347918,0.48722,-2.1948,0.802135,0.0
195,-1.734898,-0.288289,0.79451,0.554753,0.005865,-0.821223,0.133444,-1.180454,0.076056,0.179672,0.464477,0.238699,-0.2618,-1.623952,0.167837,-0.016102,0.477183,-0.110748,-0.112196,-0.115748,0.296018,0.685695,-0.036514,-1.650485,-0.245086,-0.917995,-0.357285,0.497726,-2.1948,0.802251,0.0
196,-1.732646,-0.28901,0.792892,0.55896,0.014834,-0.817379,0.138689,-1.206813,0.080239,0.170482,0.471057,0.23092,-0.2618,-1.634467,0.171797,-0.033043,0.475651,-0.111469,-0.114545,-0.105611,0.290288,0.673612,-0.044206,-1.661504,-0.241258,-0.908637,-0.369893,0.513376,-2.1948,0.797005,0.0
197,-1.729124,-0.291391,0.791292,0.563452,0.023615,-0.813223,0.143639,-1.236763,0.082115,0.155426,0.481911,0.219695,-0.2618,-1.648324,0.173409,-0.047989,0.474757,-0.110941,-0.113021,-0.088349,0.284707,0.662661,-0.053346,-1.670532,-0.239173,-0.899249,-0.383316,0.528875,-2.1948,0.787965,0.0
198,-1.72545,-0.294402,0.789673,0.568082,0.032529,-0.808958,0.14769,-1.268531,0.08283,0.130491,0.495569,0.206492,-0.2618,-1.662328,0.175877,-0.061188,0.473292,-0.10976,-0.110149,-0.075233,0.280283,0.652534,-0.058354,-1.672412,-0.237763,-0.888946,-0.393143,0.544953,-2.1948,0.775058,0.0
199,-1.720539,-0.298854,0.78833,0.572399,0.040829,-0.804684,0.152235,-1.302076,0.081741,0.109405,0.513395,0.194323,-0.2618,-1.677969,0.174054,-0.073895,0.472265,-0.106724,-0.104841,-0.063787,0.277895,0.643152,-0.060044,-1.666331,-0.235665,-0.875341,-0.40102,0.558494,-2.1948,0.754272,0.0
200,-1.715008,-0.304189,0.787246,0.576713,0.048353,-0.800367,0.156453,-1.337463,0.079332,0.094248,0.536057,0.183543,-0.2618,-1.695307,0.170413,-0.084075,0.471638,-0.101149,-0.098965,-0.054605,0.27621,0.632193,-0.058411,-1.655345,-0.235507,-0.848365,-0.405285,0.560991,-2.1948,0.71857,0.0
201,-1.708206,-0.310698,0.78625,0.580939,0.05403,-0.796235,0.160002,-1.375423,0.07379,0.077891,0.565635,0.174769,-0.2618,-1.715163,0.163747,-0.089008,0.472279,-0.09402,-0.089479,-0.048477,0.275098,0.618283,-0.055013,-1.642645,-0.24089,-0.797662,-0.407089,0.543898,-2.1948,0.659269,0.0
202,-1.70174,-0.318914,0.785198,0.584917,0.058778,-0.792565,0.162043,-1.415599,0.0645,0.050212,0.604107,0.168496,-0.2618,-1.733839,0.156837,-0.087812,0.472902,-0.08622,-0.078551,-0.049906,0.273684,0.601772,-0.04815,-1.625429,-0.258244,-0.724044,-0.41632,0.505884,-2.1948,0.601745,0.0
203,-1.695591,-0.327231,0.784195,0.588469,0.063774,-0.788825,0.165505,-1.463001,0.053803,0.019502,0.653534,0.160692,-0.2618,-1.752032,0.146757,-0.088958,0.475493,-0.079379,-0.065317,-0.053815,0.271743,0.587303,-0.04308,-1.610993,-0.291036,-0.628547,-0.442127,0.459175,-2.1948,0.584282,0.0
204,-1.688958,-0.334534,0.782604,0.591869,0.068682,-0.784725,0.170821,-1.515991,0.042622,-0.001981,0.713051,0.130966,-0.2618,-1.773541,0.134138,-0.092814,0.483009,-0.074293,-0.056119,-0.056269,0.270192,0.57687,-0.042201,-1.607359,-0.348756,-0.508633,-0.469114,0.415229,-2.184266,0.601149,0.0
205,-1.689033,-0.341826,0.779781,0.578142,0.080742,-0.792328,0.177338,-1.543934,0.065537,-0.026434,0.783277,0.053127,-0.2618,-1.75139,0.118633,-0.11632,0.515597,-0.094355,-0.040281,-0.037106,0.317709,0.582603,-0.044056,-1.62207,-0.458802,-0.349406,-0.449808,0.37356,-2.093437,0.634697,0.0
206,-1.686007,-0.342133,0.775739,0.577659,0.091996,-0.790166,0.182987,-1.601814,0.099009,0.004102,0.798971,0.008716,-0.2618,-1.765585,0.119082,-0.135237,0.540694,-0.102309,-0.041888,-0.027821,0.326781,0.579543,-0.04071,-1.644648,-0.542175,-0.268669,-0.434092,0.369657,-1.954825,0.684259,0.0
207,-1.685329,-0.346557,0.771715,0.569657,0.108571,-0.792388,0.189275,-1.64177,0.139151,0.027687,0.764026,-0.023781,-0.2618,-1.757221,0.115352,-0.162858,0.570789,-0.119887,-0.032291,-0.004554,0.353458,0.583363,-0.043333,-1.682126,-0.604085,-0.208909,-0.410716,0.396131,-1.767212,0.771424,0.0
208,-1.666811,-0.346606,0.760945,0.589675,0.126186,-0.775159,0.188387,-1.765436,0.13958,0.062374,0.68669,0.000549,-0.2618,-1.843932,0.134961,-0.190577,0.590768,-0.100278,-0.04469,0.036338,0.323813,0.577969,-0.085665,-1.751927,-0.664212,-0.200363,-0.434459,0.425464,-1.586646,0.904416,0.0
209,-1.665991,-0.351579,0.758073,0.590839,0.143606,-0.769285,0.196181,-1.816186,0.133347,0.077459,0.604256,0.102897,-0.2618,-1.853922,0.129128,-0.219026,0.607786,-0.106587,-0.03871,0.068943,0.321829,0.618449,-0.140341,-1.806857,-0.686733,-0.148056,-0.480866,0.474985,-1.486691,1.068631,0.0
210,-1.666995,-0.365469,0.756114,0.578334,0.154354,-0.775545,0.200586,-1.792029,0.133065,0.057649,0.617558,0.032812,-0.2618,-1.833575,0.111503,-0.214157,0.641372,-0.124135,-0.020006,0.064725,0.328874,0.664682,-0.167845,-1.829387,-0.698453,-0.124193,-0.459006,0.434544,-1.548849,1.07438,0.0
211,-1.659277,-0.374779,0.75065,0.577727,0.162776,-0.774428,0.199993,-1.817824,0.130337,0.050189,0.652902,-0.027374,-0.257215,-1.858905,0.103115,-0.21578,0.674514,-0.121122,-0.011995,0.047433,0.320271,0.692942,-0.196463,-1.873612,-0.710948,-0.111559,-0.453977,0.409522,-1.575181,1.027455,0.0
212,-1.655038,-0.38975,0.745111,0.567716,0.175101,-0.777762,0.205243,-1.845827,0.129805,0.026083,0.726347,-0.103841,-0.242051,-1.86515,0.077742,-0.216742,0.729417,-0.12295,0.012605,0.048877,0.346602,0.750694,-0.202492,-1.92469,-0.68332,-0.079771,-0.508118,0.378128,-1.605235,1.003564,0.0
213,-1.636126,-0.395698,0.730825,0.577264,0.190632,-0.766596,0.206776,-1.976616,0.113795,0.014463,0.842039,-0.143944,-0.203445,-1.953876,0.0674,-0.223643,0.793421,-0.104059,0.011177,0.059418,0.362215,0.813789,-0.168373,-1.992734,-0.644413,-0.052661,-0.568425,0.331821,-1.654799,0.918582,0.0
214,-1.626924,-0.403766,0.721559,0.575151,0.206038,-0.761853,0.215242,-2.059353,0.091391,-0.024456,0.933338,-0.156896,-0.183162,-1.994297,0.045149,-0.227558,0.85251,-0.098214,0.012312,0.076228,0.388387,0.874687,-0.121401,-2.058617,-0.592054,-0.015256,-0.620972,0.290838,-1.693934,0.818279,0.0
215,-1.633536,-0.417812,0.721502,0.550834,0.217792,-0.771021,0.233828,-2.038206,0.081815,-0.073184,0.980613,-0.187662,-0.182546,-1.937506,0.006022,-0.224554,0.894566,-0.124917,0.041846,0.086601,0.449353,0.916077,-0.065295,-2.096084,-0.535521,0.054335,-0.648902,0.243295,-1.715561,0.741365,0.0
216,-1.628126,-0.419407,0.716312,0.54849,0.228164,-0.766141,0.245208,-2.064467,0.062388,-0.084978,0.996858,-0.201681,-0.173248,-1.952557,-0.013328,-0.229898,0.922133,-0.126898,0.050567,0.088561,0.434712,0.898612,-0.043116,-2.108974,-0.543507,0.074853,-0.661795,0.206351,-1.709216,0.696092,0.0
217,-1.625336,-0.422414,0.713042,0.54401,0.236598,-0.762018,0.25962,-2.075231,0.034784,-0.103796,1.008523,-0.213686,-0.16556,-1.955897,-0.038962,-0.231824,0.947734,-0.135954,0.06504,0.088029,0.405191,0.860836,-0.045376,-2.11854,-0.562865,0.093492,-0.682548,0.181849,-1.700214,0.667394,0.0
218,-1.625161,-0.426533,0.711844,0.538608,0.244679,-0.758132,0.274353,-2.081324,0.006773,-0.127803,1.019333,-0.213062,-0.159079,-1.950143,-0.062007,-0.232147,0.967915,-0.14378,0.073228,0.08978,0.369654,0.820798,-0.065644,-2.12442,-0.580257,0.108749,-0.703255,0.168237,-1.693812,0.659291,0.0
219,-1.626259,-0.429094,0.711741,0.531508,0.25382,-0.754587,0.289263,-2.083719,-0.0186,-0.158093,1.023612,-0.207524,-0.157461,-1.936416,-0.079411,-0.230989,0.98402,-0.148516,0.086262,0.093147,0.334691,0.796364,-0.094931,-2.124467,-0.589315,0.122198,-0.720205,0.159354,-1.685919,0.662209,0.0
220,-1.62807,-0.430383,0.711431,0.523105,0.261549,-0.751754,0.304662,-2.07701,-0.040869,-0.187035,1.021626,-0.207266,-0.158372,-1.918674,-0.098212,-0.232823,1.001988,-0.153696,0.102736,0.092488,0.301032,0.789337,-0.124234,-2.117384,-0.601905,0.135425,-0.739617,0.154179,-1.670342,0.670204,0.0
221,-1.633703,-0.434823,0.713185,0.506891,0.264203,-0.753532,0.324727,-2.034776,-0.05611,-0.214372,1.01394,-0.219565,-0.165287,-1.875558,-0.131165,-0.237816,1.025222,-0.16414,0.121861,0.089741,0.279782,0.779011,-0.15968,-2.095117,-0.615565,0.168435,-0.76764,0.14573,-1.647937,0.654068,0.0
222,-1.629226,-0.428894,0.708711,0.503696,0.273208,-0.745856,0.339627,-2.062989,-0.085424,-0.231528,1.019272,-0.199431,-0.160768,-1.902946,-0.165283,-0.261578,1.07075,-0.145047,0.118822,0.097144,0.221655,0.739373,-0.207362,-2.065215,-0.639169,0.174062,-0.788439,0.133923,-1.611119,0.618482,0.0
223,-1.633694,-0.431424,0.709124,0.491197,0.275253,-0.744414,0.3589,-2.038646,-0.103561,-0.249347,1.019864,-0.194896,-0.159424,-1.885442,-0.198938,-0.257545,1.108232,-0.133542,0.12625,0.092673,0.17104,0.698396,-0.250978,-2.019903,-0.656582,0.197578,-0.827036,0.126586,-1.580907,0.56952,0.0
224,-1.637444,-0.433097,0.709447,0.479165,0.275796,-0.742543,0.37811,-2.012241,-0.118218,-0.256385,1.016442,-0.192429,-0.152567,-1.862993,-0.231396,-0.254868,1.136889,-0.133443,0.136935,0.093183,0.119094,0.657095,-0.291548,-1.967491,-0.659909,0.231333,-0.871292,0.118916,-1.55339,0.528926,0.0
225,-1.64081,-0.434847,0.710216,0.467426,0.276701,-0.740179,0.39634,-1.988392,-0.130427,-0.260795,1.013432,-0.188495,-0.143675,-1.835831,-0.25998,-0.25675,1.158687,-0.1352,0.145005,0.096889,0.066091,0.615697,-0.328933,-1.911545,-0.658378,0.271591,-0.916553,0.106208,-1.527001,0.493769,0.0
226,-1.651925,-0.442602,0.71482,0.451727,0.272454,-0.741986,0.413725,-1.93259,-0.123676,-0.26328,1.005741,-0.197445,-0.139734,-1.776813,-0.275107,-0.24582,1.169044,-0.142025,0.167036,0.090746,0.034153,0.584496,-0.340698,-1.870604,-0.651293,0.311011,-0.967893,0.093273,-1.4986,0.475695,0.0
227,-1.6561,-0.444221,0.715769,0.44104,0.27648,-0.737483,0.430305,-1.919862,-0.127839,-0.257493,1.004085,-0.192545,-0.120893,-1.753612,-0.298402,-0.257789,1.191279,-0.12591,0.177183,0.098434,0.000252,0.553715,-0.356423,-1.835245,-0.655441,0.331711,-0.985052,0.082759,-1.46677,0.464104,0.0
228,-1.661396,-0.448001,0.717282,0.428764,0.281,-0.732854,0.447353,-1.90022,-0.129897,-0.259434,0.999411,-0.192544,-0.108552,-1.737743,-0.318931,-0.253455,1.224631,-0.084898,0.18821,0.107599,-0.033482,0.522858,-0.374957,-1.795211,-0.65782,0.345988,-0.996153,0.069644,-1.436659,0.452618,0.0
229,-1.657218,-0.447994,0.715124,0.415229,0.294309,-0.723916,0.465739,-1.897178,-0.157313,-0.301202,0.990607,-0.203243,-0.119953,-1.764416,-0.343898,-0.232223,1.278793,0.022535,0.197692,0.135195,-0.082394,0.483174,-0.419839,-1.727454,-0.657263,0.343856,-0.970147,0.053957,-1.40793,0.436355,0.0
230,-1.661042,-0.45326,0.715386,0.400351,0.304112,-0.717992,0.481376,-1.873581,-0.167636,-0.349737,0.980346,-0.230156,-0.145632,-1.790691,-0.330064,-0.160509,1.33387,0.133643,0.197492,0.145421,-0.125077,0.470594,-0.456717,-1.674502,-0.653944,0.327783,-0.955607,0.047919,-1.397344,0.439818,0.0
231,-1.66464,-0.457878,0.71626,0.387024,0.309955,-0.713226,0.495429,-1.855665,-0.178036,-0.386872,0.98184,-0.239118,-0.15997,-1.819495,-0.282677,-0.051818,1.381727,0.202623,0.156753,0.145482,-0.157054,0.458771,-0.489455,-1.636071,-0.665559,0.317247,-0.951746,0.05284,-1.411939,0.441558,0.0
232,-1.667828,-0.45733,0.716221,0.375962,0.308239,-0.712141,0.506456,-1.834495,-0.179475,-0.404819,0.979407,-0.244585,-0.175606,-1.829461,-0.221497,0.058749,1.410906,0.156867,0.124054,0.145855,-0.180008,0.425005,-0.506683,-1.594152,-0.675586,0.335598,-0.973735,0.051037,-1.443703,0.430902,0.0
233,-1.674682,-0.44882,0.71245,0.369486,0.307258,-0.709343,0.515659,-1.83495,-0.180045,-0.421703,0.976576,-0.243368,-0.193994,-1.832614,-0.184542,0.110857,1.388307,0.027534,0.171204,0.153808,-0.209518,0.387736,-0.507164,-1.551259,-0.675758,0.354518,-0.989828,0.037426,-1.460527,0.420572,0.0
234,-1.684438,-0.437509,0.703467,0.366981,0.310574,-0.699791,0.528357,-1.859271,-0.198691,-0.451505,0.983136,-0.241077,-0.22496,-1.842026,-0.150882,0.145315,1.306169,-0.039533,0.232001,0.161481,-0.24107,0.366791,-0.512639,-1.521715,-0.676085,0.356467,-0.991251,0.031468,-1.452752,0.425791,0.0
235,-1.694016,-0.429592,0.698885,0.364425,0.312101,-0.693065,0.538004,-1.871536,-0.20536,-0.470334,0.980305,-0.23078,-0.252235,-1.828354,-0.127871,0.167642,1.229089,-0.05559,0.2618,0.176517,-0.269955,0.356498,-0.524756,-1.5021,-0.684747,0.366289,-1.001335,0.035678,-1.437897,0.434652,0.0
236,-1.708447,-0.419469,0.694624,0.361978,0.311527,-0.686545,0.54825,-1.879976,-0.204683,-0.48808,0.965616,-0.207632,-0.2618,-1.793066,-0.108402,0.196722,1.236531,-0.13404,0.2618,0.19165,-0.295111,0.345484,-0.533634,-1.489123,-0.684024,0.362569,-1.00557,0.028093,-1.420949,0.452253,0.0
237,-1.7188,-0.412843,0.690966,0.359687,0.310486,-0.680446,0.557868,-1.882015,-0.210358,-0.502896,0.954028,-0.189533,-0.2618,-1.765957,-0.094962,0.219185,1.23905,-0.212919,0.2618,0.206715,-0.309814,0.334036,-0.534843,-1.480451,-0.661802,0.34463,-0.979993,0.033982,-1.393239,0.434859,0.0
238,-1.728695,-0.405094,0.686689,0.361089,0.308419,-0.673767,0.566155,-1.887342,-0.219542,-0.511328,0.940674,-0.168771,-0.2618,-1.750814,-0.10067,0.21001,1.24137,-0.30437,0.2618,0.215998,-0.320909,0.327329,-0.549508,-1.479311,-0.654021,0.333387,-0.989876,0.05058,-1.377467,0.457026,0.0
239,-1.737346,-0.405947,0.686649,0.364707,0.298832,-0.672187,0.570835,-1.870204,-0.215225,-0.498856,0.931873,-0.1629,-0.2618,-1.732938,-0.116553,0.192948,1.240631,-0.361879,0.2618,0.213579,-0.326835,0.319485,-0.551272,-1.479065,-0.661677,0.339,-1.027828,0.055352,-1.367908,0.489693,0.0
240,-1.742773,-0.40191,0.685934,0.369334,0.290558,-0.67011,0.574562,-1.856452,-0.214965,-0.483803,0.910561,-0.154679,-0.2618,-1.736957,-0.136835,0.173627,1.243682,-0.410789,0.2618,0.211241,-0.320509,0.301192,-0.548237,-1.468496,-0.674546,0.344102,-1.038075,0.049218,-1.369799,0.495752,0.0
241,-1.749261,-0.394689,0.684682,0.374441,0.283034,-0.666814,0.578831,-1.844122,-0.213788,-0.469769,0.878834,-0.142881,-0.2618,-1.744957,-0.151911,0.163525,1.246048,-0.459161,0.2618,0.199101,-0.312244,0.292164,-0.546315,-1.454898,-0.691105,0.347349,-1.038809,0.040902,-1.379182,0.478019,0.0
242,-1.755896,-0.38633,0.682854,0.377673,0.276076,-0.662645,0.584848,-1.831278,-0.210458,-0.454035,0.8436,-0.128658,-0.2618,-1.753985,-0.166244,0.154468,1.254306,-0.504284,0.248894,0.184402,-0.300302,0.28961,-0.541459,-1.441913,-0.702862,0.348591,-1.036153,0.031999,-1.395905,0.456408,0.0
243,-1.762219,-0.37837,0.680509,0.377705,0.269586,-0.658191,0.59283,-1.819762,-0.201478,-0.431761,0.812262,-0.115268,-0.2618,-1.760038,-0.182468,0.142915,1.269934,-0.544015,0.230006,0.170037,-0.284157,0.294026,-0.532196,-1.435256,-0.7079,0.341265,-1.020444,0.022738,-1.414577,0.443239,0.0
244,-1.770563,-0.371044,0.677564,0.37386,0.263731,-0.652478,0.604108,-1.810242,-0.183181,-0.397328,0.788294,-0.104804,-0.2618,-1.760624,-0.199744,0.130828,1.296371,-0.57609,0.21544,0.154498,-0.264041,0.308778,-0.520599,-1.436507,-0.70898,0.323929,-0.989726,0.018648,-1.424089,0.442743,0.0
245,-1.776482,-0.357167,0.669378,0.367562,0.264669,-0.638736,0.621984,-1.828165,-0.180994,-0.35838,0.766266,-0.072813,-0.2618,-1.793482,-0.236059,0.102809,1.352351,-0.598849,0.193838,0.145507,-0.228961,0.334653,-0.511687,-1.451193,-0.708794,0.279,-0.918375,0.034853,-1.414174,0.460841,0.0
246,-1.789704,-0.354147,0.664093,0.355709,0.258959,-0.625402,0.644426,-1.824059,-0.156916,-0.293114,0.762871,-0.051408,-0.2618,-1.772283,-0.281575,0.067478,1.39908,-0.636728,0.179136,0.122175,-0.183873,0.377823,-0.487044,-1.486566,-0.69196,0.242041,-0.881367,0.070565,-1.394122,0.487848,0.0
247,-1.804326,-0.352992,0.657277,0.341228,0.255684,-0.608978,0.668832,-1.835236,-0.110034,-0.181583,0.785692,-0.026448,-0.251612,-1.740372,-0.335698,0.01253,1.449332,-0.672668,0.159781,0.108158,-0.135424,0.416051,-0.455033,-1.53725,-0.663473,0.219188,-0.862843,0.100183,-1.370916,0.512928,0.0
248,-1.809193,-0.353124,0.654813,0.322847,0.250964,-0.594635,0.69224,-1.835127,-0.023342,0.012679,0.835033,-0.008318,-0.1872,-1.68701,-0.396721,-0.041453,1.473347,-0.6807,0.15538,0.103895,-0.070641,0.452513,-0.408106,-1.600271,-0.618324,0.219831,-0.851275,0.113482,-1.356429,0.541919,0.0
249,-1.811128,-0.363509,0.659696,0.299565,0.233212,-0.588806,0.713569,-1.778245,0.065434,0.146708,0.904674,7.4e-05,-0.118303,-1.568689,-0.441101,-0.079726,1.460298,-0.6807,0.167026,0.098968,0.001386,0.475218,-0.354525,-1.639805,-0.574101,0.26161,-0.872968,0.097177,-1.360416,0.570029,0.0
250,-1.808528,-0.363037,0.658752,0.283982,0.230045,-0.577801,0.72978,-1.775889,0.094591,0.175954,0.972319,0.019668,-0.035512,-1.522761,-0.477403,-0.112025,1.472055,-0.6807,0.176358,0.115034,0.031418,0.458264,-0.315575,-1.659136,-0.544616,0.26303,-0.848605,0.064914,-1.360894,0.593565,0.0
251,-1.801257,-0.36574,0.658787,0.264216,0.220096,-0.568248,0.747557,-1.751792,0.111539,0.172585,1.053262,0.002912,0.002252,-1.444017,-0.52522,-0.147373,1.47159,-0.6807,0.19817,0.129706,0.073687,0.421995,-0.256175,-1.662615,-0.457945,0.262501,-0.797336,0.028466,-1.361504,0.615965,0.0
252,-1.790585,-0.367381,0.65864,0.245094,0.213145,-0.560538,0.761771,-1.729504,0.144973,0.195356,1.145357,-0.018636,0.05401,-1.352515,-0.563534,-0.193672,1.450631,-0.6807,0.23188,0.161886,0.101177,0.370234,-0.20376,-1.645612,-0.360262,0.251584,-0.748142,-0.00438,-1.352294,0.625832,0.0
253,-1.77719,-0.370301,0.657262,0.220276,0.208795,-0.557239,0.772896,-1.703562,0.197094,0.216461,1.244814,-0.061698,0.047899,-1.250379,-0.589071,-0.247805,1.437426,-0.6807,0.261792,0.217589,0.135343,0.324693,-0.172521,-1.630616,-0.278734,0.244166,-0.695227,-0.013673,-1.324848,0.620839,0.0
254,-1.765004,-0.375523,0.659739,0.178728,0.206554,-0.565994,0.777845,-1.655228,0.234625,0.165307,1.271835,-0.196934,0.05596,-1.093469,-0.568133,-0.338112,1.405127,-0.668564,0.2618,0.314063,0.217445,0.348906,-0.163014,-1.688767,-0.219901,0.245353,-0.612619,0.00959,-1.289556,0.611683,0.0
255,-1.752124,-0.384458,0.681812,0.12886,0.21209,-0.567953,0.784756,-1.592475,0.28711,0.135813,1.228409,-0.238554,0.085189,-0.884269,-0.490076,-0.462792,1.284778,-0.55494,0.2618,0.418559,0.314145,0.441033,-0.168422,-1.810306,-0.224427,0.231571,-0.503768,0.036573,-1.251988,0.605505,0.0
256,-1.72354,-0.404252,0.716681,0.094861,0.20909,-0.536575,0.812016,-1.452213,0.227282,0.100963,1.133043,-0.215428,0.072183,-0.705464,-0.452499,-0.531449,1.153846,-0.320761,0.257328,0.444982,0.372595,0.504934,-0.168317,-1.868735,-0.254296,0.248374,-0.429271,0.047121,-1.237714,0.607524,0.0
257,-1.689377,-0.425028,0.756345,0.076439,0.196899,-0.481584,0.850567,-1.278198,0.114708,0.073025,0.998724,-0.121441,0.040269,-0.578039,-0.45504,-0.575449,1.05357,-0.000809,0.115957,0.414994,0.415082,0.522438,-0.153155,-1.87628,-0.202825,0.305782,-0.400483,0.059416,-1.273979,0.616914,0.0
258,-1.667335,-0.436002,0.784916,0.063207,0.192489,-0.416942,0.886066,-1.209717,0.025592,0.031031,0.92252,0.054882,-0.001384,-0.597246,-0.387748,-0.443862,1.087537,0.058269,-0.031574,0.358665,0.435724,0.526521,-0.128691,-1.882674,-0.078837,0.351171,-0.374488,0.067994,-1.373467,0.666608,0.0
259,-1.65607,-0.442546,0.799371,0.051336,0.198832,-0.355325,0.911907,-1.235835,-0.010552,-0.001721,0.937103,0.162658,-0.23216,-0.719278,-0.276628,-0.259015,1.206095,0.020878,0.017457,0.300488,0.427076,0.514229,-0.107116,-1.893892,-0.010216,0.367565,-0.348687,0.066035,-1.497681,0.702445,0.0
260,-1.632175,-0.430398,0.807907,0.043759,0.209468,-0.312135,0.925624,-1.278347,0.036192,0.125958,1.013781,0.174721,-0.2618,-0.832353,-0.375118,-0.31527,1.265763,-0.003049,0.001823,0.267772,0.39349,0.467568,-0.098056,-1.893998,-0.038338,0.35569,-0.353426,0.071595,-1.573181,0.671375,0.0
261,-1.619831,-0.443611,0.81347,0.040309,0.215565,-0.275418,0.935976,-1.316406,0.041552,0.086027,1.072718,0.09073,-0.2618,-0.903928,-0.40733,-0.317484,1.213821,-0.074625,-0.032549,0.227021,0.356794,0.393798,-0.08623,-1.867783,-0.093647,0.34564,-0.370421,0.079807,-1.62458,0.614669,0.0
262,-1.606794,-0.464966,0.81221,0.033423,0.22245,-0.229835,0.946876,-1.354427,0.053213,0.029937,1.086685,-0.012778,-0.261742,-0.934407,-0.388214,-0.2577,1.073054,-0.120321,0.048455,0.172393,0.31548,0.323922,-0.073633,-1.817062,-0.138291,0.324412,-0.366614,0.082307,-1.65475,0.585528,0.0
263,-1.582607,-0.482896,0.802845,0.025002,0.223361,-0.170407,0.959399,-1.363784,0.059041,0.011788,1.049525,-0.13089,-0.17452,-0.880924,-0.3933,-0.201095,0.878965,-0.142477,0.185077,0.099541,0.280738,0.261384,-0.061609,-1.749166,-0.160787,0.315452,-0.348934,0.083931,-1.668746,0.573991,0.0
264,-1.556213,-0.500494,0.784182,0.013648,0.224237,-0.098304,0.969468,-1.376511,0.052907,0.008232,0.974868,-0.242885,-0.100149,-0.781978,-0.410102,-0.1601,0.733182,-0.113618,0.2618,0.019974,0.246998,0.222359,-0.062528,-1.697202,-0.156846,0.307086,-0.322098,0.092925,-1.669515,0.519538,0.0
265,-1.532593,-0.516973,0.755147,-0.002711,0.231047,-0.044444,0.971923,-1.439177,0.070013,0.017516,0.919416,-0.292008,-0.048211,-0.710057,-0.42554,-0.171173,0.733235,-0.153633,0.2618,-0.006229,0.206228,0.197432,-0.07513,-1.677736,-0.151003,0.288955,-0.306235,0.113983,-1.67627,0.474328,0.0
266,-1.52853,-0.542199,0.706869,-0.024977,0.257934,-0.010362,0.965784,-1.61477,0.082358,-0.01266,0.905584,-0.277709,-0.029122,-0.752144,-0.395961,-0.173917,0.898018,-0.417757,0.2618,0.022308,0.141091,0.181991,-0.098177,-1.686936,-0.1278,0.227248,-0.28613,0.152607,-1.687269,0.467546,0.0
267,-1.508029,-0.553602,0.675626,-0.037219,0.25604,-0.006843,0.965925,-1.709249,0.127601,-0.038274,0.988235,-0.191925,-0.003673,-0.68296,-0.375937,-0.22034,0.938501,-0.608446,0.2618,0.088356,0.133931,0.150529,-0.111236,-1.699029,-0.043215,0.201522,-0.332755,0.186289,-1.71515,0.461552,0.0
268,-1.48305,-0.556658,0.649531,-0.064187,0.28656,0.016652,0.955765,-1.878111,0.071098,-0.122829,1.126675,-0.159678,0.059734,-0.677139,-0.332254,-0.253063,0.979064,-0.672866,0.2618,0.109445,0.089176,0.157134,-0.140481,-1.727106,0.013888,0.112576,-0.302811,0.216398,-1.748322,0.4815,0.0
269,-1.450127,-0.544585,0.642965,-0.081059,0.306493,0.033731,0.947815,-1.935368,0.014882,-0.167382,1.203466,-0.150662,0.081455,-0.637539,-0.324027,-0.311977,0.959466,-0.612181,0.2618,0.125991,0.050213,0.14959,-0.170469,-1.76479,0.011377,0.07622,-0.285683,0.225496,-1.769092,0.44604,0.0
270,-1.399824,-0.505198,0.650951,-0.088374,0.31365,0.057452,0.94367,-1.877289,-0.042922,-0.148552,1.273219,-0.263207,0.129916,-0.577787,-0.373594,-0.357705,0.928922,-0.335431,0.2618,0.127421,0.046087,0.136852,-0.200347,-1.811707,-0.009135,0.104213,-0.279154,0.220349,-1.802211,0.407518,0.0
271,-1.332646,-0.44414,0.660231,-0.070577,0.30168,0.091153,0.946414,-1.689592,-0.113578,-0.070539,1.322181,-0.433176,0.159766,-0.563459,-0.470361,-0.269428,0.979308,0.033686,0.2618,0.062926,0.110126,0.115035,-0.203589,-1.859893,0.015532,0.177586,-0.316273,0.233183,-1.838911,0.406108,0.0
272,-1.281308,-0.406298,0.677114,-0.067807,0.303071,0.12687,0.942048,-1.542593,-0.180219,-0.050203,1.278225,-0.501299,0.187027,-0.680819,-0.413332,-0.091589,1.146186,-0.034113,0.129871,-0.008499,0.150907,0.150399,-0.213844,-1.91541,0.063174,0.19986,-0.301543,0.264615,-1.862043,0.429248,0.0
273,-1.233852,-0.374725,0.69939,-0.0741,0.30173,0.135539,0.940796,-1.434613,-0.18286,-0.051616,1.248421,-0.485208,0.183546,-0.862045,-0.343486,-0.00061,1.311442,-0.113175,0.061727,-0.02903,0.17718,0.203788,-0.217495,-1.953384,0.100281,0.201199,-0.263368,0.289225,-1.851461,0.49249,0.0
274,-1.188356,-0.338082,0.721379,-0.085844,0.301502,0.111587,0.943014,-1.414307,-0.126191,-0.025971,1.300545,-0.315356,0.172908,-1.059976,-0.345984,-0.071726,1.391005,-0.289077,-0.070762,0.008646,0.193585,0.23901,-0.211387,-1.960841,0.080601,0.188227,-0.220335,0.29574,-1.806991,0.517614,0.0
275,-1.144874,-0.308697,0.737624,-0.090634,0.302804,0.090447,0.944412,-1.471293,-0.081958,-0.02844,1.41354,-0.054681,0.064515,-1.243715,-0.226907,-0.055264,1.385996,-0.370108,-0.044971,0.044983,0.194084,0.240725,-0.196092,-1.945521,0.02021,0.175323,-0.194647,0.300319,-1.758464,0.524886,0.0
276,-1.114248,-0.287824,0.733811,-0.086125,0.326481,0.086585,0.937281,-1.649743,-0.085464,-0.057566,1.581064,0.01763,-0.1016,-1.479937,-0.015543,0.089298,1.333747,-0.321906,0.2618,0.049137,0.144147,0.203201,-0.183764,-1.909189,-0.041905,0.127313,-0.181661,0.315811,-1.725751,0.593596,0.0
277,-1.04836,-0.283072,0.735032,-0.084544,0.308194,0.108118,0.941371,-1.677531,-0.004841,-0.137318,1.614657,-0.060216,-0.129015,-1.439862,0.09284,0.151678,1.169627,-0.355067,0.2618,0.035222,0.157392,0.203947,-0.162473,-1.848729,-0.034117,0.143535,-0.165329,0.307123,-1.705859,0.571062,0.0
278,-1.010817,-0.240461,0.717182,-0.089502,0.319576,0.130594,0.934241,-1.800935,0.010548,-0.149028,1.520652,-0.142075,-0.051053,-1.495592,0.040165,0.173067,1.047739,-0.281594,0.2618,0.0215,0.135329,0.179581,-0.142861,-1.8231,-0.007544,0.105422,-0.138369,0.317793,-1.70237,0.526388,0.0
279,-0.964779,-0.188629,0.702091,-0.099067,0.308728,0.177434,0.929188,-1.815671,0.01069,-0.119818,1.268514,-0.223035,0.007285,-1.422706,-0.086762,0.161469,1.065583,-0.34433,0.2618,-0.00046,0.129087,0.201967,-0.149057,-1.833623,0.05699,0.088798,-0.101365,0.303388,-1.710562,0.495153,0.0
280,-0.907902,-0.153771,0.673196,-0.105404,0.287254,0.223933,0.925327,-1.816264,0.038151,-0.04895,0.990454,-0.266393,-0.019504,-1.325909,-0.223077,0.102857,1.21068,-0.513071,0.2618,-0.007216,0.148926,0.227023,-0.158427,-1.892126,0.048953,0.107109,-0.08449,0.289149,-1.745482,0.449672,0.0
281,-0.85167,-0.116569,0.652887,-0.11063,0.265123,0.237303,0.927986,-1.816831,0.079039,-0.000512,0.81429,-0.230047,-0.040757,-1.157819,-0.292954,0.052573,1.244953,-0.623329,0.2618,0.039639,0.156125,0.215184,-0.149279,-1.934883,0.056336,0.108168,-0.132897,0.278769,-1.778712,0.407558,0.0
282,-0.805864,-0.081938,0.644929,-0.117521,0.249944,0.250198,0.927964,-1.817168,0.076973,-0.006708,0.806613,-0.093484,0.013413,-0.987246,-0.339014,-0.023577,1.21852,-0.646367,0.2618,0.07251,0.161349,0.201717,-0.15443,-1.96169,0.083113,0.107746,-0.192204,0.275585,-1.802556,0.400836,0.0
283,-0.762701,-0.032123,0.644794,-0.117381,0.238189,0.268788,0.925873,-1.801845,0.023039,-0.06618,0.942275,0.033313,0.093456,-0.837457,-0.387684,-0.04953,1.186796,-0.536822,0.2618,0.068498,0.174476,0.200799,-0.172518,-1.996146,0.085967,0.120558,-0.253221,0.275374,-1.826519,0.40475,0.0
284,-0.725804,0.048541,0.647459,-0.102928,0.232021,0.312313,0.915441,-1.723792,-0.088493,-0.031712,1.102425,-0.046627,0.174754,-0.751021,-0.480674,-0.008236,1.199596,-0.212269,0.2618,0.000646,0.206507,0.207278,-0.202838,-2.040527,0.076721,0.169438,-0.311835,0.255687,-1.861212,0.384902,0.0
285,-0.697494,0.123087,0.661737,-0.110407,0.229878,0.332811,0.907856,-1.636656,-0.135126,-0.003924,1.183964,-0.194022,0.218692,-0.792903,-0.524049,-0.021065,1.278354,-0.020279,0.045931,-0.013116,0.212503,0.255472,-0.216139,-2.061747,0.086455,0.17363,-0.308868,0.2409,-1.8599,0.376516,0.0
286,-0.668273,0.166914,0.683355,-0.122276,0.229828,0.349405,0.90008,-1.550042,-0.148334,-0.011405,1.178104,-0.256889,0.223765,-0.891739,-0.374197,0.072881,1.402068,-0.073956,0.048116,-0.023558,0.223666,0.307507,-0.21766,-2.080431,0.104226,0.155997,-0.285922,0.235532,-1.835651,0.392496,0.0
287,-0.648776,0.218252,0.705798,-0.135114,0.23555,0.350327,0.896399,-1.501634,-0.139786,0.011627,1.187807,-0.225317,0.240219,-1.062279,-0.335069,0.00342,1.498372,-0.127156,-0.010836,0.000681,0.211599,0.341749,-0.215192,-2.090111,0.102592,0.128244,-0.260279,0.225469,-1.803776,0.402076,0.0
288,-0.627803,0.266175,0.72855,-0.143457,0.237656,0.349399,0.894908,-1.507666,-0.107539,0.033767,1.248889,-0.043546,0.189991,-1.195981,-0.26498,-0.085962,1.510484,-0.202089,-0.088968,0.035801,0.196476,0.358494,-0.214085,-2.085328,0.070276,0.117251,-0.240872,0.212992,-1.77559,0.399349,0.0
289,-0.604386,0.305809,0.7483,-0.146041,0.240482,0.359724,0.889629,-1.5575,-0.090615,0.012148,1.33764,0.156166,-0.014413,-1.310554,-0.115698,-0.096823,1.433728,-0.208897,-0.016683,0.045207,0.178721,0.348736,-0.217001,-2.069392,0.013912,0.107751,-0.230386,0.213847,-1.759542,0.415756,0.0
290,-0.573148,0.338445,0.75432,-0.146142,0.244436,0.383645,0.87847,-1.594019,-0.023699,0.03234,1.399392,0.095412,-0.105284,-1.405695,0.024271,-0.076968,1.291361,-0.197775,0.155506,0.023287,0.168775,0.32674,-0.219161,-2.041431,-0.03081,0.094894,-0.219698,0.227916,-1.74334,0.449813,0.0
291,-0.536632,0.374326,0.749452,-0.147299,0.244682,0.413169,0.864711,-1.60207,0.057761,0.051663,1.338055,-0.017778,-0.048298,-1.464741,0.13174,-0.024976,1.098942,-0.23581,0.261798,0.001176,0.165499,0.307053,-0.223099,-1.997821,-0.049489,0.094396,-0.198364,0.236571,-1.729414,0.472099,0.0
292,-0.512069,0.422648,0.736866,-0.15399,0.240479,0.437733,0.852553,-1.562045,0.080125,0.03812,1.149624,-0.107797,-0.17223,-1.500588,0.177559,0.043,0.887765,-0.248978,0.2618,0.008588,0.153769,0.30292,-0.229178,-1.95049,-0.053293,0.098252,-0.162967,0.237716,-1.710946,0.45691,0.0
293,-0.482902,0.474207,0.730025,-0.153825,0.231623,0.476938,0.833798,-1.516405,0.086303,0.069201,1.188544,-0.157924,-0.17352,-1.475068,0.115671,0.041239,0.64362,-0.250793,0.243411,-0.007954,0.143472,0.308725,-0.243347,-1.915451,-0.05142,0.102409,-0.134558,0.245743,-1.695491,0.447827,0.0
294,-0.451117,0.523351,0.717312,-0.158472,0.20251,0.524543,0.811622,-1.487337,0.074804,0.010653,1.317639,-0.208407,-0.115446,-1.411427,0.045966,0.017773,0.465465,-0.251341,0.09471,-0.030574,0.173607,0.356762,-0.253868,-1.922042,-0.041645,0.115582,-0.088385,0.265979,-1.699037,0.469343,0.0
295,-0.420117,0.569033,0.699675,-0.162281,0.18705,0.563961,0.787798,-1.474996,0.067835,-0.034767,1.434096,-0.257401,-0.081672,-1.417863,0.013138,0.095109,0.445002,-0.198361,0.035683,-0.038733,0.162017,0.36837,-0.270027,-1.939707,-0.006976,0.09769,-0.07321,0.280599,-1.721912,0.459275,0.0
296,-0.395093,0.603019,0.676538,-0.169377,0.190893,0.577777,0.775271,-1.517542,0.071324,-0.08163,1.552792,-0.293621,-0.089826,-1.543433,0.04945,0.20832,0.618272,0.074205,0.104208,0.00193,0.119043,0.330707,-0.276974,-1.948219,0.026962,0.067153,-0.080967,0.285708,-1.742169,0.433212,0.0
297,-0.363607,0.648835,0.656736,-0.166842,0.183558,0.590659,0.767849,-1.504348,0.084499,-0.156777,1.663716,-0.306234,-0.140416,-1.647237,0.072779,0.249307,0.932993,0.01815,0.097757,0.054947,0.097112,0.293103,-0.272986,-1.947731,0.036287,0.0747,-0.104569,0.272495,-1.759724,0.388793,0.0
298,-0.337964,0.6936,0.658731,-0.169064,0.164599,0.6104,0.756132,-1.440093,0.103666,-0.221856,1.685917,-0.284571,-0.147364,-1.615497,0.046436,0.240147,1.063484,-0.001132,0.14155,0.091973,0.086525,0.282682,-0.250777,-1.949225,0.074481,0.074764,-0.111875,0.259442,-1.777538,0.326951,0.0
299,-0.306206,0.722544,0.654643,-0.17508,0.16492,0.631622,0.737023,-1.482092,0.089466,-0.288837,1.731678,-0.166857,-0.10427,-1.635052,0.021821,0.201936,1.20156,-0.120192,0.114092,0.103694,0.078125,0.219155,-0.22476,-1.952023,0.104085,0.074099,-0.138836,0.235924,-1.798226,0.288049,0.0
300,-0.272413,0.753165,0.667089,-0.174358,0.162466,0.664247,0.708506,-1.52412,0.106908,-0.291935,1.73932,0.005133,-0.041483,-1.578657,-0.050494,0.142026,1.259068,-0.234246,0.08218,0.073864,0.08956,0.164454,-0.19274,-1.956154,0.116297,0.106563,-0.17759,0.209878,-1.837435,0.235361,0.0
