chrisxuxuhui/mimic_robot/GMR/RetargetData/lafan1/csv/pm01/fight5_ti1.csv
frame,root pos x,root pos y,root pos z,root rot x,root rot y,root rot z,root rot w,j00_hip_pitch_l_joint,j01_hip_roll_l_joint,j02_hip_yaw_l_joint,j03_knee_pitch_l_joint,j04_ankle_pitch_l_joint,j05_ankle_roll_l_joint,j06_hip_pitch_r_joint,j07_hip_roll_r_joint,j08_hip_yaw_r_joint,j09_knee_pitch_r_joint,j10_ankle_pitch_r_joint,j11_ankle_roll_r_joint,j12_waist_yaw_joint,j13_shoulder_pitch_l_joint,j14_shoulder_roll_l_joint,j15_shoulder_yaw_l_joint,j16_elbow_pitch_l_joint,j17_elbow_yaw_l_joint,j18_shoulder_pitch_r_joint,j19_shoulder_roll_r_joint,j20_shoulder_yaw_r_joint,j21_elbow_pitch_r_joint,j22_elbow_yaw_r_joint,j23_head_yaw_joint
0,1.57467,-2.049662,0.694681,-0.121819,-0.086689,0.980369,-0.128538,-1.258883,0.30196,-0.435329,1.368493,-0.281954,-0.2618,-0.781765,-0.362713,0.077955,1.241081,-0.341234,-0.018906,0.079969,-0.765724,0.058758,-0.166829,-2.14287,-0.319337,-0.794147,-0.5043,0.190548,-2.1948,0.228432,0.0
1,1.574877,-2.036487,0.694319,-0.116968,-0.070876,0.982053,-0.129872,-1.222733,0.297791,-0.418466,1.342204,-0.265301,-0.2618,-0.782143,-0.383566,0.117423,1.208136,-0.314732,-0.037501,0.038309,-0.773836,0.069252,-0.181649,-2.140304,-0.334831,-0.812806,-0.48878,0.197354,-2.1948,0.230737,0.0
2,1.576387,-2.02128,0.695219,-0.114306,-0.053282,0.983075,-0.132887,-1.19056,0.285487,-0.401051,1.309279,-0.233349,-0.2618,-0.774715,-0.398544,0.162813,1.126391,-0.189146,-0.004375,-0.002491,-0.774587,0.072532,-0.193008,-2.142509,-0.335356,-0.820743,-0.480332,0.207415,-2.1948,0.228175,0.0
3,1.581246,-2.001258,0.697525,-0.114479,-0.035144,0.983854,-0.133004,-1.174809,0.275137,-0.38572,1.269225,-0.165347,-0.2618,-0.743471,-0.425828,0.186702,1.070653,-0.231897,0.235546,-0.030677,-0.773437,0.068287,-0.199406,-2.150097,-0.333612,-0.827094,-0.481125,0.219102,-2.1948,0.229388,0.0
4,1.587726,-1.968846,0.700341,-0.117044,-0.019595,0.983822,-0.134206,-1.165539,0.272696,-0.393277,1.199505,-0.083915,-0.2618,-0.708515,-0.441573,0.146696,1.025326,-0.356133,0.2618,-0.054446,-0.774319,0.066944,-0.207487,-2.165374,-0.315925,-0.840041,-0.487166,0.224277,-2.1948,0.227032,0.0
5,1.596244,-1.943579,0.701363,-0.121553,-0.004602,0.982914,-0.138147,-1.147534,0.265521,-0.385151,1.126478,-0.044994,-0.2618,-0.698605,-0.453837,0.117528,0.99679,-0.459127,0.2618,-0.088942,-0.761752,0.063844,-0.212404,-2.182999,-0.312028,-0.848791,-0.48966,0.222533,-2.1948,0.214205,0.0
6,1.600801,-1.926125,0.702084,-0.124219,0.008717,0.980914,-0.149333,-1.109801,0.250098,-0.369122,1.055777,-0.066483,-0.2618,-0.725299,-0.466445,0.126449,1.028071,-0.486872,0.2618,-0.150441,-0.729207,0.063893,-0.214705,-2.194259,-0.320203,-0.84866,-0.482004,0.216445,-2.1948,0.194015,0.0
7,1.604794,-1.910903,0.701256,-0.126643,0.01883,0.979356,-0.156424,-1.070102,0.238432,-0.355839,1.001142,-0.111582,-0.2618,-0.787184,-0.481474,0.133169,1.093445,-0.485009,0.2618,-0.205767,-0.685214,0.063831,-0.224889,-2.194558,-0.32231,-0.843159,-0.472409,0.210692,-2.1948,0.182863,0.0
8,1.613766,-1.898301,0.700323,-0.131396,0.027858,0.978216,-0.158279,-1.041656,0.232534,-0.330856,0.978975,-0.147242,-0.2618,-0.85692,-0.485346,0.1633,1.137816,-0.485057,0.2618,-0.242679,-0.647495,0.06851,-0.238016,-2.194143,-0.323731,-0.834171,-0.465202,0.206869,-2.1948,0.165099,0.0
9,1.619493,-1.886932,0.701739,-0.127898,0.034596,0.979545,-0.151452,-0.991866,0.266344,-0.274526,0.988245,-0.172773,-0.2618,-0.871261,-0.47177,0.188007,1.142833,-0.500334,0.2618,-0.254699,-0.597872,0.08137,-0.246486,-2.193218,-0.332181,-0.806258,-0.458827,0.206161,-2.1948,0.153023,0.0
10,1.624641,-1.879932,0.703887,-0.122579,0.037257,0.981049,-0.145356,-0.942919,0.292594,-0.247476,1.030455,-0.190185,-0.253373,-0.871903,-0.457013,0.201705,1.141238,-0.499556,0.2618,-0.264592,-0.550636,0.107058,-0.257255,-2.194586,-0.327374,-0.781491,-0.445048,0.207784,-2.1948,0.162052,0.0
11,1.631103,-1.879403,0.706443,-0.115867,0.037235,0.982876,-0.138362,-0.890915,0.305534,-0.245904,1.090204,-0.204791,-0.22426,-0.878526,-0.446395,0.215028,1.141853,-0.471088,0.2618,-0.269259,-0.504868,0.141196,-0.267514,-2.1948,-0.297772,-0.756351,-0.426877,0.216447,-2.1948,0.156991,0.0
12,1.649217,-1.877051,0.704054,-0.123224,0.035071,0.983158,-0.13033,-0.907682,0.300312,-0.271925,1.172806,-0.205178,-0.197455,-0.972085,-0.416874,0.26545,1.174676,-0.428633,0.2618,-0.260219,-0.482911,0.172067,-0.2967,-2.1948,-0.271001,-0.744198,-0.404158,0.225125,-2.1948,0.148915,0.0
13,1.659057,-1.879727,0.702165,-0.11786,0.027191,0.985773,-0.116709,-0.877836,0.327593,-0.281632,1.245503,-0.229458,-0.180972,-0.988407,-0.381244,0.290666,1.179752,-0.398583,0.2618,-0.240179,-0.443438,0.231486,-0.316835,-2.1948,-0.257809,-0.708585,-0.381055,0.236155,-2.1948,0.1489,0.0
14,1.660217,-1.888379,0.703401,-0.099259,0.015683,0.988954,-0.108958,-0.787081,0.356897,-0.280988,1.283439,-0.264553,-0.199719,-0.919263,-0.370151,0.27196,1.148383,-0.381591,0.2618,-0.23276,-0.388939,0.314926,-0.323418,-2.1948,-0.266929,-0.654157,-0.359012,0.249137,-2.1948,0.149796,0.0
15,1.67405,-1.896895,0.702529,-0.094258,0.005309,0.989673,-0.107859,-0.757813,0.334732,-0.31243,1.321848,-0.281342,-0.247372,-0.911876,-0.361431,0.269103,1.121479,-0.356105,0.2618,-0.225504,-0.367144,0.383497,-0.341039,-2.1948,-0.26849,-0.607583,-0.348635,0.249551,-2.1948,0.147039,0.0
16,1.695488,-1.914668,0.705573,-0.093102,-0.003841,0.989457,-0.110873,-0.747223,0.280604,-0.324345,1.343011,-0.268178,-0.2618,-0.893948,-0.375988,0.256585,1.042175,-0.316687,0.2618,-0.227075,-0.356799,0.451467,-0.35066,-2.1948,-0.237746,-0.562458,-0.343123,0.236056,-2.1948,0.1351,0.0
17,1.724668,-1.938007,0.713669,-0.095913,-0.011082,0.987793,-0.122238,-0.767279,0.238522,-0.276422,1.313027,-0.196774,-0.2618,-0.866828,-0.416603,0.218769,0.917302,-0.229316,0.2618,-0.251588,-0.356159,0.514137,-0.345815,-2.1948,-0.202242,-0.52193,-0.340778,0.215507,-2.1948,0.123098,0.0
18,1.755832,-1.953857,0.725835,-0.104322,-0.022438,0.985306,-0.133362,-0.796534,0.229611,-0.223503,1.252727,-0.214767,-0.260514,-0.856197,-0.437746,0.159303,0.795114,-0.081566,0.2618,-0.278692,-0.366624,0.577467,-0.343549,-2.1948,-0.182197,-0.495425,-0.325855,0.191546,-2.1948,0.124989,0.0
19,1.792783,-1.994183,0.746229,-0.112836,-0.028081,0.98274,-0.143881,-0.784049,0.169998,-0.164211,1.170718,-0.260479,-0.215887,-0.806691,-0.485666,0.092556,0.571192,0.237388,0.2618,-0.300843,-0.38861,0.630891,-0.337852,-2.1948,-0.160196,-0.486426,-0.327387,0.170446,-2.1948,0.122103,0.0
20,1.828824,-2.035143,0.762821,-0.120024,-0.034979,0.982133,-0.140661,-0.763657,0.110101,-0.12746,1.090827,-0.295149,-0.175667,-0.776895,-0.51284,-0.05934,0.395777,0.482117,0.2618,-0.283379,-0.43753,0.687667,-0.333915,-2.1948,-0.150014,-0.505112,-0.344404,0.162944,-2.1948,0.125588,0.0
21,1.860587,-2.057096,0.772279,-0.130301,-0.03971,0.98278,-0.124854,-0.779622,0.095405,-0.058339,1.039367,-0.29074,-0.11662,-0.838454,-0.473514,-0.090854,0.463393,0.447938,0.2618,-0.220018,-0.528665,0.728665,-0.339636,-2.1948,-0.142387,-0.551785,-0.389578,0.167928,-2.1948,0.148508,0.0
22,1.880709,-2.092729,0.775177,-0.140573,-0.031153,0.981643,-0.125079,-0.778055,0.038371,0.033754,1.004228,-0.280037,-0.02455,-0.913178,-0.439133,0.03787,0.663674,0.294292,0.2618,-0.169938,-0.613975,0.730663,-0.336432,-2.1948,-0.11256,-0.586085,-0.462461,0.186126,-2.1948,0.158807,0.0
23,1.903116,-2.122723,0.782172,-0.15162,-0.02031,0.979039,-0.134468,-0.793961,-0.04359,0.063621,0.96298,-0.198984,0.020726,-0.948691,-0.39223,0.075408,0.857719,0.096988,0.238204,-0.129227,-0.688303,0.703981,-0.338478,-2.1948,-0.094516,-0.604456,-0.549973,0.207862,-2.1948,0.154276,0.0
24,1.929012,-2.147449,0.794577,-0.163957,-0.016918,0.975791,-0.143746,-0.848217,-0.10453,0.056881,0.941481,-0.054456,-0.031573,-0.941311,-0.341663,-0.01361,0.988195,-0.025354,0.251322,-0.092137,-0.745465,0.677058,-0.339771,-2.1948,-0.095826,-0.61962,-0.62221,0.226506,-2.1948,0.159659,0.0
25,1.960224,-2.172673,0.808265,-0.177559,-0.017416,0.971872,-0.153735,-0.92601,-0.163181,-0.006269,0.931689,0.103062,-0.261761,-0.916742,-0.287135,-0.134986,1.059228,-0.080662,0.2618,-0.060469,-0.795014,0.642244,-0.340913,-2.1948,-0.102544,-0.627028,-0.683909,0.232788,-2.1948,0.160028,0.0
26,2.007591,-2.233015,0.810326,-0.184848,-0.019017,0.967815,-0.169716,-0.960511,-0.205393,0.000567,0.898098,0.169165,-0.2618,-0.935251,-0.25393,-0.131513,1.130811,-0.064976,0.2618,-0.053856,-0.826844,0.608482,-0.338286,-2.1948,-0.104189,-0.63184,-0.731849,0.236361,-2.1948,0.151564,0.0
27,2.032291,-2.256339,0.812829,-0.190558,-0.015884,0.965245,-0.178149,-0.970126,-0.215225,-0.10581,0.883364,0.052601,-0.2618,-0.911695,-0.160358,-0.12556,1.149184,-0.071485,0.2618,-0.015303,-0.855709,0.532957,-0.328547,-2.1948,-0.11786,-0.617731,-0.804762,0.214404,-2.1948,0.156964,0.0
28,2.054062,-2.269746,0.807628,-0.197044,-0.01357,0.963704,-0.179624,-1.005421,-0.11332,-0.118418,0.925315,-0.040831,-0.2618,-0.892597,-0.061944,-0.120872,1.117991,-0.02288,0.2618,0.030207,-0.867973,0.453236,-0.308598,-2.1948,-0.147283,-0.609201,-0.853697,0.195607,-2.1948,0.172929,0.0
29,2.070762,-2.31337,0.795648,-0.198472,-0.008945,0.964136,-0.175987,-0.998122,-0.020534,-0.12915,0.98592,-0.157124,-0.2618,-0.851177,-0.016019,-0.081526,1.04707,-0.010892,0.257226,0.060579,-0.837938,0.383318,-0.28323,-2.1948,-0.179284,-0.595963,-0.864043,0.185546,-2.1948,0.181296,0.0
30,2.086491,-2.329411,0.772974,-0.195575,-0.011647,0.968924,-0.150998,-1.006934,0.166613,-0.146513,1.053061,-0.227339,-0.261633,-0.807255,-0.028291,-0.174562,1.024986,-0.238858,0.011969,0.115436,-0.778027,0.352395,-0.252367,-2.1948,-0.175955,-0.577381,-0.834775,0.195187,-2.1948,0.183151,0.0
31,2.102561,-2.356879,0.749697,-0.190474,-0.010524,0.973088,-0.129261,-0.975645,0.325281,-0.158111,1.073098,-0.224086,-0.150051,-0.823152,-0.044433,-0.129876,1.075682,-0.419845,0.008455,0.151364,-0.685164,0.339666,-0.23199,-2.1948,-0.179544,-0.538534,-0.794931,0.21649,-2.1948,0.18973,0.0
32,2.113203,-2.384617,0.724519,-0.187879,-0.01054,0.975739,-0.111912,-0.914564,0.459801,-0.180344,1.038629,-0.197491,-0.089524,-0.884327,-0.058797,-0.048922,1.180584,-0.522765,0.054464,0.169546,-0.564828,0.339917,-0.22374,-2.1948,-0.184004,-0.486405,-0.751319,0.243696,-2.1948,0.218832,0.0
33,2.123319,-2.412349,0.70121,-0.187025,-0.013979,0.976544,-0.105776,-0.838218,0.577732,-0.182738,0.946348,-0.169967,-0.071894,-0.954056,-0.095442,-0.014444,1.284395,-0.576055,0.092492,0.164887,-0.41331,0.344348,-0.225107,-2.1948,-0.185756,-0.413974,-0.700766,0.265362,-2.1948,0.252352,0.0
34,2.137729,-2.439513,0.682622,-0.189796,-0.0195,0.975093,-0.113099,-0.793758,0.663137,-0.183548,0.833065,-0.088275,-0.029584,-1.019408,-0.140079,0.011416,1.354492,-0.610081,0.138323,0.142875,-0.253222,0.334849,-0.226681,-2.191516,-0.226645,-0.325347,-0.64427,0.260461,-2.1948,0.258355,0.0
35,2.154455,-2.468778,0.667943,-0.190002,-0.028635,0.973648,-0.122832,-0.755003,0.717975,-0.19134,0.728025,0.05876,-0.025935,-1.055547,-0.183492,0.028961,1.382028,-0.64614,0.189053,0.131214,-0.117022,0.313156,-0.235843,-2.158553,-0.285169,-0.23787,-0.584833,0.247046,-2.1948,0.258022,0.0
36,2.187163,-2.525447,0.668741,-0.193802,-0.034021,0.969518,-0.146008,-0.713136,0.688111,-0.192715,0.655938,-0.018275,-0.2618,-1.101552,-0.272086,0.080652,1.340353,-0.582206,0.2618,0.104064,-0.006779,0.290994,-0.252572,-2.122687,-0.272084,-0.167817,-0.531497,0.229933,-2.1948,0.237474,0.0
37,2.22045,-2.577592,0.671574,-0.197363,-0.043036,0.9649,-0.16782,-0.726065,0.626047,-0.21568,0.655493,-0.201514,-0.2618,-1.132666,-0.33888,0.123759,1.276787,-0.486173,0.2618,0.087513,0.082854,0.281682,-0.262369,-2.087818,-0.270328,-0.11257,-0.480633,0.213506,-2.1948,0.218354,0.0
38,2.250559,-2.611809,0.6674,-0.212536,-0.054803,0.956976,-0.189793,-0.901553,0.537461,-0.352581,0.783883,-0.364332,-0.2618,-1.192987,-0.390643,0.137315,1.238872,-0.41143,0.2618,0.075028,0.137062,0.267837,-0.271023,-2.056745,-0.306469,-0.072996,-0.43479,0.203603,-2.1948,0.231151,0.0
39,2.265596,-2.650953,0.665126,-0.21042,-0.065688,0.948445,-0.227729,-1.017377,0.450424,-0.424511,0.915444,-0.47331,-0.2618,-1.131914,-0.470919,0.102059,1.175076,-0.384022,0.2618,0.046238,0.177111,0.314103,-0.27383,-2.042887,-0.319292,-0.015269,-0.40354,0.187845,-2.191186,0.226795,0.0
40,2.282948,-2.691863,0.665343,-0.220658,-0.076804,0.936065,-0.263046,-1.103842,0.336165,-0.490855,1.009914,-0.55086,-0.2618,-1.100272,-0.539908,0.064785,1.108448,-0.328539,0.2618,0.032296,0.173283,0.359861,-0.28657,-2.04051,-0.335677,0.017951,-0.377153,0.181132,-2.161922,0.234819,0.0
41,2.309892,-2.726526,0.664405,-0.245202,-0.093137,0.917931,-0.297663,-1.228301,0.186289,-0.558574,1.113671,-0.59953,-0.2618,-1.141936,-0.598083,0.018602,1.066067,-0.242351,0.131442,0.027409,0.122406,0.399039,-0.297058,-2.040666,-0.393735,0.015056,-0.349846,0.179636,-2.12055,0.267595,0.0
42,2.328457,-2.752853,0.666866,-0.262405,-0.108032,0.904582,-0.318127,-1.295714,0.09045,-0.582647,1.165889,-0.617513,-0.2618,-1.167781,-0.610154,-0.028312,1.036853,-0.195608,-0.141457,0.046482,0.060104,0.444076,-0.280932,-2.042094,-0.471814,0.013661,-0.342121,0.183869,-2.099496,0.271157,0.0
43,2.334253,-2.772816,0.676655,-0.269327,-0.118536,0.897182,-0.329357,-1.2966,0.058678,-0.580504,1.149664,-0.615965,-0.2618,-1.146927,-0.545488,-0.002862,1.034908,-0.222596,-0.117569,0.078227,0.00467,0.480467,-0.250909,-2.042013,-0.503236,0.015279,-0.35205,0.18646,-2.100242,0.255503,0.0
44,2.344963,-2.787402,0.683722,-0.279252,-0.132777,0.892523,-0.328315,-1.324049,0.039019,-0.580399,1.14775,-0.612547,-0.2618,-1.176274,-0.484585,-0.029292,1.078954,-0.261815,-0.135826,0.120319,-0.048359,0.484595,-0.214605,-2.028046,-0.502675,0.011695,-0.364859,0.190213,-2.112303,0.254213,0.0
45,2.353379,-2.7969,0.68881,-0.290336,-0.145921,0.89028,-0.319083,-1.357966,0.035827,-0.576908,1.148456,-0.606501,-0.2618,-1.229715,-0.4251,-0.073532,1.153881,-0.28608,-0.14117,0.156679,-0.104744,0.47613,-0.173035,-2.004366,-0.496834,0.004528,-0.377201,0.193532,-2.121017,0.257369,0.0
46,2.35972,-2.80392,0.691714,-0.301256,-0.155413,0.8887,-0.308713,-1.389845,0.037043,-0.568327,1.151308,-0.603191,-0.2618,-1.287572,-0.361345,-0.097648,1.233151,-0.294602,-0.083732,0.178172,-0.161571,0.466189,-0.145465,-1.97879,-0.519647,0.001475,-0.389116,0.19368,-2.123439,0.254988,0.0
47,2.363233,-2.812219,0.692512,-0.309905,-0.16072,0.887562,-0.300602,-1.409048,0.036548,-0.556334,1.158802,-0.610358,-0.2618,-1.340854,-0.297475,-0.091639,1.301294,-0.283903,-0.000585,0.183125,-0.211433,0.454803,-0.143156,-1.961288,-0.55736,0.003373,-0.402611,0.192492,-2.124578,0.25229,0.0
48,2.364156,-2.822379,0.692385,-0.316277,-0.16208,0.888453,-0.290431,-1.412351,0.04042,-0.535679,1.16895,-0.627588,-0.2618,-1.389312,-0.246569,-0.078995,1.348965,-0.282191,0.041934,0.176578,-0.244156,0.440337,-0.158284,-1.952528,-0.586333,0.006843,-0.420472,0.193905,-2.128525,0.249974,0.0
49,2.361704,-2.831738,0.691876,-0.321465,-0.161388,0.890962,-0.27713,-1.405528,0.053343,-0.510731,1.177038,-0.649479,-0.2618,-1.434651,-0.210804,-0.078344,1.374511,-0.292919,0.046985,0.156095,-0.251699,0.43228,-0.181025,-1.959921,-0.592892,0.00729,-0.437383,0.198221,-2.141997,0.244926,0.0
50,2.355649,-2.838906,0.690599,-0.326855,-0.158839,0.89425,-0.26125,-1.39207,0.074077,-0.482526,1.180804,-0.673379,-0.2618,-1.482821,-0.177217,-0.080818,1.380285,-0.303303,0.050134,0.121399,-0.233749,0.443197,-0.207322,-1.989462,-0.550006,0.001897,-0.449358,0.205158,-2.162755,0.240838,0.0
51,2.344525,-2.845071,0.69164,-0.327538,-0.151294,0.901005,-0.24087,-1.344728,0.115116,-0.434912,1.162293,-0.6807,-0.2618,-1.516258,-0.138916,-0.080957,1.357582,-0.305945,0.058583,0.082821,-0.181385,0.476175,-0.22484,-2.040938,-0.46896,0.006199,-0.464293,0.214347,-2.189684,0.223259,0.0
52,2.333343,-2.848941,0.6907,-0.329288,-0.144506,0.907655,-0.216447,-1.305686,0.158597,-0.384534,1.153055,-0.6807,-0.2618,-1.561385,-0.10766,-0.103092,1.322779,-0.303684,0.056302,0.047402,-0.118441,0.521773,-0.236782,-2.114039,-0.432822,-0.011572,-0.467748,0.226263,-2.1948,0.20663,0.0
53,2.318739,-2.852943,0.688891,-0.32628,-0.135527,0.916544,-0.187408,-1.241509,0.21494,-0.31772,1.139893,-0.6807,-0.2618,-1.5957,-0.08911,-0.145891,1.275234,-0.289371,0.04699,0.016147,-0.022887,0.579721,-0.238294,-2.194538,-0.376996,-0.024032,-0.467345,0.23818,-2.1948,0.18452,0.0
54,2.306244,-2.854005,0.682536,-0.326165,-0.123997,0.92298,-0.162326,-1.194968,0.251486,-0.257157,1.14842,-0.6807,-0.2618,-1.656635,-0.083705,-0.188587,1.229027,-0.257964,0.045012,-0.026997,0.026492,0.625485,-0.268219,-2.1948,-0.31169,-0.043195,-0.459685,0.248539,-2.1948,0.166889,0.0
55,2.288476,-2.856945,0.676331,-0.318334,-0.106958,0.931747,-0.138098,-1.099278,0.289564,-0.170145,1.141263,-0.6807,-0.2618,-1.699727,-0.085803,-0.211634,1.167836,-0.219863,0.035092,-0.068431,0.068699,0.646502,-0.291822,-2.1948,-0.294367,-0.043598,-0.45387,0.253786,-2.1948,0.149602,0.0
56,2.269195,-2.859038,0.669384,-0.309535,-0.082328,0.939322,-0.122818,-0.979141,0.296271,-0.078827,1.115243,-0.6807,-0.2618,-1.746654,-0.115443,-0.226131,1.097983,-0.172085,0.001515,-0.12437,0.03796,0.619619,-0.314127,-2.1948,-0.279252,-0.037259,-0.451742,0.249342,-2.1948,0.141738,0.0
57,2.246843,-2.861359,0.663969,-0.296291,-0.047811,0.946896,-0.115386,-0.820024,0.267753,0.020981,1.055265,-0.6807,-0.2618,-1.783572,-0.16886,-0.225583,1.019358,-0.141101,-0.031294,-0.19196,-0.102254,0.570599,-0.323492,-2.1948,-0.2372,-0.010232,-0.455578,0.232818,-2.1948,0.138791,0.0
58,2.220336,-2.865546,0.662843,-0.273678,-0.006344,0.954831,-0.115573,-0.614247,0.204595,0.118854,0.942225,-0.6807,-0.2618,-1.799802,-0.238443,-0.194804,0.94111,-0.144865,-0.069373,-0.266139,-0.326669,0.53819,-0.310823,-2.1948,-0.192018,0.047117,-0.467645,0.19975,-2.1948,0.14857,0.0
59,2.191928,-2.867947,0.662297,-0.251122,0.027014,0.960578,-0.116178,-0.427836,0.144278,0.18371,0.821491,-0.6807,-0.2618,-1.800809,-0.305039,-0.178502,0.879973,-0.157032,-0.137053,-0.331659,-0.589671,0.56057,-0.281508,-2.1948,-0.15023,0.091016,-0.474186,0.161596,-2.1948,0.160866,0.0
60,2.158773,-2.869795,0.661567,-0.224705,0.052702,0.966283,-0.11414,-0.247473,0.096141,0.225329,0.713383,-0.6807,-0.2618,-1.768261,-0.374053,-0.190719,0.850643,-0.197976,-0.213829,-0.39733,-0.825908,0.625077,-0.244153,-2.1948,-0.086733,0.11055,-0.497787,0.131297,-2.1948,0.149635,0.0
61,2.11774,-2.864775,0.665044,-0.200627,0.076197,0.970874,-0.106521,-0.090837,0.05957,0.249276,0.621769,-0.558522,-0.2618,-1.702256,-0.427152,-0.218537,0.852272,-0.228477,-0.261129,-0.470683,-1.002196,0.731614,-0.223944,-2.186598,-0.007356,0.090801,-0.550499,0.119417,-2.1948,0.141705,0.0
62,2.069287,-2.85832,0.676903,-0.170819,0.097048,0.976096,-0.092943,0.054792,0.029149,0.271602,0.542385,-0.307006,-0.2618,-1.633547,-0.441158,-0.147077,0.888102,-0.099275,-0.2618,-0.551077,-1.159026,0.807823,-0.267125,-2.021833,-0.011476,0.064048,-0.628126,0.126632,-2.1948,0.084292,0.0
63,2.015674,-2.840224,0.683595,-0.130439,0.113202,0.982463,-0.070263,0.168334,0.020205,0.270693,0.531844,0.006523,-0.239091,-1.566484,-0.414518,-0.029371,1.001272,-0.056909,-0.2618,-0.627449,-1.18385,0.871506,-0.213033,-1.796358,-0.084831,0.042319,-0.718321,0.161471,-2.160418,0.03428,0.0
64,1.96536,-2.815509,0.687983,-0.091533,0.136042,0.98607,-0.027945,0.245153,-0.014291,0.26459,0.559759,0.312707,-0.190657,-1.493251,-0.397705,0.031617,1.11932,-0.129499,-0.261312,-0.672536,-1.1374,1.016543,-0.085171,-1.416867,0.023012,-0.008487,-0.82054,0.211497,-2.029519,0.071518,0.0
65,1.902956,-2.797025,0.691731,-0.050504,0.150012,0.98736,0.008097,0.307713,-0.044052,0.250559,0.617709,0.525507,-0.141497,-1.387887,-0.414357,0.076798,1.242588,-0.252583,-0.204588,-0.682552,-1.284151,0.932298,-0.281597,-0.917176,0.182484,0.018314,-0.923472,0.200903,-1.95814,0.144089,0.0
66,1.844871,-2.790328,0.692314,-0.049516,0.153283,0.98534,0.056192,0.243121,-0.111924,0.181184,0.742303,0.443227,-0.076635,-1.342701,-0.383165,0.112732,1.319327,-0.349805,-0.1458,-0.622364,-1.454587,0.766803,-0.421571,-0.895294,-0.065366,-0.036969,-0.88534,0.173976,-1.9577,0.148823,0.0
67,1.789849,-2.785481,0.69274,-0.053898,0.166961,0.979321,0.100744,0.136396,-0.188282,0.138388,0.88339,0.240942,-0.136881,-1.33783,-0.361429,0.18431,1.384031,-0.41634,-0.092454,-0.606913,-1.319559,0.871106,-0.353853,-1.346938,-0.073477,-0.119483,-0.833341,0.188517,-2.021429,0.051596,0.0
68,1.736688,-2.77714,0.689861,-0.069947,0.167707,0.973597,0.138169,-0.03945,-0.163124,0.162188,1.075499,0.088625,-0.164397,-1.329632,-0.339395,0.206921,1.439072,-0.472094,-0.047059,-0.639023,-1.019515,1.06524,-0.19609,-1.829258,0.051216,-0.174157,-0.775281,0.247168,-2.151365,0.072599,0.0
69,1.689626,-2.773726,0.690725,-0.092185,0.161566,0.966885,0.174733,-0.254106,-0.083858,0.188329,1.254315,-0.063529,-0.123831,-1.310217,-0.317276,0.201029,1.448171,-0.506117,-0.010682,-0.603305,-0.946003,1.071869,-0.262916,-2.077368,-0.094853,-0.221117,-0.722805,0.268192,-2.194735,0.111964,0.0
70,1.645266,-2.772533,0.690657,-0.110271,0.154111,0.957777,0.216224,-0.472712,0.010975,0.17767,1.383774,-0.192071,-0.068266,-1.286722,-0.282696,0.211187,1.448909,-0.523331,0.024026,-0.538406,-0.891465,1.053118,-0.337,-2.1948,-0.158921,-0.260636,-0.684371,0.279953,-2.1948,0.088761,0.0
71,1.599494,-2.773517,0.69147,-0.120901,0.144311,0.947762,0.257495,-0.672241,0.105367,0.124776,1.436408,-0.295528,-0.032082,-1.243843,-0.251334,0.233701,1.437592,-0.526357,0.065953,-0.473204,-0.819866,1.00103,-0.371849,-2.1948,-0.13311,-0.291735,-0.661476,0.302821,-2.1948,0.087445,0.0
72,1.550341,-2.776138,0.69327,-0.129267,0.136048,0.937237,0.293885,-0.854066,0.181523,0.042833,1.408839,-0.346633,-0.013529,-1.194911,-0.236417,0.268374,1.410651,-0.527117,0.116945,-0.393511,-0.792286,0.928554,-0.381609,-2.1948,-0.149692,-0.31995,-0.653831,0.306843,-2.1948,0.102151,0.0
73,1.499987,-2.779751,0.696207,-0.13328,0.129103,0.92786,0.323487,-1.00047,0.235491,-0.046999,1.303024,-0.343429,-0.016017,-1.132838,-0.245146,0.303904,1.363039,-0.526916,0.173097,-0.312747,-0.791321,0.845597,-0.375579,-2.1948,-0.145236,-0.345084,-0.649586,0.297105,-2.1948,0.085918,0.0
74,1.449323,-2.784221,0.700918,-0.131886,0.124478,0.920601,0.345839,-1.090087,0.239373,-0.155897,1.13546,-0.252162,-0.072113,-1.054982,-0.284003,0.329662,1.288472,-0.524428,0.228381,-0.24769,-0.797061,0.773394,-0.371438,-2.1948,-0.11759,-0.3764,-0.648383,0.292118,-2.1948,0.077292,0.0
75,1.40648,-2.794701,0.70662,-0.138096,0.123604,0.91168,0.366731,-1.135336,0.194758,-0.300744,0.928767,-0.142216,-0.181722,-1.012486,-0.318997,0.356966,1.19374,-0.496712,0.2618,-0.192046,-0.825759,0.716326,-0.370193,-2.1948,-0.151211,-0.430158,-0.629794,0.301258,-2.1948,0.099299,0.0
76,1.355629,-2.795033,0.718155,-0.122284,0.11481,0.900973,0.400141,-1.046833,0.202122,-0.363553,0.760051,-0.048695,-0.239146,-0.874643,-0.359747,0.377154,1.051513,-0.447144,0.2618,-0.120625,-0.804823,0.65579,-0.353022,-2.1948,-0.177379,-0.440523,-0.615458,0.316334,-2.1948,0.104272,0.0
77,1.293873,-2.811932,0.727141,-0.106717,0.111746,0.898271,0.411381,-1.00178,0.14171,-0.359632,0.755588,0.031493,-0.2618,-0.765572,-0.453332,0.397581,0.911964,-0.320826,0.2618,-0.101022,-0.78979,0.60532,-0.340136,-2.1948,-0.179006,-0.468636,-0.587084,0.330107,-2.1948,0.092412,0.0
78,1.221667,-2.838607,0.724939,-0.08987,0.111311,0.906003,0.398362,-0.973344,0.038856,-0.297254,0.900891,-0.125654,-0.2618,-0.695236,-0.584482,0.377729,0.843955,-0.133434,0.2618,-0.148979,-0.787836,0.587892,-0.347852,-2.1948,-0.204991,-0.52235,-0.5486,0.347939,-2.1948,0.095225,0.0
79,1.166269,-2.855984,0.736601,-0.080591,0.106094,0.906127,0.401476,-0.894158,-0.008987,-0.239876,0.91637,-0.207917,-0.238325,-0.721059,-0.651216,0.295969,0.833821,0.110887,0.131947,-0.179044,-0.772667,0.590471,-0.345353,-2.1948,-0.221442,-0.577968,-0.486071,0.367247,-2.1948,0.102302,0.0
80,1.110456,-2.866065,0.753776,-0.071517,0.094315,0.892459,0.435325,-0.787141,0.005472,-0.130359,0.908185,-0.269061,-0.164972,-0.744252,-0.698383,0.084693,0.835939,0.111539,-0.048572,-0.140337,-0.752268,0.615422,-0.344447,-2.1948,-0.208717,-0.6037,-0.419853,0.374359,-2.1948,0.086776,0.0
81,1.075367,-2.885698,0.772216,-0.0743,0.100684,0.884948,0.448563,-0.747417,-0.037514,-0.064099,0.853361,-0.208714,-0.107163,-0.842683,-0.610317,0.106411,0.926399,0.053839,-0.038132,-0.125843,-0.767864,0.619763,-0.347365,-2.1948,-0.212282,-0.639141,-0.368824,0.387828,-2.1948,0.087294,0.0
82,1.045183,-2.905372,0.791174,-0.083387,0.108518,0.868965,0.475573,-0.75176,-0.053921,0.004541,0.82184,-0.085133,-0.087598,-0.946684,-0.46409,0.113431,1.021708,-0.042075,-0.048325,-0.061155,-0.780179,0.615711,-0.346859,-2.1948,-0.216122,-0.665571,-0.323385,0.397117,-2.1948,0.103575,0.0
83,1.011763,-2.929728,0.80893,-0.095889,0.121766,0.857143,0.491207,-0.798146,-0.097188,0.019493,0.811193,0.073517,-0.178434,-1.02287,-0.364118,0.030281,1.067226,-0.081757,-0.04931,-0.018143,-0.799682,0.603726,-0.341371,-2.1948,-0.210084,-0.697286,-0.298598,0.407515,-2.1948,0.099269,0.0
84,0.954906,-2.968635,0.822416,-0.101849,0.139293,0.854008,0.49081,-0.830718,-0.181073,0.010351,0.789569,0.206731,-0.261799,-1.085801,-0.322395,-0.005921,1.066467,-0.044177,0.079347,-0.011884,-0.825041,0.578518,-0.336566,-2.1948,-0.189074,-0.735007,-0.311919,0.420777,-2.1948,0.079585,0.0
85,0.888448,-3.009168,0.830131,-0.106422,0.158032,0.85148,0.488551,-0.823992,-0.284437,-0.09506,0.717356,0.260346,-0.2618,-1.1485,-0.268366,0.05031,1.051743,0.020155,0.261797,-0.009339,-0.855592,0.543307,-0.324173,-2.1948,-0.178623,-0.787443,-0.350423,0.440235,-2.1948,0.081101,0.0
86,0.870406,-3.008079,0.838172,-0.104041,0.154113,0.846085,0.499565,-0.766599,-0.257313,-0.28518,0.686627,0.131083,-0.2618,-1.057302,-0.127812,0.021988,0.986809,0.039498,0.2618,0.034865,-0.847559,0.521884,-0.312742,-2.1948,-0.150647,-0.799048,-0.381406,0.440808,-2.1948,0.087905,0.0
87,0.848392,-3.018537,0.832122,-0.101149,0.156114,0.847665,0.496851,-0.765988,-0.149813,-0.232173,0.709274,0.039873,-0.2618,-1.01832,-0.010733,0.064873,0.937457,0.080608,0.2618,0.049769,-0.824874,0.480809,-0.2998,-2.1948,-0.123869,-0.806259,-0.410465,0.448377,-2.1948,0.081171,0.0
88,0.800516,-3.039893,0.824184,-0.099091,0.159584,0.84956,0.492911,-0.763488,-0.05027,-0.143671,0.730692,0.005784,-0.2618,-1.002984,0.034082,0.107616,0.902112,0.135899,0.2618,0.057676,-0.782209,0.431233,-0.2845,-2.1948,-0.11349,-0.800323,-0.429237,0.448951,-2.1948,0.081924,0.0
89,0.772054,-3.049895,0.800066,-0.095785,0.159757,0.851003,0.491016,-0.776944,0.083909,-0.12077,0.780332,0.00972,-0.2618,-0.978831,-0.018899,-0.015034,0.927621,-0.07488,-0.065332,0.072823,-0.731952,0.379581,-0.266609,-2.1948,-0.118677,-0.778647,-0.449676,0.445639,-2.1948,0.092021,0.0
90,0.752397,-3.056247,0.771679,-0.098864,0.15678,0.851561,0.490398,-0.798346,0.236204,-0.122083,0.796572,0.060891,-0.219879,-0.994078,-0.038485,-0.04517,0.996542,-0.277287,-0.15266,0.082939,-0.675656,0.352439,-0.25054,-2.1948,-0.11896,-0.756237,-0.450997,0.441885,-2.1948,0.10569,0.0
91,0.720571,-3.065881,0.744307,-0.100514,0.153194,0.85495,0.485271,-0.809621,0.382244,-0.065333,0.796188,0.092922,-0.118909,-1.055446,-0.073228,-0.001294,1.124571,-0.414798,-0.118939,0.069746,-0.602054,0.340635,-0.241303,-2.1948,-0.123595,-0.717473,-0.45119,0.428231,-2.1948,0.110988,0.0
92,0.687026,-3.077547,0.722511,-0.103751,0.148216,0.856504,0.483393,-0.795745,0.514465,0.018253,0.76794,0.125554,-0.059318,-1.119643,-0.121897,0.016327,1.234133,-0.487358,-0.085013,0.058638,-0.513325,0.331377,-0.232312,-2.1948,-0.125195,-0.665208,-0.451471,0.411553,-2.1948,0.107913,0.0
93,0.6537,-3.093384,0.706949,-0.107486,0.142113,0.858866,0.480208,-0.781106,0.596738,0.058928,0.740451,0.194182,-0.035153,-1.168773,-0.161853,0.058059,1.301838,-0.526337,-0.032244,0.044657,-0.429319,0.326395,-0.230405,-2.1948,-0.110347,-0.605594,-0.455488,0.392116,-2.1948,0.107121,0.0
94,0.61945,-3.110919,0.694798,-0.111317,0.132146,0.862157,0.476268,-0.766355,0.637821,0.048985,0.73117,0.250525,-0.01727,-1.205345,-0.198124,0.102417,1.347729,-0.532925,0.031053,0.028314,-0.362784,0.338972,-0.228995,-2.1948,-0.102703,-0.542257,-0.452233,0.369503,-2.1948,0.113479,0.0
95,0.584698,-3.134521,0.686305,-0.117945,0.122956,0.864138,0.473536,-0.745855,0.636563,0.00315,0.738151,0.224506,-0.188031,-1.243838,-0.228756,0.151547,1.363214,-0.513145,0.087882,0.017885,-0.324387,0.359052,-0.229281,-2.1948,-0.097324,-0.485426,-0.449108,0.351754,-2.1948,0.112278,0.0
96,0.538318,-3.179043,0.688602,-0.122223,0.117389,0.878444,0.446785,-0.754766,0.593973,0.036293,0.780067,-0.002836,-0.2618,-1.270598,-0.323459,0.205272,1.30682,-0.439877,0.173391,-0.038455,-0.313008,0.376654,-0.241078,-2.1948,-0.092563,-0.427803,-0.453394,0.321859,-2.1948,0.083089,0.0
97,0.495021,-3.215313,0.687672,-0.121318,0.105828,0.896698,0.41233,-0.793933,0.527692,-0.001487,0.848012,-0.202051,-0.2618,-1.249896,-0.428766,0.226692,1.250068,-0.368999,0.239735,-0.101072,-0.312484,0.386912,-0.260654,-2.1948,-0.079817,-0.34886,-0.457141,0.283719,-2.1948,0.0418,0.0
98,0.457966,-3.236366,0.685316,-0.116922,0.091551,0.915429,0.374082,-0.840532,0.45442,-0.096779,0.929321,-0.336961,-0.2618,-1.197658,-0.523608,0.222028,1.224218,-0.29685,0.253204,-0.156095,-0.326916,0.377511,-0.2808,-2.1948,-0.050004,-0.247477,-0.45211,0.239508,-2.1948,-0.017081,0.0
99,0.420734,-3.255707,0.683882,-0.11384,0.087814,0.936028,0.321218,-0.896858,0.337321,-0.192919,1.017218,-0.405426,-0.2618,-1.179791,-0.620912,0.257595,1.223754,-0.17193,0.220853,-0.21596,-0.366699,0.331443,-0.305702,-2.1948,-0.014767,-0.138311,-0.450307,0.184617,-2.1948,-0.072908,0.0
100,0.380264,-3.270828,0.685246,-0.107916,0.074481,0.955054,0.265855,-0.908276,0.241232,-0.267394,1.082113,-0.468471,-0.2618,-1.089687,-0.69536,0.242559,1.221322,-0.034769,0.111942,-0.259033,-0.407021,0.315536,-0.328976,-2.1948,0.034352,-0.017721,-0.426749,0.130823,-2.194278,-0.123604,0.0
101,0.353489,-3.286384,0.687243,-0.114924,0.06522,0.967043,0.217639,-0.931122,0.156432,-0.333426,1.108893,-0.515939,-0.2618,-1.071978,-0.695392,0.258115,1.26481,0.013458,-0.089817,-0.278405,-0.475944,0.305083,-0.355641,-2.1948,0.078401,0.035261,-0.409823,0.11028,-2.165206,-0.17792,0.0
102,0.337917,-3.297431,0.689731,-0.133514,0.056803,0.970697,0.19156,-0.970631,0.111385,-0.379807,1.119408,-0.541703,-0.2618,-1.116891,-0.619084,0.291991,1.341405,-0.078384,-0.093389,-0.253225,-0.557492,0.295905,-0.379023,-2.19262,0.104848,0.025481,-0.420214,0.106016,-2.139569,-0.202429,0.0
103,0.324809,-3.308406,0.69067,-0.156905,0.046395,0.968731,0.186519,-1.023139,0.099136,-0.404131,1.14475,-0.571315,-0.2618,-1.214929,-0.511527,0.304141,1.416539,-0.163308,-0.122789,-0.187814,-0.644852,0.274484,-0.393816,-2.170151,0.11443,-0.020048,-0.443383,0.103048,-2.10816,-0.253052,0.0
104,0.304975,-3.315726,0.695191,-0.167112,0.034289,0.965751,0.195508,-1.017087,0.128503,-0.38683,1.149476,-0.608076,-0.2618,-1.254421,-0.404348,0.265546,1.434202,-0.213035,-0.111984,-0.11556,-0.706211,0.255647,-0.393841,-2.137642,0.159769,-0.043452,-0.467326,0.097779,-2.061946,-0.334622,0.0
105,0.295916,-3.321408,0.695034,-0.188905,0.030425,0.960998,0.199681,-1.061905,0.128807,-0.391623,1.164539,-0.624888,-0.2618,-1.364592,-0.301115,0.21643,1.441821,-0.240139,-0.101692,-0.062349,-0.76523,0.227774,-0.391844,-2.117178,0.184773,-0.057019,-0.464579,0.070218,-2.006639,-0.346444,0.0
106,0.284943,-3.323001,0.692373,-0.207004,0.027492,0.954812,0.211489,-1.094062,0.14793,-0.382686,1.185049,-0.652267,-0.2618,-1.454667,-0.200459,0.157651,1.401194,-0.239527,-0.054055,-0.003964,-0.823233,0.20535,-0.390246,-2.07985,0.187879,-0.044923,-0.451945,0.038656,-1.925891,-0.360983,0.0
107,0.27215,-3.32142,0.68768,-0.220108,0.029046,0.951905,0.211153,-1.113081,0.147385,-0.379924,1.203633,-0.677627,-0.2618,-1.525217,-0.113072,0.154919,1.325301,-0.210203,0.001015,0.016841,-0.865325,0.207215,-0.421192,-2.052569,0.192609,0.002852,-0.43983,0.017403,-1.852819,-0.356486,0.0
108,0.257385,-3.315832,0.685054,-0.225449,0.033843,0.953428,0.197492,-1.102024,0.132891,-0.37855,1.19852,-0.6807,-0.2618,-1.562142,-0.040217,0.233962,1.219166,-0.159236,0.06527,-0.003718,-0.878675,0.243923,-0.475514,-2.028174,0.180151,0.082896,-0.434276,0.018468,-1.808849,-0.374046,0.0
109,0.241854,-3.307103,0.681823,-0.228368,0.039391,0.957081,0.174046,-1.085981,0.107062,-0.390712,1.18947,-0.6807,-0.2618,-1.581442,-0.009911,0.34926,1.103112,-0.118499,0.122415,-0.055063,-0.859856,0.317635,-0.537198,-2.023072,0.152778,0.163783,-0.433869,0.035652,-1.789778,-0.379649,0.0
110,0.22215,-3.297255,0.683892,-0.220393,0.042215,0.964702,0.137821,-1.026965,0.07488,-0.414437,1.150649,-0.6807,-0.2618,-1.548687,-0.046235,0.466932,0.975206,-0.102564,0.109684,-0.141446,-0.767602,0.427507,-0.589294,-2.063989,0.151278,0.255449,-0.433089,0.05235,-1.77401,-0.392716,0.0
111,0.201605,-3.285475,0.688695,-0.213854,0.038367,0.971431,0.09548,-0.971259,0.050697,-0.465117,1.100698,-0.6807,-0.2618,-1.495474,-0.119925,0.534802,0.852401,-0.113595,0.073362,-0.215631,-0.634445,0.540379,-0.609165,-2.139323,0.119441,0.306463,-0.415768,0.054132,-1.7165,-0.445971,0.0
112,0.178966,-3.272624,0.696527,-0.208123,0.03132,0.976221,0.051931,-0.907385,0.038517,-0.529556,1.03139,-0.6807,-0.2618,-1.420648,-0.217384,0.524517,0.738562,-0.146646,0.058544,-0.234893,-0.482978,0.616235,-0.610366,-2.194776,0.091054,0.304544,-0.421816,0.016212,-1.59729,-0.487553,0.0
113,0.156933,-3.257832,0.703275,-0.206927,0.027206,0.977737,0.02172,-0.847866,0.043668,-0.580428,0.958604,-0.68069,-0.2618,-1.360073,-0.277886,0.493067,0.673384,-0.134206,0.136203,-0.168324,-0.363286,0.629281,-0.62091,-2.1948,0.085124,0.236994,-0.501927,-0.042682,-1.42794,-0.565252,0.0
114,0.143455,-3.235328,0.701556,-0.21974,0.032338,0.974962,0.010857,-0.833883,0.048724,-0.621249,0.913085,-0.666554,-0.2618,-1.368017,-0.246985,0.549486,0.69164,-0.065623,0.2618,-0.039954,-0.27703,0.620685,-0.639605,-2.1948,0.084666,0.080621,-0.650044,-0.117904,-1.230117,-0.668477,0.0
115,0.118704,-3.199627,0.705337,-0.203563,0.018897,0.978772,0.014535,-0.736676,0.164024,-0.613301,0.829432,-0.648784,-0.2618,-1.288277,-0.201753,0.51303,0.747662,-0.036071,0.2618,0.018139,-0.143159,0.726192,-0.598969,-2.1948,0.121892,-0.142218,-0.765161,-0.171797,-1.143657,-0.724842,0.0
116,0.093916,-3.1681,0.708823,-0.183599,-0.001785,0.982908,0.013449,-0.644414,0.277161,-0.617326,0.763389,-0.600844,-0.2618,-1.227047,-0.154641,0.442027,0.8598,-0.085994,0.2618,0.035302,0.000743,0.820327,-0.486529,-2.1948,0.125141,-0.486039,-0.772178,-0.195382,-1.181305,-0.726921,0.0
117,0.076818,-3.143179,0.707496,-0.173931,-0.01029,0.98466,0.009355,-0.60849,0.339249,-0.621631,0.744305,-0.552653,-0.2618,-1.242807,-0.129069,0.381813,0.98765,-0.096189,0.2618,0.037956,0.068585,0.844637,-0.400345,-2.1948,0.174625,-0.844688,-0.820963,-0.211141,-1.356413,-0.686503,0.0
118,0.0677,-3.120632,0.707586,-0.169648,-0.012683,0.985423,0.000699,-0.607764,0.377364,-0.616682,0.734915,-0.507233,-0.2618,-1.256302,-0.113687,0.353673,1.069127,-0.102055,0.2618,0.028124,0.080727,0.829921,-0.350756,-2.1948,0.248629,-1.194426,-0.855319,-0.195674,-1.559916,-0.701765,0.0
119,0.061959,-3.098026,0.709636,-0.162624,-0.009629,0.986546,-0.013696,-0.609835,0.408975,-0.572182,0.722932,-0.469038,-0.2618,-1.240078,-0.120225,0.320937,1.113506,-0.148603,0.2618,-0.014815,0.08315,0.799213,-0.298287,-2.194791,0.288071,-1.551738,-0.816866,-0.097442,-1.721566,-0.637778,0.0
120,0.060289,-3.078387,0.712621,-0.151449,0.00461,0.988071,-0.027533,-0.592167,0.417722,-0.479759,0.716411,-0.463568,-0.2618,-1.221096,-0.154462,0.282049,1.138482,-0.205761,0.258358,-0.07929,0.046445,0.724247,-0.28941,-2.19328,0.268497,-1.845665,-0.683785,0.013192,-1.782093,-0.575457,0.0
121,0.061262,-3.056078,0.717441,-0.142474,0.020436,0.98879,-0.039729,-0.566824,0.412463,-0.387798,0.705027,-0.449007,-0.2618,-1.213067,-0.167234,0.273513,1.163106,-0.227351,0.226796,-0.146065,-0.021574,0.635672,-0.308722,-2.169998,0.247425,-2.010971,-0.55348,0.094333,-1.809966,-0.537401,0.0
122,0.064259,-3.032609,0.723867,-0.141522,0.027004,0.98832,-0.049665,-0.567552,0.403071,-0.334187,0.707295,-0.43187,-0.2618,-1.216804,-0.160253,0.248071,1.176445,-0.210013,0.182041,-0.194178,-0.10258,0.578785,-0.336029,-2.180302,0.247802,-2.043202,-0.527043,0.151717,-1.841268,-0.504471,0.0
123,0.069043,-3.013823,0.732966,-0.142442,0.032455,0.987477,-0.059548,-0.57272,0.377408,-0.279914,0.722081,-0.42596,-0.2618,-1.218568,-0.162554,0.215811,1.167433,-0.177893,0.140344,-0.247769,-0.198632,0.535567,-0.341788,-2.187872,0.232194,-1.993105,-0.533699,0.211269,-1.853767,-0.466808,0.0
124,0.077291,-2.997494,0.742639,-0.144006,0.03625,0.986195,-0.073263,-0.593143,0.336937,-0.247502,0.756832,-0.408443,-0.2618,-1.21342,-0.167881,0.195871,1.140893,-0.144383,0.128947,-0.292155,-0.305319,0.501841,-0.348494,-2.193836,0.195264,-1.876898,-0.568796,0.250711,-1.852103,-0.429807,0.0
125,0.087375,-2.98388,0.750976,-0.140928,0.040192,0.984957,-0.091562,-0.609968,0.279062,-0.249656,0.815566,-0.378667,-0.2618,-1.194668,-0.184616,0.183529,1.108388,-0.118072,0.147914,-0.328766,-0.41002,0.462268,-0.365842,-2.193568,0.158081,-1.699636,-0.620893,0.256233,-1.884387,-0.358196,0.0
126,0.099951,-2.972534,0.756138,-0.137479,0.046327,0.983657,-0.106638,-0.613668,0.215186,-0.251887,0.883909,-0.362821,-0.2618,-1.191277,-0.203044,0.178445,1.086648,-0.093744,0.161413,-0.334361,-0.514157,0.40767,-0.391362,-2.193511,0.091565,-1.504016,-0.685828,0.235858,-1.940913,-0.322814,0.0
127,0.111827,-2.963125,0.757152,-0.127947,0.055061,0.983111,-0.118705,-0.590426,0.158265,-0.236903,0.959686,-0.349439,-0.2618,-1.193706,-0.225709,0.18004,1.088238,-0.072464,0.16409,-0.326941,-0.609769,0.333298,-0.414234,-2.17747,-0.028878,-1.279363,-0.740268,0.171578,-2.010647,-0.324778,0.0
128,0.124802,-2.954098,0.753867,-0.12019,0.063776,0.982764,-0.125149,-0.563728,0.108553,-0.214479,1.041977,-0.328806,-0.2618,-1.216526,-0.237266,0.190124,1.10689,-0.058358,0.152006,-0.319135,-0.699885,0.271521,-0.416918,-2.1542,-0.109746,-1.10079,-0.760111,0.115221,-2.051781,-0.30688,0.0
129,0.136326,-2.947658,0.745946,-0.104526,0.069593,0.983658,-0.129031,-0.511795,0.067096,-0.19392,1.132349,-0.332601,-0.2618,-1.2248,-0.247711,0.196815,1.139297,-0.064298,0.141213,-0.31884,-0.763984,0.220073,-0.403199,-2.111799,-0.175513,-0.925151,-0.759492,0.062954,-2.108286,-0.268367,0.0
130,0.151098,-2.944365,0.735411,-0.091196,0.071143,0.984675,-0.130529,-0.466789,0.02945,-0.170986,1.222007,-0.330779,-0.2618,-1.238625,-0.248034,0.204672,1.167634,-0.074044,0.132006,-0.319816,-0.821734,0.18856,-0.388723,-2.071572,-0.197645,-0.802991,-0.740566,0.032032,-2.151166,-0.255422,0.0
131,0.167601,-2.941406,0.723557,-0.076011,0.067655,0.985804,-0.133552,-0.420609,0.005387,-0.147651,1.293443,-0.311725,-0.2618,-1.239373,-0.249697,0.193648,1.187186,-0.092895,0.118162,-0.322053,-0.85992,0.167554,-0.385907,-2.04114,-0.182275,-0.709772,-0.729961,0.020783,-2.189906,-0.224012,0.0
132,0.187481,-2.933953,0.714109,-0.06438,0.06059,0.986664,-0.136666,-0.391852,-0.007135,-0.13316,1.329995,-0.2552,-0.2618,-1.234078,-0.250415,0.150309,1.182874,-0.105494,0.084227,-0.324081,-0.890622,0.149163,-0.387445,-2.024052,-0.172285,-0.676755,-0.725139,0.032469,-2.1948,-0.158042,0.0
133,0.211319,-2.914172,0.710021,-0.059835,0.04896,0.987132,-0.139976,-0.397162,0.003027,-0.136359,1.304808,-0.166315,-0.261066,-1.223068,-0.232074,0.074666,1.145187,-0.083805,0.026373,-0.330862,-0.914232,0.144566,-0.398347,-2.020963,-0.15383,-0.670892,-0.709044,0.04411,-2.1948,-0.14813,0.0
134,0.246315,-2.905161,0.715223,-0.061274,0.039283,0.986458,-0.146981,-0.416658,0.039762,-0.072677,1.222487,-0.146786,-0.09411,-1.209087,-0.221418,0.027407,1.043396,0.005904,0.007462,-0.351226,-0.92936,0.149552,-0.413976,-2.035778,-0.127732,-0.682366,-0.697469,0.059928,-2.1948,-0.148313,0.0
135,0.287839,-2.901274,0.726908,-0.068165,0.030374,0.987055,-0.141962,-0.436865,0.052843,-0.02797,1.162437,-0.265274,-0.032078,-1.187649,-0.179392,0.025345,0.883124,0.171673,0.038892,-0.343318,-0.947342,0.15517,-0.43013,-2.053244,-0.141903,-0.708968,-0.699332,0.081449,-2.1948,-0.117375,0.0
136,0.332681,-2.900134,0.74371,-0.075883,0.018185,0.988873,-0.126657,-0.452847,0.055341,-0.015712,1.07146,-0.338051,-0.046171,-1.132874,-0.118014,0.0721,0.657091,0.394941,0.223013,-0.299739,-0.955572,0.168995,-0.451128,-2.073046,-0.176836,-0.733782,-0.70924,0.105639,-2.1948,-0.099234,0.0
137,0.371119,-2.873329,0.759901,-0.07941,-0.001952,0.990159,-0.115217,-0.482788,0.107544,-0.045717,0.983815,-0.362231,-0.091604,-1.046132,-0.046162,0.096432,0.493952,0.414155,0.2618,-0.247153,-0.956472,0.202167,-0.48342,-2.086736,-0.164303,-0.750255,-0.724228,0.13106,-2.1948,-0.096047,0.0
138,0.406063,-2.87672,0.778986,-0.082629,-0.010457,0.988462,-0.126517,-0.494926,0.095674,-0.045216,0.884399,-0.344901,-0.052409,-0.984973,-0.042685,0.192219,0.491302,0.240097,0.2618,-0.227375,-0.951267,0.220417,-0.513614,-2.099513,-0.146438,-0.763538,-0.761592,0.161623,-2.1948,-0.068532,0.0
139,0.443304,-2.879399,0.797665,-0.092973,-0.014559,0.986981,-0.130433,-0.524404,0.073109,-0.04065,0.787092,-0.282104,-0.017897,-0.980446,-0.051232,0.198904,0.611829,0.201871,0.2618,-0.19254,-0.947164,0.22604,-0.529426,-2.102509,-0.155382,-0.766827,-0.794027,0.194882,-2.1948,-0.05789,0.0
140,0.477934,-2.877462,0.817009,-0.103094,-0.014891,0.984396,-0.141825,-0.548493,0.042831,-0.065218,0.676439,-0.166317,-0.01795,-0.97086,-0.060271,0.19336,0.788434,0.151444,0.248948,-0.17701,-0.917299,0.225643,-0.529277,-2.102861,-0.158544,-0.745093,-0.813412,0.227315,-2.1948,-0.054198,0.0
141,0.516237,-2.865509,0.833417,-0.121002,-0.013743,0.978803,-0.164666,-0.618477,0.00743,-0.11017,0.583833,0.008401,-0.052888,-0.971665,-0.079236,0.14597,0.966309,0.100595,0.255304,-0.184827,-0.899703,0.213546,-0.522309,-2.092948,-0.134442,-0.729856,-0.829909,0.25031,-2.1948,-0.037489,0.0
142,0.558003,-2.849152,0.847732,-0.140762,-0.013486,0.96999,-0.197797,-0.69984,-0.033351,-0.177096,0.486671,0.198638,-0.199778,-0.952238,-0.119604,0.055219,1.09504,0.08657,0.2618,-0.209473,-0.891607,0.196231,-0.513566,-2.082751,-0.105877,-0.712413,-0.839072,0.248932,-2.1948,0.010882,0.0
143,0.613015,-2.860186,0.855118,-0.158403,-0.010206,0.960156,-0.230011,-0.737175,-0.073036,-0.107726,0.406253,0.200038,-0.2618,-0.935832,-0.168616,0.042181,1.166416,0.167556,0.2618,-0.231688,-0.888837,0.168101,-0.504758,-2.074485,-0.101453,-0.688849,-0.851893,0.223162,-2.1948,-0.004581,0.0
144,0.652597,-2.844371,0.853842,-0.169702,-0.013958,0.956563,-0.236631,-0.763647,-0.057188,-0.158717,0.429226,0.088781,-0.2618,-0.892312,-0.141138,0.00643,1.157565,0.312195,0.2618,-0.205287,-0.891547,0.146526,-0.495053,-2.059021,-0.108096,-0.664672,-0.864025,0.19198,-2.1948,-0.038426,0.0
145,0.688573,-2.826881,0.842841,-0.173391,-0.02071,0.95732,-0.230316,-0.805773,-4.7e-05,-0.186676,0.586404,0.009951,-0.2618,-0.820296,-0.080931,-0.009338,1.075858,0.352426,0.2618,-0.169227,-0.875944,0.139165,-0.482143,-2.052934,-0.124531,-0.637279,-0.867213,0.170593,-2.1948,-0.03067,0.0
146,0.727593,-2.825853,0.823059,-0.171854,-0.020286,0.959832,-0.220857,-0.82566,0.075262,-0.106597,0.810539,-0.080021,-0.179891,-0.72436,-0.01704,0.060785,0.94761,0.185822,0.161257,-0.149816,-0.841387,0.131372,-0.460037,-2.064316,-0.151501,-0.605317,-0.871795,0.15999,-2.1948,-0.013842,0.0
147,0.762424,-2.819802,0.799915,-0.166702,-0.023451,0.96475,-0.202284,-0.808731,0.189244,-0.057462,1.020593,-0.141046,-0.073425,-0.665113,-0.009377,0.011462,0.881365,-0.104708,0.043229,-0.138014,-0.796359,0.137374,-0.436043,-2.087309,-0.177272,-0.579767,-0.864991,0.158687,-2.1948,-0.02122,0.0
148,0.795403,-2.811635,0.774519,-0.16342,-0.027365,0.970375,-0.175834,-0.756834,0.286211,-0.055401,1.18662,-0.177601,-0.02715,-0.702054,0.011115,0.011364,0.920641,-0.321051,0.007908,-0.131225,-0.755262,0.142831,-0.419179,-2.106328,-0.193391,-0.555834,-0.849978,0.163157,-2.1948,-0.028277,0.0
149,0.82713,-2.803224,0.745689,-0.16652,-0.029736,0.974298,-0.148761,-0.677998,0.347777,-0.060113,1.297198,-0.19241,-0.013177,-0.815436,0.049858,0.065977,1.039908,-0.447302,0.004465,-0.141095,-0.713448,0.136443,-0.419055,-2.109628,-0.182925,-0.510702,-0.823369,0.163141,-2.1948,-0.013861,0.0
150,0.860808,-2.796379,0.721514,-0.171916,-0.030441,0.974941,-0.13787,-0.586381,0.37369,-0.055201,1.32956,-0.193801,0.012392,-0.933675,0.067597,0.08593,1.143472,-0.515653,-0.003306,-0.188503,-0.672934,0.11679,-0.432943,-2.086329,-0.183691,-0.44945,-0.788332,0.160242,-2.1948,0.022362,0.0
151,0.898092,-2.791908,0.705325,-0.176456,-0.029299,0.973013,-0.145779,-0.500231,0.375414,-0.040664,1.279743,-0.17767,0.005002,-1.036321,0.061792,0.098299,1.208909,-0.546803,0.001841,-0.264049,-0.632837,0.100072,-0.454598,-2.057565,-0.203277,-0.383915,-0.753764,0.155805,-2.1948,0.04733,0.0
152,0.934783,-2.790438,0.695106,-0.179189,-0.029091,0.968646,-0.169619,-0.421285,0.350221,-0.044867,1.151289,-0.150245,-0.061428,-1.136266,0.031306,0.099804,1.266337,-0.521235,0.010018,-0.351557,-0.593214,0.100925,-0.484509,-2.045919,-0.226971,-0.317756,-0.71824,0.143712,-2.1948,0.055208,0.0
153,0.974266,-2.791384,0.686743,-0.181615,-0.031995,0.96188,-0.201939,-0.347433,0.339055,-0.02281,0.962617,-0.202774,-0.204737,-1.228085,-0.014752,0.098723,1.301858,-0.482144,0.024509,-0.437962,-0.553812,0.125314,-0.515904,-2.055385,-0.219316,-0.265413,-0.684724,0.129455,-2.1948,0.06662,0.0
154,1.014055,-2.798396,0.685716,-0.182404,-0.031698,0.954303,-0.234585,-0.289294,0.321995,0.007092,0.813225,-0.4126,-0.2618,-1.292057,-0.078185,0.113758,1.295487,-0.429009,0.050519,-0.512384,-0.519012,0.159802,-0.533892,-2.071651,-0.194717,-0.232769,-0.665576,0.116223,-2.1948,0.059249,0.0
155,1.052076,-2.808523,0.688096,-0.182182,-0.031456,0.948699,-0.256497,-0.279563,0.284102,0.000476,0.730565,-0.561965,-0.2618,-1.335171,-0.128196,0.140539,1.261392,-0.364316,0.081737,-0.55305,-0.488533,0.192587,-0.534354,-2.080661,-0.195233,-0.215161,-0.657311,0.105178,-2.1948,0.040194,0.0
156,1.084194,-2.812241,0.692418,-0.186397,-0.034958,0.946405,-0.26144,-0.328917,0.259506,-0.006197,0.730504,-0.633518,-0.2618,-1.368207,-0.133918,0.160147,1.207088,-0.294376,0.086087,-0.537848,-0.474491,0.217039,-0.536696,-2.074823,-0.215601,-0.204594,-0.647873,0.092338,-2.1948,0.041796,0.0
157,1.114673,-2.816979,0.701962,-0.187062,-0.044639,0.948392,-0.252127,-0.402091,0.25282,0.000779,0.788461,-0.645807,-0.2618,-1.355403,-0.112136,0.161809,1.104683,-0.207371,0.075007,-0.48402,-0.43391,0.251825,-0.528466,-2.083536,-0.224883,-0.191709,-0.626697,0.096156,-2.1948,0.06394,0.0
158,1.145117,-2.817858,0.714169,-0.189358,-0.056541,0.949188,-0.244925,-0.494448,0.253892,-0.005298,0.847719,-0.623707,-0.261299,-1.322734,-0.086774,0.145896,0.972905,-0.126544,0.015256,-0.428032,-0.39497,0.284285,-0.51487,-2.107684,-0.214871,-0.196254,-0.606955,0.100907,-2.1948,0.063231,0.0
159,1.174538,-2.815099,0.725143,-0.195214,-0.06538,0.946961,-0.246741,-0.572475,0.243056,-0.024684,0.859367,-0.610907,-0.25141,-1.293792,-0.068823,0.145836,0.854951,-0.116868,0.039651,-0.394119,-0.39356,0.297824,-0.504827,-2.125018,-0.201337,-0.23864,-0.607224,0.100642,-2.1948,0.050811,0.0
160,1.202151,-2.811572,0.734821,-0.202139,-0.072537,0.945025,-0.246588,-0.609521,0.226341,-0.039995,0.815446,-0.6208,-0.242406,-1.282879,-0.069538,0.107295,0.790582,-0.088307,0.103498,-0.371067,-0.432059,0.304086,-0.498421,-2.139422,-0.192567,-0.306336,-0.621667,0.096325,-2.1948,0.052993,0.0
161,1.224582,-2.810651,0.744305,-0.206992,-0.07281,0.944932,-0.24281,-0.619816,0.202254,-0.036006,0.767392,-0.609693,-0.22959,-1.280356,-0.078892,0.068881,0.804512,-0.073047,0.109492,-0.353969,-0.497436,0.297135,-0.482911,-2.15144,-0.187014,-0.385279,-0.647621,0.092999,-2.1948,0.058727,0.0
162,1.242294,-2.810038,0.753202,-0.210076,-0.070298,0.945602,-0.23825,-0.629651,0.180633,-0.023919,0.738012,-0.575385,-0.213886,-1.281227,-0.085612,0.045761,0.878517,-0.07205,0.093156,-0.334141,-0.583606,0.277673,-0.466699,-2.148506,-0.17806,-0.454737,-0.67814,0.085829,-2.1948,0.045719,0.0
163,1.255339,-2.809325,0.761626,-0.207559,-0.068035,0.944994,-0.243467,-0.619846,0.162171,-0.025952,0.695311,-0.544148,-0.20551,-1.263253,-0.102189,0.023751,0.982189,-0.091382,0.079525,-0.331373,-0.667948,0.255383,-0.451079,-2.126642,-0.166615,-0.504129,-0.708296,0.076317,-2.1948,0.030847,0.0
164,1.267534,-2.805812,0.769163,-0.205643,-0.06812,0.942671,-0.253853,-0.617381,0.147991,-0.04338,0.651377,-0.516795,-0.205048,-1.237733,-0.112121,0.003811,1.078402,-0.098606,0.061137,-0.340756,-0.752707,0.235644,-0.444386,-2.104213,-0.182204,-0.5457,-0.736401,0.069725,-2.1948,0.026167,0.0
165,1.279442,-2.800296,0.77504,-0.205277,-0.068783,0.939416,-0.26576,-0.625348,0.135392,-0.065245,0.615855,-0.49221,-0.206043,-1.211956,-0.116551,-0.012548,1.153979,-0.110652,0.053947,-0.356493,-0.836798,0.211261,-0.445169,-2.078041,-0.198408,-0.571952,-0.763431,0.066926,-2.1948,0.024906,0.0
166,1.289727,-2.795226,0.777996,-0.204957,-0.069286,0.937654,-0.272025,-0.636974,0.12867,-0.077795,0.599848,-0.480154,-0.213759,-1.185277,-0.124909,-0.038769,1.201296,-0.124503,0.062296,-0.360884,-0.914734,0.177059,-0.447984,-2.045841,-0.197117,-0.573963,-0.791772,0.062522,-2.1948,0.007352,0.0
167,1.298483,-2.791384,0.77793,-0.203897,-0.069888,0.938437,-0.26996,-0.651071,0.130059,-0.078719,0.607796,-0.485671,-0.228583,-1.162238,-0.134692,-0.061684,1.224256,-0.136982,0.061339,-0.344061,-0.980024,0.130551,-0.449317,-2.010542,-0.193406,-0.551599,-0.82248,0.056757,-2.1948,-0.010373,0.0
168,1.305306,-2.78773,0.775044,-0.202715,-0.07145,0.940845,-0.261939,-0.673001,0.140354,-0.072108,0.63945,-0.503605,-0.241044,-1.147445,-0.149523,-0.084469,1.22949,-0.158325,0.049034,-0.313723,-1.026378,0.08299,-0.459316,-1.979014,-0.179807,-0.50974,-0.848612,0.050814,-2.1948,0.006357,0.0
169,1.309826,-2.782433,0.769324,-0.202162,-0.0739,0.943191,-0.253103,-0.711222,0.155529,-0.072567,0.696076,-0.527608,-0.249384,-1.148659,-0.165897,-0.098034,1.226524,-0.176683,0.029064,-0.292147,-1.036666,0.045357,-0.471937,-1.952187,-0.149844,-0.450997,-0.848771,0.046953,-2.1948,0.014219,0.0
170,1.311474,-2.774978,0.760393,-0.202151,-0.07688,0.945206,-0.244562,-0.762561,0.176091,-0.080754,0.771796,-0.554868,-0.254986,-1.168578,-0.175704,-0.08947,1.218663,-0.193116,0.023834,-0.289746,-0.999989,0.028468,-0.491135,-1.934871,-0.11573,-0.366985,-0.820775,0.046991,-2.1948,-0.008833,0.0
171,1.308443,-2.767165,0.749183,-0.199412,-0.078303,0.947177,-0.238661,-0.804407,0.197254,-0.094714,0.849258,-0.582759,-0.246281,-1.19417,-0.192843,-0.068143,1.207807,-0.214971,0.029991,-0.306426,-0.921516,0.035955,-0.525899,-1.932122,-0.080178,-0.259095,-0.77898,0.050863,-2.1948,0.01622,0.0
172,1.301762,-2.759958,0.73736,-0.194995,-0.077572,0.951001,-0.227062,-0.823843,0.225182,-0.096311,0.915604,-0.612101,-0.241764,-1.22765,-0.209956,-0.033895,1.185443,-0.229463,0.035362,-0.32545,-0.839882,0.059578,-0.56455,-1.933002,-0.055156,-0.132918,-0.731516,0.057679,-2.1948,0.026726,0.0
173,1.292412,-2.753911,0.724847,-0.186674,-0.074505,0.957202,-0.208244,-0.815528,0.264095,-0.07768,0.974845,-0.646386,-0.243657,-1.26487,-0.217241,0.020352,1.151417,-0.228053,0.031506,-0.343113,-0.777957,0.098773,-0.592332,-1.938315,-0.035744,0.003556,-0.698713,0.066542,-2.1948,0.029766,0.0
174,1.281353,-2.746273,0.712912,-0.173974,-0.069535,0.963244,-0.192508,-0.785205,0.305121,-0.057029,1.019062,-0.678103,-0.258227,-1.29471,-0.227233,0.076168,1.102628,-0.217024,0.032789,-0.377696,-0.731026,0.170314,-0.605133,-1.981531,0.000556,0.135363,-0.678144,0.071995,-2.1948,0.069126,0.0
175,1.273616,-2.735269,0.702793,-0.167295,-0.064578,0.967531,-0.178118,-0.77149,0.338038,-0.044358,1.052055,-0.6807,-0.2618,-1.336935,-0.226079,0.135096,1.029459,-0.194432,0.028778,-0.422702,-0.721546,0.257913,-0.604131,-2.03639,0.028935,0.236913,-0.655635,0.070863,-2.1948,0.064525,0.0
176,1.266322,-2.723477,0.693415,-0.16274,-0.060656,0.970816,-0.165387,-0.76311,0.36984,-0.037352,1.07945,-0.6807,-0.2618,-1.366847,-0.218038,0.193449,0.932238,-0.173375,0.027307,-0.469226,-0.714336,0.349849,-0.569039,-2.092036,0.036318,0.328348,-0.631802,0.060315,-2.1948,0.064768,0.0
177,1.257545,-2.710377,0.685106,-0.161373,-0.057493,0.972292,-0.159063,-0.761854,0.39662,-0.041867,1.096121,-0.6807,-0.2618,-1.379042,-0.215664,0.253709,0.818502,-0.155266,0.034504,-0.512192,-0.711991,0.409263,-0.518714,-2.113673,0.037844,0.421192,-0.605569,0.044313,-2.192854,0.091812,0.0
178,1.245567,-2.697949,0.680539,-0.162448,-0.055097,0.970858,-0.167362,-0.763634,0.40665,-0.067979,1.088989,-0.6807,-0.2618,-1.366114,-0.241421,0.319443,0.701212,-0.14469,0.027097,-0.550995,-0.712529,0.408623,-0.484087,-2.081956,0.02701,0.526844,-0.570862,0.029863,-2.183795,0.088146,0.0
179,1.229481,-2.688055,0.68105,-0.167118,-0.053294,0.966073,-0.189561,-0.762023,0.396358,-0.110988,1.050303,-0.6807,-0.2618,-1.330183,-0.309897,0.356783,0.589676,-0.149574,0.014447,-0.562505,-0.706194,0.344218,-0.485475,-2.021335,0.004867,0.597042,-0.564885,0.027513,-2.16657,0.107118,0.0
180,1.209467,-2.678519,0.682134,-0.182754,-0.048879,0.959174,-0.21023,-0.760717,0.374401,-0.146909,0.990714,-0.674315,-0.2618,-1.311813,-0.387758,0.362779,0.504645,-0.161265,0.010859,-0.511561,-0.699228,0.273356,-0.536039,-1.991888,0.002325,0.549669,-0.614722,0.031738,-2.13524,0.1018,0.0
181,1.187052,-2.669148,0.682129,-0.204059,-0.039954,0.951967,-0.22477,-0.747244,0.349089,-0.162348,0.917618,-0.660411,-0.2618,-1.312468,-0.46868,0.311547,0.451414,-0.171435,0.020503,-0.404436,-0.700509,0.232881,-0.59775,-2.00298,-0.023052,0.378518,-0.715658,-0.016263,-2.112595,0.065271,0.0
182,1.170664,-2.647854,0.682492,-0.259802,-0.028498,0.939029,-0.223418,-0.798043,0.313603,-0.15144,0.814626,-0.593998,-0.2618,-1.438597,-0.495809,0.226655,0.438389,-0.157751,0.010931,-0.218163,-0.757427,0.206353,-0.668144,-2.058983,-0.091119,0.016717,-0.876622,-0.092918,-1.957189,0.012633,0.0
183,1.150704,-2.626507,0.676831,-0.303591,-0.031596,0.93138,-0.198407,-0.832195,0.348145,-0.11281,0.748038,-0.552417,-0.2618,-1.597685,-0.448999,0.180901,0.517673,-0.104834,0.051742,0.011006,-0.834726,0.20332,-0.708326,-2.090743,-0.169769,-0.308304,-1.094573,-0.156403,-1.710957,-0.016944,0.0
184,1.13125,-2.596695,0.652834,-0.367564,-0.036495,0.915128,-0.161572,-0.961853,0.398815,-0.094416,0.765835,-0.531703,-0.2618,-1.886555,-0.276561,0.289313,0.731708,-0.017006,0.057578,0.284158,-1.058357,0.034419,-0.74996,-2.013124,-0.230513,-0.336849,-1.611532,-0.428314,-1.201307,-0.155433,0.0
185,1.096153,-2.58858,0.644339,-0.364009,-0.033337,0.917002,-0.159665,-0.877991,0.439459,-0.063216,0.726401,-0.506564,-0.2618,-1.922152,-0.243251,0.363892,0.853816,0.058485,0.169351,0.409477,-1.132777,-0.047631,-0.805513,-1.923216,-0.145854,-0.436133,-1.814242,-0.306837,-0.681247,-0.09425,0.0
186,1.066441,-2.565012,0.641635,-0.359682,-0.033616,0.918364,-0.161576,-0.865267,0.495879,-0.052007,0.724381,-0.401988,-0.2618,-1.932531,-0.216561,0.380677,0.952187,0.117628,0.2618,0.469468,-1.210328,-0.112402,-0.863521,-1.861721,-0.131601,-0.622456,-1.755697,-0.334279,-0.863877,-0.072909,0.0
187,1.031558,-2.533488,0.635498,-0.36087,-0.030495,0.918958,-0.156074,-0.87571,0.553934,-0.039642,0.762292,-0.289924,-0.2618,-1.976501,-0.163027,0.376328,1.118224,0.029446,0.2618,0.43356,-1.211123,-0.125438,-0.874292,-1.828714,-0.132486,-0.587895,-1.763177,-0.465246,-1.203468,0.038089,0.0
188,0.991997,-2.50195,0.621502,-0.355663,-0.027775,0.924494,-0.134327,-0.848198,0.595106,-0.075166,0.863117,-0.288396,-0.2618,-2.000563,-0.079856,0.361549,1.295277,-0.073561,0.246525,0.3777,-1.14377,-0.083639,-0.83931,-1.831663,-0.122568,-0.663636,-1.592916,-0.463917,-1.553105,0.134758,0.0
189,0.963326,-2.482097,0.618617,-0.340897,-0.024844,0.932169,-0.119304,-0.814424,0.591754,-0.095488,0.985663,-0.333108,-0.2618,-1.966211,-0.048389,0.333437,1.380829,-0.137628,0.229127,0.258318,-1.005059,0.058206,-0.76892,-1.913326,-0.1642,-0.882711,-1.293576,-0.176974,-1.818364,0.236547,0.0
190,0.938555,-2.457848,0.622812,-0.332852,-0.019857,0.936039,-0.112454,-0.823708,0.612756,-0.032532,1.085951,-0.354576,-0.234959,-1.929764,-0.042759,0.287251,1.427525,-0.188911,0.194816,0.118074,-0.851952,0.216202,-0.643531,-2.041072,-0.180141,-1.024417,-1.084601,0.094612,-1.959862,0.341547,0.0
