chrisxuxuhui/mimic_robot/GMR/RetargetData/lafan1/csv/pm01/push1_subject.csv
frame,root pos x,root pos y,root pos z,root rot x,root rot y,root rot z,root rot w,j00_hip_pitch_l_joint,j01_hip_roll_l_joint,j02_hip_yaw_l_joint,j03_knee_pitch_l_joint,j04_ankle_pitch_l_joint,j05_ankle_roll_l_joint,j06_hip_pitch_r_joint,j07_hip_roll_r_joint,j08_hip_yaw_r_joint,j09_knee_pitch_r_joint,j10_ankle_pitch_r_joint,j11_ankle_roll_r_joint,j12_waist_yaw_joint,j13_shoulder_pitch_l_joint,j14_shoulder_roll_l_joint,j15_shoulder_yaw_l_joint,j16_elbow_pitch_l_joint,j17_elbow_yaw_l_joint,j18_shoulder_pitch_r_joint,j19_shoulder_roll_r_joint,j20_shoulder_yaw_r_joint,j21_elbow_pitch_r_joint,j22_elbow_yaw_r_joint,j23_head_yaw_joint
0,-0.34705040114776814,0.3446505455912556,0.8236928010400787,0.038244045671653654,0.04158084901323865,-0.7286629796461548,0.6825384150794667,-0.3243801585287891,0.02263959327729465,0.2776086394711168,0.3889586713494161,-0.20764034604528078,0.06953476812746892,-0.34129241097010343,-0.1069573109546387,-0.1800375762273479,0.39074381958186943,-0.20584797423990506,0.06544948559520544,0.009692571212707038,-0.3830016077258813,1.5532803115777778,0.4833724385375708,-0.5732322950670127,-0.4451931055838644,-0.47012348334122506,-1.4504505929672362,-0.37181335186925657,-0.6165719131528453,0.4799117822833391,0.0
1,-0.34648859912757707,0.34537297868123606,0.8219071510026098,0.039084090120472,0.04120359562311002,-0.7294698716257796,0.6816512334012541,-0.3358644748297506,0.023182819383999614,0.27718261746132367,0.4088752103542084,-0.2204657591455714,0.07028803330658648,-0.3580104936847172,-0.11056671483521219,-0.170101821719387,0.4156598487271092,-0.22021438751792022,0.06637814330895493,0.014078690975973798,-0.3735576323376626,1.5436571857915,0.5042928049868409,-0.5838460719726744,-0.460970424157419,-0.472209740024347,-1.4525771711888116,-0.3765846972855546,-0.6199930780520995,0.49005962272084974,0.0
2,-0.3458432120429167,0.3473077238806948,0.8211934217155525,0.03960361187980873,0.04108332229804122,-0.7296828539414596,0.6814005042696077,-0.34191062972491076,0.02196012407026044,0.2765760405215491,0.41429726729729327,-0.22336138637104563,0.07214865257462721,-0.365917528144621,-0.11231476051456996,-0.16617041433611174,0.4228684941903038,-0.22450919676222253,0.06664468165799721,0.015065361289727667,-0.3692961673123949,1.5387396189120683,0.514598751220789,-0.5895581949639589,-0.4695919971204128,-0.4745763576166477,-1.4536853931940301,-0.3770735009340501,-0.6237540388464866,0.4926987493153066,0.0
3,-0.34525922138035653,0.34926509768116093,0.8208775116106141,0.039985939134367265,0.04109763319526715,-0.7297116154542835,0.6813465105864934,-0.34571887810592,0.020558484944196063,0.2760311481818888,0.41513100045686213,-0.22355926416510452,0.0739152613875804,-0.37019198335104625,-0.11317509175912269,-0.16440273965226151,0.42398278008940915,-0.22566521439919823,0.06681322815294158,0.015105265273286015,-0.36835463669102075,1.5367820190697266,0.5193648769574388,-0.5926817097653763,-0.47568462526609817,-0.4779397591803009,-1.454205287874984,-0.3764576662903808,-0.6267753321408666,0.4940601920580591,0.0
4,-0.34473163263239487,0.3512419541506514,0.8207592442550717,0.04029601521388925,0.04124708818589951,-0.7295922401437589,0.6814470426937659,-0.3486945008667501,0.01924862121008027,0.27523769386059477,0.4139135858230596,-0.2224752897330315,0.0755899358399023,-0.3726554042065565,-0.11340062697485419,-0.1638321345647412,0.4220094824984802,-0.22531582016832763,0.06689508690999196,0.014630985592776882,-0.36884027913557393,1.536296951189467,0.521704024520528,-0.5944829214486016,-0.479059085587711,-0.480969202776055,-1.4540187779899574,-0.3761659310266709,-0.6275606640548277,0.4951947408110846,0.0
5,-0.3442374203461009,0.3532261878934046,0.8207415351685136,0.040492334301213025,0.0415749286057314,-0.7294906088046083,0.6815242826489384,-0.351356520748515,0.01826357670696975,0.2744470785156193,0.41181191909246434,-0.22070694150772432,0.07715769825003536,-0.374245379688277,-0.11303567169593601,-0.16373222703242835,0.41837006036320085,-0.22406699073496694,0.06686568590220254,0.014097887754946099,-0.3694668443038718,1.5360423498743323,0.523114107806796,-0.5954091561929963,-0.4798955623718806,-0.4827391525327402,-1.453409686390694,-0.3766363312362914,-0.6262612534632814,0.4959218383190045,0.0
6,-0.3437846170532088,0.35519186159002614,0.820770603937876,0.040584628196293465,0.04199988536250791,-0.7295779085657873,0.6813992756941244,-0.35395810251715415,0.017752885279492137,0.27394769844954964,0.409767083056028,-0.21877730317498484,0.07857908746254806,-0.37542898005004993,-0.1120983564079527,-0.1633878164246247,0.413879453868514,-0.2222301556298777,0.06672034878021867,0.014204234852845861,-0.3698243804033063,1.5358490345115074,0.5237850879487208,-0.5953046600895066,-0.4794980618306776,-0.48226841509506563,-1.451997258479699,-0.3780957191112841,-0.6244300979041142,0.4967917823753739,0.0
7,-0.34338080137976135,0.3571550851105957,0.8208184908822427,0.040592887521327725,0.04249166128687871,-0.729784939697968,0.6811465466357414,-0.3566392846280987,0.017684932195914386,0.27363668916127526,0.4079867991101432,-0.21680441746866777,0.07986859708669994,-0.37642251521370435,-0.11068585602108663,-0.16275569564576534,0.40899311651463094,-0.21999245330250514,0.06650834297469552,0.014537728577209275,-0.36974227307961444,1.5356833522022912,0.5240978598802655,-0.5939047423854062,-0.4800186088358519,-0.48107118880291344,-1.4489800212326323,-0.37963814335232726,-0.6223108263013353,0.49719465008221553,0.0
8,-0.34301115023735673,0.35910260705523617,0.8208609900849441,0.040558699322921665,0.043099598066480976,-0.7301121749293551,0.680759596756203,-0.3597806348528904,0.018113721542010477,0.2734324208484864,0.40695108846772826,-0.21504214422801046,0.08105236909933021,-0.37759988802141764,-0.10882633811682131,-0.16170765757788702,0.40412392204579956,-0.217442731263562,0.06625659498176914,0.014786247155454273,-0.3691499512699125,1.5351049658064553,0.5245320188518089,-0.5915668202115997,-0.48171435864730344,-0.47895789026017266,-1.4447496084012772,-0.3811853997693969,-0.6200799405905112,0.497334734307796,0.0
9,-0.34267782100766864,0.3610381253270328,0.8208855001067435,0.040496231854202154,0.04390540607210203,-0.7305839328373158,0.6802054745466369,-0.3638264758155376,0.019237594103260976,0.27327390287469766,0.4072029321996419,-0.2137537308311492,0.08213168837684806,-0.3792441658281006,-0.10646011443240691,-0.16036314988671568,0.39948078359792644,-0.21455149756155578,0.06588608589768934,0.015489733545621442,-0.3691654174175372,1.5337083752752998,0.5253026896426681,-0.5889308845506879,-0.48213020210468177,-0.47545496777699137,-1.4400837673731814,-0.3832537584187205,-0.6176177167442073,0.49700109064005615,0.0
10,-0.3423658903837744,0.36290979449750943,0.8208858104850241,0.04050623041271215,0.044820317802128994,-0.7310981793458866,0.6795924047302169,-0.3685834560692464,0.02062420716803312,0.273057768772324,0.40842209263503854,-0.21281102780915823,0.08314680758400039,-0.3814438036682708,-0.10399854595384528,-0.15876950766616274,0.39538829671667447,-0.2116067697445954,0.06552156344014305,0.016351836122076763,-0.3671124456488802,1.5321712336207969,0.5250060531630935,-0.5844125729982882,-0.47988707496054245,-0.47152800962975006,-1.436265106942512,-0.38518905516645036,-0.6147228075371708,0.4987757630476506,0.0
11,-0.3421171085301602,0.36471972398316005,0.8208600633886288,0.04063060559924085,0.045854811766411305,-0.731542929773214,0.6790371359692555,-0.3740972291767451,0.022149223133255343,0.2724846812180343,0.4104088078788872,-0.21199921498870491,0.084083469935297,-0.38421964862618374,-0.10150261026324361,-0.1571478130827111,0.3919236883916522,-0.20891206591116013,0.06505017805643815,0.017200761721500774,-0.36362685592853095,1.5306184007197088,0.5243608299306755,-0.5804151805028513,-0.47900930842376455,-0.46681395691568733,-1.4334187201026496,-0.38625956018456276,-0.6107093123058498,0.49964994486273556,0.0
12,-0.3419064731817509,0.36645455195617377,0.8207800907456101,0.04072848229008782,0.0468378692654528,-0.7320278184597073,0.6784413590975572,-0.3797273250175547,0.02383066322686188,0.27195732549119467,0.4130847955697728,-0.21153605980457155,0.0849492075306972,-0.3872413303269342,-0.09905064787882026,-0.15532771213022814,0.3893040159580989,-0.20675509823995875,0.06445824766243398,0.01820300537970923,-0.36015509784998095,1.5286614735404058,0.5239982379695095,-0.5781261752467418,-0.4792038579674443,-0.46230746437374237,-1.431768249837885,-0.3873173321191285,-0.6075294115460538,0.49840233988295357,0.0
13,-0.34175129076745453,0.36808232627214177,0.8206402111282345,0.04072989165548103,0.04764533518672098,-0.7325281721610306,0.6778447277593135,-0.3849224623996319,0.025554102386234474,0.2715529076297409,0.4161117700426287,-0.21148473942390694,0.08572148224437327,-0.39005693961022686,-0.09676514677238636,-0.15348313574515776,0.3874268455323337,-0.2053077753666752,0.06384753640307642,0.01915489106306202,-0.35752115344960805,1.52624608703002,0.5241105185588887,-0.5773051361145426,-0.47970177218382454,-0.45959734768376787,-1.431145666288396,-0.38734727409037956,-0.6052670504158155,0.4968992632409109,0.0
14,-0.3416115127242116,0.3696389754004654,0.8204589588296539,0.04072995731907171,0.04828426426151357,-0.7329182957383902,0.6773776436917925,-0.3896927965561791,0.02691886808792309,0.2709989053861414,0.4189923826570691,-0.21158807456407913,0.08652550752638494,-0.39265501083004106,-0.09489615287968589,-0.1518640760880068,0.386016025414187,-0.20458877123428948,0.06327072180280796,0.019843555130211955,-0.3558953203272484,1.5227972679525144,0.5249704999852665,-0.5772605181493718,-0.48038513071297695,-0.4584886212877097,-1.4319407809089317,-0.38643109569996104,-0.6042457985018433,0.49784424152431106,0.0
15,-0.3414663884328279,0.371091365242687,0.8202516323290624,0.040771807866794775,0.04867093662559197,-0.7332173505542612,0.6770237192724129,-0.39365644939235783,0.027652800836504506,0.2704408444181407,0.42126646351289054,-0.21163037045921843,0.08738142672572313,-0.39477159532843425,-0.09361443156935792,-0.1503604975205769,0.38475218039037207,-0.20470465192362267,0.06276578085441824,0.020230487662073648,-0.354585116101934,1.517881073596997,0.5268380032737001,-0.5793502645408841,-0.481792673492937,-0.4590466449416389,-1.4339862411273883,-0.3863341734681097,-0.6053324677141873,0.4976998143696112,0.0
16,-0.34135189208432276,0.3723957251709372,0.8199985274540698,0.040783547348923956,0.048817599029475786,-0.733400289438074,0.6768142727091275,-0.3968827912468719,0.027970814093587884,0.26976440541224644,0.42332622997804126,-0.2117532387641964,0.08821204915659736,-0.395781278658743,-0.09272944211745003,-0.1492283014547737,0.38300486405662826,-0.2060216250381422,0.06225914389981288,0.020268824475751714,-0.35406808213826224,1.5117368259177926,0.5296154679452694,-0.5840804973428912,-0.4859010290168783,-0.460726572815315,-1.4368275679437277,-0.38585384343915224,-0.6076677893899373,0.49877404132662023,0.0
17,-0.341260511782549,0.3736027293059797,0.8197363991344689,0.04086724889847269,0.04888136667647399,-0.7334547758291927,0.6767455738847942,-0.3999558295542513,0.027947971419434923,0.2688480839870694,0.42530030858831736,-0.21185181450877108,0.0890333076896639,-0.39667171731300227,-0.09219156238046944,-0.14831435107737767,0.38147495475915383,-0.20773836970063553,0.061716057700487534,0.02003930137662984,-0.35073523035138404,1.5051142621259308,0.5336171631043716,-0.58854814206243,-0.48672571962912065,-0.4632779163238743,-1.439778944307414,-0.3850513689482302,-0.6107765596785144,0.5018196190176634,0.0
18,-0.34122551887051117,0.3748054289312019,0.8194942189519976,0.04106032912750272,0.04902671656160335,-0.73305537514685,0.6771559993114149,-0.40375811476860957,0.02759195098435684,0.2668120037150342,0.4276056266194771,-0.21171893083944593,0.08990624412732404,-0.3985405491618628,-0.09216146756708692,-0.14819368748294193,0.3815525927765215,-0.2090831834967177,0.06111528114750804,0.01837828652408042,-0.34428974435160625,1.4992452608671925,0.537405631365644,-0.591304280242725,-0.48522005448205074,-0.46563781083654365,-1.4418515591996517,-0.3841906321492736,-0.6139461244785874,0.5025310935128122,0.0
19,-0.3412276255809897,0.37585151781230286,0.819253997280295,0.04122972006969922,0.04921816862135859,-0.7326058124724066,0.6776181857006048,-0.40771107651765526,0.027412913248249637,0.2645736434487682,0.4304897516496054,-0.21189709826512632,0.09069022333028182,-0.4013456331246944,-0.09225795214922841,-0.14802033862755257,0.38350942997115306,-0.21005511853064304,0.060525840825717665,0.016258804149417428,-0.33781472941606366,1.4946983349691974,0.5403787324479202,-0.5917537470188579,-0.4844169359114677,-0.46688420910410966,-1.4433494364445905,-0.38315493387324934,-0.6166546696216693,0.5012389441569538,0.0
20,-0.34119412792161885,0.3767912296853737,0.8190948247684897,0.041380718397940046,0.04951071866049717,-0.732452803199743,0.6777530641520041,-0.41108277164284857,0.027571207809348987,0.26323232035060723,0.43261762249252106,-0.2119781352022282,0.09138976279000886,-0.40420409266428453,-0.09195699143938971,-0.14732343857290314,0.38509087233718775,-0.21011524984508706,0.05996296481496153,0.01484433594239802,-0.3325612503192621,1.491279553573977,0.5426583577921791,-0.590986596773495,-0.4847138519700527,-0.46695452764673956,-1.444146491587803,-0.38186388209592914,-0.6178923239566008,0.49995887466550454,0.0
21,-0.34121186922604946,0.3776862455473227,0.8190454011623772,0.04149992549086304,0.04988044670825485,-0.7325002931253234,0.6776673356387736,-0.41348992682058683,0.02797933676431635,0.26266024191895804,0.43310502789846617,-0.21137944431776917,0.09192276431617744,-0.4063919733943106,-0.09114091704342876,-0.14660442260092044,0.3852322323237607,-0.2093547913457539,0.059282465817594464,0.014019982827368912,-0.32944096515799376,1.4884468701448457,0.5447717170556795,-0.5895993630165409,-0.48426683143761723,-0.4663037023761889,-1.4446499086934894,-0.38103528297106226,-0.6176253440953827,0.49936858214640295,0.0
22,-0.3412550437607454,0.3784651108455862,0.8190790783730572,0.04148302888102674,0.050202007998254444,-0.7329205916877838,0.6771900198524998,-0.41459324254391106,0.02878244123594454,0.2631991146055772,0.4323851484207036,-0.2104827462831847,0.09224670944791935,-0.4074988411078566,-0.08972814210023994,-0.14545424269803897,0.3838490924599044,-0.20797060157660788,0.058584737372186724,0.014371489365005085,-0.32790054628812226,1.4865906440956091,0.5467397338757988,-0.5882544041625007,-0.4833321168106201,-0.46506981440320805,-1.4446845634814842,-0.3805564007405309,-0.6170530294215235,0.49903439557347784,0.0
23,-0.34128001887354137,0.37917983655638277,0.8191324278289583,0.041325999129642466,0.05051421805985893,-0.733417932521023,0.6766377256895499,-0.415398603166838,0.029902744603044054,0.26403319184698,0.4318014042380004,-0.20971236410579938,0.09250499804321165,-0.4079567242118963,-0.08813981614267612,-0.1444274937413616,0.3818626137185473,-0.2062034542821359,0.05814600741552428,0.015020901073858896,-0.3279951279064959,1.4853996128637381,0.5481372669744861,-0.5878483875193979,-0.4846080286089954,-0.46392637216533456,-1.4446144404898142,-0.38056185276051574,-0.615979952440187,0.4989977398237698,0.0
24,-0.3412892398946014,0.37983683614130226,0.8191529217855552,0.04108111398582004,0.05080580227014711,-0.7339479391741728,0.6760558668566943,-0.41650499751575537,0.031279117575019486,0.26479275278157266,0.43227618155376446,-0.2094736103069577,0.09273402355447448,-0.4082549761924696,-0.08647223133359341,-0.14338156831434945,0.38003478047656947,-0.20447857014245807,0.05777197683648023,0.01577576064987022,-0.3288402264947587,1.4846618740172777,0.5494372459326002,-0.5881898241192709,-0.48562662739110635,-0.46357240550450235,-1.4444358014446683,-0.38079643226066023,-0.61497943640959,0.4997447417183372,0.0
25,-0.34127709433878856,0.3803926999504662,0.8191236581177758,0.040823264002107645,0.05103339993745658,-0.7344120261248908,0.6755501677078997,-0.41785519671955185,0.03260209297746757,0.2653033585070395,0.4336625947061939,-0.20973803106086472,0.09295635976149035,-0.40864551113701136,-0.08506520544314568,-0.14237244484018557,0.3789144454730096,-0.2031559092618425,0.0575085415838282,0.016246304423987338,-0.3295848621333606,1.4844746080394293,0.5501220126617258,-0.5882796398357535,-0.48576389832397193,-0.46394389216328547,-1.444145020020214,-0.3811829913634215,-0.6141012215774986,0.5003990130404861,0.0
26,-0.3412145334527952,0.38086892408729983,0.8190778779285154,0.040654146198626485,0.05125335904493569,-0.7347499838613705,0.6751761213188657,-0.419276773354706,0.033620051014229546,0.265671835188287,0.43507001001497775,-0.20994473044179668,0.093239571133204,-0.40927189784985024,-0.08405138253481202,-0.1415913855923996,0.3782770442048666,-0.20210899946408012,0.05740250573748192,0.016215555791181554,-0.3299221413718785,1.4850962601837667,0.5497728077326016,-0.5875285173599298,-0.4857508824245285,-0.4646291863735911,-1.4438559762969612,-0.38158170371703654,-0.6131952420549084,0.5006826295258807,0.0
27,-0.34107852742780526,0.3812535885839976,0.8190603125165746,0.040634611759773356,0.05149991910592418,-0.7350746059745806,0.6748050906080443,-0.42054063513701634,0.03425554108785719,0.2661389236127826,0.4359305908561585,-0.21005824861976616,0.09358881778502726,-0.41006174852345456,-0.08331257950651826,-0.14075959761950924,0.37755427639568107,-0.20101785548158496,0.05746348780961551,0.016080857678944654,-0.3288478707344526,1.4862234659224223,0.5491501640041784,-0.5859716052284815,-0.485532174365436,-0.46510587028126876,-1.4436767295779709,-0.38198843536514204,-0.6122197487443871,0.5000600011748533,0.0
28,-0.34089370101772287,0.3815581119396777,0.8190449305555624,0.04061857062647009,0.05162932258029678,-0.7353773930515578,0.6744661848890994,-0.42129767326967593,0.03457071346200039,0.2666997047192772,0.4364238174783245,-0.21019879816465356,0.09396757586528093,-0.41076535395274283,-0.08292357265199721,-0.13995075631894296,0.37715949470747523,-0.20009186602391635,0.0576742169563302,0.01598978481822543,-0.32838775504054046,1.4865060422472345,0.5484757590711855,-0.5850686911000718,-0.48599520434731197,-0.4659788024538783,-1.4435908079891995,-0.3819647139759716,-0.6110610216399529,0.500076199394507,0.0
29,-0.34069070472736446,0.38175635400406666,0.818998900125858,0.04061665963300116,0.05166586274185585,-0.7356568518778571,0.6741586770728072,-0.42177437525582356,0.034688032629418455,0.26732042440695214,0.43693473173760705,-0.21039991808013578,0.09433113912490487,-0.4116376840487783,-0.08285024156528782,-0.13908060379058992,0.3775359702779713,-0.19957309812018753,0.05797736390623237,0.016001869567901828,-0.3286132730206101,1.4861787223775444,0.5482702573274777,-0.5845823439008375,-0.48619430003717473,-0.46672549577978223,-1.4440686867236048,-0.38180153548595513,-0.6098359737360193,0.5011160544265786,0.0
30,-0.34049691896443574,0.3818714869095303,0.8189367399871409,0.040634200896835886,0.05163576120193751,-0.7358192770720582,0.6739826417436331,-0.42210558245031293,0.03458145497807761,0.26774117238538925,0.4374540005367646,-0.210606593683762,0.09466685342526161,-0.41255707862626495,-0.0830795427381176,-0.13840041826414068,0.3784668037193815,-0.1993860303281215,0.05828956872251172,0.015596622354697597,-0.32871479403351167,1.485603668153224,0.5483564728767474,-0.5842207241786976,-0.48617412554722084,-0.4667825777708684,-1.4441996197541065,-0.3821220122493507,-0.6093148129119756,0.5003079678694812,0.0
31,-0.340285110847037,0.3819428559250298,0.8188622827447676,0.0406549539039908,0.05152583574086165,-0.7358325042447811,0.673975362065354,-0.42232698049986644,0.03419248919176417,0.267900620263217,0.4379937389523722,-0.21079748286226377,0.09501961488807296,-0.41347884672831986,-0.08368250763969687,-0.13803318986274143,0.37988717036791936,-0.1994567365955017,0.05866978567053203,0.0146091001074387,-0.32852700079866665,1.4850594304747826,0.5486489135960501,-0.5838847559429523,-0.48600749661114406,-0.46697910254011044,-1.4435096641423997,-0.3814788116931232,-0.6099034001082313,0.49900747023912584,0.0
32,-0.34005321313161946,0.3819938153104422,0.8187775278441938,0.040707164245994264,0.05139455350303158,-0.7357423162449204,0.6740806856273469,-0.4226243383433608,0.0336103264128232,0.26785009405563703,0.4386081485233533,-0.21097460886002653,0.0953848365141726,-0.41455291975651504,-0.08454602220893559,-0.1378750988105515,0.3816995914930385,-0.1996920965172989,0.05913378650529983,0.013288244376598356,-0.329057904725681,1.4844470670538807,0.5491044736645803,-0.5846162760719363,-0.4860433243179363,-0.4674302289679893,-1.441922575278044,-0.380401505284098,-0.6132856158171561,0.4966767241168273,0.0
33,-0.33960179851332317,0.38104665506782365,0.8187533211195356,0.040183856959537065,0.049958717219144036,-0.7355687131781219,0.6744094100820034,-0.4166351199112033,0.03145251348433562,0.2697681108692746,0.4363849406757084,-0.21260725045689105,0.09517371910813831,-0.4117772279552785,-0.08787197731824413,-0.1388617289428861,0.3847052764745421,-0.20324555386719512,0.06106473806045068,0.012179861166613128,-0.3283667839237322,1.482769419669217,0.548076554117181,-0.5875913980934756,-0.4861891559659506,-0.47021409950719467,-1.4428592940368805,-0.37356763220295086,-0.6169935683368555,0.4907918139952867,0.0
34,-0.3393401295672587,0.3818321348957207,0.8186301502180574,0.040782189879742525,0.05083997580879778,-0.735622733421579,0.6742486958991755,-0.4216254822167745,0.03170164310457485,0.26860572969895413,0.43876615265351687,-0.2113446910926048,0.09622711176245627,-0.41625546227437576,-0.08719293405697637,-0.13746166769110713,0.385829701249133,-0.20062833907834998,0.06076173724999816,0.01090633630594369,-0.3316994667314366,1.4831831645294091,0.5508311665845083,-0.5901078000497353,-0.4908563569933219,-0.4707520396395581,-1.4384953255677022,-0.37599317136855415,-0.6246811515921049,0.4910292746784569,0.0
35,-0.3388980136185629,0.3809631859341051,0.818614749290582,0.04029433302210274,0.04979378405078329,-0.7356711111293254,0.6743033160573604,-0.4169416105071836,0.03040144410904627,0.27053788488618796,0.43755531635208944,-0.21325691017777942,0.09596381507997354,-0.41389116136121845,-0.089540965755681,-0.13801703198307477,0.3879393859980857,-0.20327292296808613,0.06249817501198267,0.010359732294283944,-0.3326640617496167,1.4816375673442632,0.5501994386194197,-0.5952309335352748,-0.4935093565937686,-0.473147223294364,-1.4385723663595746,-0.37129206488377664,-0.6329540267675927,0.4948159650883273,0.0
36,-0.33866806644928565,0.38165734684758384,0.8185364401066817,0.04095387073415518,0.050799584858232744,-0.7358703305825434,0.6739710967233393,-0.4220142640161905,0.03100426366206182,0.26965820990059836,0.4398875346404462,-0.21210075328574285,0.09689460077386883,-0.4181748251560376,-0.08841058305397881,-0.136479791947679,0.38827254352702795,-0.2002246608804781,0.06211687454665248,0.009491686628981373,-0.33619975236006044,1.48176743984868,0.5526307074348151,-0.5997360869391134,-0.4974832666009492,-0.4732945921693834,-1.434388939802096,-0.375412572665981,-0.6430622374007906,0.5003364304935515,0.0
37,-0.338233823427896,0.3806779950586089,0.8185621266745057,0.040536847216684366,0.049844243829769944,-0.7360111128787424,0.6739139092597551,-0.41725847455546655,0.02986843570057573,0.2718290255263922,0.43843389356927714,-0.21403452491182479,0.09657499553097373,-0.4156126699163682,-0.09049158504716769,-0.1368929616861521,0.3897419215571261,-0.20255624209485956,0.0638458641259706,0.009206954196188617,-0.3369662281204502,1.4799527900101084,0.5519314305324444,-0.6068337625814467,-0.4988768192323826,-0.4753344697340191,-1.4339563100284471,-0.3726536746935933,-0.6497121452715826,0.5043427487260613,0.0
38,-0.3379760682729214,0.3812900825833529,0.8184874764611418,0.04121644447327951,0.05086110645082204,-0.7362243704199628,0.6735636784709443,-0.42219902653394015,0.030414736329942158,0.2710320027713949,0.4406838519795587,-0.21296936207438336,0.09754249566698553,-0.41987305584849094,-0.08941291108490913,-0.1352397499404521,0.3901131689874299,-0.1995823014739117,0.06354622919827199,0.008308071937709962,-0.34024665212984434,1.4801962625688707,0.5543800168851469,-0.6115242569595893,-0.5026630473507263,-0.4754163469496306,-1.429511269815301,-0.3771523683522765,-0.6563802573935951,0.5058403760429352,0.0
39,-0.3376681356879677,0.3812095259508508,0.8184048426089064,0.04135851704973413,0.05115498334016466,-0.7363728462189216,0.6733703825520987,-0.42357991105347037,0.03060471049884152,0.2712660535105694,0.44233327643641696,-0.21372441654582833,0.09796884067970958,-0.42142163151223555,-0.08948086554461848,-0.1344437723341888,0.39133824348205204,-0.19915120313408324,0.06410882881463827,0.007537522927918141,-0.34289594549156266,1.479958429828502,0.5548980302506453,-0.6164501470793232,-0.5055276997770125,-0.4755016836988491,-1.426818102304602,-0.3791408440113171,-0.6612928152827809,0.5070935091039672,0.0
40,-0.3373346182799733,0.3810366543092796,0.8183035335700755,0.04147027074126855,0.05134165137132635,-0.736497105758533,0.6732133871874628,-0.42448591894632576,0.03053369590405139,0.2716677065065763,0.4437858503667224,-0.21458859149921772,0.09834647549701293,-0.42294579649937064,-0.08994804549206414,-0.1337338559270161,0.3931373323935803,-0.19922648894623435,0.06482977694907159,0.0068883756733765684,-0.34474852268802086,1.4797526948567437,0.5555165120633557,-0.6205550329822902,-0.5075524977842705,-0.4755026616150262,-1.4248204216420348,-0.3804940897721002,-0.6655686737806342,0.5079250644125524,0.0
41,-0.33698299062604875,0.3808628808124153,0.8182065589974276,0.04156453432264048,0.05149171779912356,-0.7365591612797668,0.6731282154385486,-0.42528480420113574,0.030294763303683477,0.27195136739720194,0.4451159250040741,-0.21530314428119368,0.09870777680630806,-0.4243646923047693,-0.09059188179709822,-0.13318291428374188,0.39496871494989544,-0.19938719843091174,0.0656341965644597,0.006225429449144732,-0.34624514880112317,1.4795631693554125,0.5562995257768862,-0.6237590741382122,-0.5083580427660217,-0.47551308889303595,-1.4227347182054024,-0.38116732840631734,-0.6694885601508109,0.5077144516772917,0.0
42,-0.3366140863654256,0.38069246562789627,0.8181419641353316,0.04163778717504096,0.05155477331246234,-0.7365297643542166,0.6731510278148508,-0.4257407972143532,0.029868903527527482,0.2720606533811902,0.4460298992970154,-0.21583246906239803,0.0990838854233719,-0.4253331836883992,-0.09135416345517829,-0.13293170955056538,0.3964241991729438,-0.19936897511761648,0.06649492881697681,0.005177847075189052,-0.3470116341457505,1.4794351454209276,0.5570397625365925,-0.6259709932438313,-0.5086298933871544,-0.47579962853251606,-1.4207014259537003,-0.381198038827608,-0.6728173714731939,0.5079066987680764,0.0
43,-0.33623007820032913,0.38052337234819644,0.818097443673967,0.04167713037606951,0.051543367049166657,-0.7364606774939321,0.6732250505009678,-0.42576916017111455,0.029270426889895482,0.27213209105050307,0.4464455633084952,-0.2162678620369208,0.09947303292794048,-0.4258726369862521,-0.09219791446389933,-0.13286933267075587,0.39749059178930507,-0.1992998864827108,0.0673575746126316,0.003951745370492465,-0.3473898464285789,1.479449827219903,0.5576941291491883,-0.6270860644702214,-0.5090322850472292,-0.47603380688368346,-1.419012722407391,-0.3808811812418929,-0.6760633655149219,0.5094032663079788,0.0
44,-0.3358538987073875,0.3803596041182526,0.8180527531564294,0.041684938940680864,0.05145012957557049,-0.7364108976241878,0.673286150082198,-0.42546417745979187,0.028587967612506256,0.27229902537493383,0.4465922410269755,-0.21664899006450317,0.0998348303204028,-0.42600961814233945,-0.09308747488936733,-0.132846123152573,0.39817876894108584,-0.19943988128282555,0.06811729002950954,0.0028474441134925693,-0.34754982108168575,1.479332606820405,0.558268147434571,-0.6275895930766984,-0.5095620307137846,-0.4770221462523558,-1.4176737808233102,-0.3801381333415082,-0.6792553851262482,0.510097791851377,0.0
45,-0.33547477496261935,0.38019804039795263,0.8180153770623254,0.04166670688793568,0.05131205967928447,-0.7364388783885906,0.6732672103008885,-0.4248763538215846,0.02790751848673185,0.27267724933204407,0.44648304030252156,-0.21698752991681924,0.10016925701652139,-0.4259451728612364,-0.09388212029006862,-0.13269524636637703,0.3986093341881482,-0.1995942018999672,0.06879718159416023,0.00213965017675095,-0.34760056698539554,1.4790630560289315,0.5588841168515172,-0.6275778524810387,-0.5095961060977199,-0.478529469724149,-1.4168058663111964,-0.37906383794017334,-0.6819849921318953,0.5094320037977149,0.0
46,-0.3350846749639985,0.38003998705030473,0.8179837240798317,0.04162425727227272,0.051167401191341416,-0.7365491672608349,0.6731601907935647,-0.42410237390839456,0.02729578986691221,0.2732514775710034,0.4462259175417603,-0.21732602142390653,0.10049132763785402,-0.42575325488288573,-0.09457175262725227,-0.13236492409765113,0.39879979933846293,-0.19972787313512963,0.0693498374477997,0.001868210180614898,-0.347832978371308,1.4785958643372625,0.559479588768165,-0.626947164810815,-0.5087205827039439,-0.4800693999118787,-1.4166326128031426,-0.37852530263883866,-0.6835242807728291,0.5089459985711925,0.0
47,-0.3346928188227618,0.37989164891711247,0.8179429539296886,0.04157524760369222,0.05106821740380096,-0.7366975010004007,0.6730084159783265,-0.4234501881204353,0.026809061970941087,0.2738820925812316,0.4460607569077536,-0.2177243040113353,0.10080823139365065,-0.4256073784255407,-0.09512123589926362,-0.13196145657915537,0.3989153142937829,-0.19988608893164433,0.06980812554547725,0.001819878158446556,-0.34837695426353377,1.4780186581806338,0.5596981685980265,-0.6261651355835463,-0.5078020357557373,-0.4813357497179987,-1.4168204230168133,-0.3793218352657636,-0.6840509938382757,0.5073536815073443,0.0
48,-0.3343309871150296,0.37976347542492067,0.8178954801806789,0.04150555126971733,0.05101851968012178,-0.7368624435810847,0.6728358931442057,-0.4229208485783461,0.026497739945552223,0.2744955136976655,0.44599094283590457,-0.2181496712794602,0.10109239691379565,-0.42549087439685784,-0.09548630107126276,-0.13153461819789175,0.39898444186699217,-0.20006848085790396,0.07015239370393127,0.0018918357814900486,-0.3492718491830957,1.4774056481516635,0.5593248215802776,-0.6250724871778475,-0.5079581980862116,-0.48212816496380095,-1.4169388364917384,-0.379980865318423,-0.6834600397944153,0.505375198178177,0.0
49,-0.3339951270130569,0.37964031996630904,0.8178413044633989,0.0414113827702083,0.05103027189504225,-0.7370457851721388,0.6726399626006193,-0.422594589472223,0.02639822882032587,0.27504883767477173,0.44617936431499694,-0.21869154175320493,0.10135043391320728,-0.4253506141216648,-0.09564500836941536,-0.1310876776933934,0.3989783577910827,-0.20024442397886585,0.07041799775601834,0.002152132917104542,-0.3501889087488296,1.476766982557919,0.5584983768054094,-0.623828967534672,-0.5093725897729392,-0.4823936428389136,-1.4168165853501138,-0.37985593479110863,-0.6822690671672424,0.5058181638048467,0.0
50,-0.33369702533093276,0.379514406685425,0.8177755965155219,0.04129220138887376,0.05110122173974346,-0.7371948032243588,0.6724785805809468,-0.42256530179573687,0.026484768568633472,0.2753726750561578,0.44678495334060253,-0.21940767150671112,0.10158590825462464,-0.4252457326890014,-0.09563760998874751,-0.13072196142236767,0.3989534366549366,-0.20045079904495594,0.07062656216981406,0.0023175230565819593,-0.35045813644027696,1.4761617025069114,0.5579075976170765,-0.6225994973974301,-0.5103763936393103,-0.4826116869655568,-1.4161987305903252,-0.37997695379268964,-0.682073287189579,0.5057676788065972,0.0
51,-0.3333933679521933,0.3794072670606107,0.8176856337095617,0.04120525186562133,0.051162197030704286,-0.7373802820986246,0.6722758930571845,-0.422740121890058,0.026609957352089073,0.2757808622469799,0.4477156494443461,-0.22028080122485502,0.10186276447466491,-0.4254022693452272,-0.09565815389441949,-0.13017593079632445,0.3992597514738138,-0.20070746381756352,0.07082639603282473,0.0024104797854048853,-0.34979528973143054,1.475468291286958,0.5579469363426757,-0.6212151247664051,-0.5106179821303354,-0.4835911998490977,-1.415270894345982,-0.38088932164482836,-0.6839713201110965,0.5045681591034606,0.0
52,-0.3330336472397405,0.37934983190985816,0.8175756685990622,0.04112243659092024,0.05120151851764673,-0.7377040578732913,0.6719226686960281,-0.42296620150710385,0.02674434144669059,0.2765760439829336,0.44880388772681457,-0.22125051126596101,0.10222381697979156,-0.42596417124669683,-0.09571641699959042,-0.1291676337635351,0.3999115154721516,-0.2008845745827727,0.07108179273662159,0.0027296135712711073,-0.34863847211793136,1.4746557588627685,0.5581898697343418,-0.6195896678874622,-0.511442404842376,-0.48475208317469926,-1.4141298373366795,-0.3819389311192206,-0.6884533140393466,0.5034104992638263,0.0
53,-0.3326637190194369,0.3793185725937359,0.8174604529809396,0.04102542090036855,0.05125202415427234,-0.7381098577397815,0.6714789518424213,-0.4232879002883082,0.027037335422253336,0.2775332401832055,0.4500680994734222,-0.22230036699460262,0.10260071125988135,-0.4266680759917752,-0.09564672361824066,-0.1279290817675192,0.4006306285738899,-0.2009085747196809,0.07138881153616103,0.0032535400162184425,-0.34750951436657473,1.4737310360522087,0.5586628374911996,-0.6179901869926284,-0.5113063617330786,-0.4860295134073658,-1.413299936963932,-0.38245454891238173,-0.6953274881143249,0.5067655996354888,0.0
54,-0.3322967850609399,0.37929599582569307,0.8173716086449558,0.0408760029790174,0.05131308343317136,-0.7385347992874983,0.6710159983863381,-0.42350256826025723,0.027434570919742433,0.2785172691161746,0.45122420674502267,-0.22328984418806613,0.10298090233135693,-0.4271578412603985,-0.09544755363949026,-0.12670054121045735,0.401052725561726,-0.2006318094140277,0.07178383441506887,0.003801208905832282,-0.34627644401654556,1.4728236701660458,0.5591382011596717,-0.6162639481000003,-0.5095666092166182,-0.4883698174467433,-1.412210736523568,-0.3824124266916641,-0.7043965490554557,0.5098793787443067,0.0
55,-0.3317517892970082,0.37832142069754776,0.8173945173753665,0.040234480832474696,0.05005644096433701,-0.7388704142551512,0.670780180244278,-0.4172312895458242,0.026010261726770293,0.28153283490516595,0.4488047616697915,-0.2253093734333854,0.10279279555485497,-0.4237753253869179,-0.09776142914097868,-0.126512039971102,0.4022193822991596,-0.20318365317354986,0.07366037956340121,0.004338749351271309,-0.34266510924118176,1.4708438214505501,0.5570463667562443,-0.6144193132071065,-0.5070523240333997,-0.49485508580394544,-1.4149320028609682,-0.3769016471458986,-0.7152062374631095,0.510412356508206,0.0
56,-0.33141738203222215,0.37905750101654145,0.8173245217629135,0.04061290883646445,0.0510209893029253,-0.7393370264621815,0.6701702855158913,-0.4215663259310167,0.026986493038971097,0.2812772265917745,0.45089220847952494,-0.22437083441313208,0.104026494523769,-0.4271385227154418,-0.09613059166884252,-0.12435925489903751,0.40145887229438293,-0.19980178892164044,0.07337890979815892,0.004385207990353377,-0.3424935115552828,1.4711794553541029,0.558575096836749,-0.6119305166058856,-0.5096176701765034,-0.4999253861626277,-1.4124219281771322,-0.37958893288753187,-0.730057493516063,0.512628620372741,0.0
57,-0.33086567720247545,0.3781940506320944,0.8173701441242989,0.04005080820267042,0.0499062642694121,-0.7396928325379247,0.6698953732046565,-0.4158384342016178,0.02562119319134818,0.28417620050596315,0.4484165976631023,-0.22606126608463897,0.10395249423639288,-0.42395402182157466,-0.09820505632471643,-0.12409226551367182,0.4019834928816429,-0.2018654179475678,0.07530704636798732,0.0047365340008635425,-0.3404934780843976,1.4696777136904666,0.5564942146851509,-0.6112877688267275,-0.5106030374518691,-0.5104312203743246,-1.4154912364515368,-0.3721526823702869,-0.7448870470695927,0.5151919650746619,0.0
58,-0.33040231742576076,0.3780666201137557,0.8173861883477314,0.040046691714817284,0.04963682859707268,-0.7400915766045986,0.6694750973474983,-0.41431725277120013,0.024861082951151595,0.2858710078215964,0.447232685238298,-0.2261482416523708,0.10442798522745018,-0.42394488466303826,-0.09897391212494455,-0.12287075444053788,0.4020153618442381,-0.20147847646182682,0.07641488070025673,0.004890847568092412,-0.33966913412967586,1.4682235736247728,0.5580168823044429,-0.611458015462358,-0.511442329477188,-0.5216470499812849,-1.4178130375120603,-0.3672196070791533,-0.7642887534536655,0.5178585857625065,0.0
59,-0.3299741397160653,0.3779797524081993,0.8173592010355897,0.04012891946592692,0.04945808792953987,-0.7404874922945891,0.6690454701409475,-0.4134500993035345,0.02421580087360613,0.28736784224129863,0.4466244168484496,-0.22638251078464,0.10487995981639323,-0.42455713915467536,-0.09966631631927855,-0.12146617173351466,0.40255153674423394,-0.20121497654823867,0.07754537271511011,0.004817066439522871,-0.3396946400404805,1.4663158207798972,0.5604259471561734,-0.6117051919837002,-0.5100583468874308,-0.5337068510721249,-1.4200351963950708,-0.3634955938905467,-0.7867070542133805,0.5172731595577559,0.0
60,-0.3295367259614245,0.3779222054607837,0.8172907166067668,0.04031170183103083,0.049264686743430465,-0.7408943676871405,0.668598155295862,-0.4128862264894298,0.02343693229428386,0.28890077034929595,0.44628260180302587,-0.22673313106640364,0.10534273609651561,-0.42582316371493417,-0.10054835303970615,-0.1197707626976761,0.40381538625646973,-0.20120549822885492,0.07875647525845318,0.004516288838498632,-0.3399123680475893,1.4635833581407929,0.5622873057741243,-0.6117001387682639,-0.5081081887768545,-0.5474644650111129,-1.4221339698771154,-0.3589165154777274,-0.8147161184808912,0.5149408666815228,0.0
61,-0.32902981232424344,0.3779556463251163,0.8172157817084177,0.04061143417442833,0.04897178586886986,-0.7413471572811647,0.6680994446893704,-0.4122604931940578,0.022249065089615414,0.2907225132755708,0.4456081706923104,-0.22691261764848808,0.1058963315926963,-0.4276189379509093,-0.10178590073611685,-0.11768484437684483,0.40546306382167785,-0.20115382450577463,0.08007908859835632,0.003874344619626495,-0.3391203261391549,1.459937056483223,0.5631634376186393,-0.6119793522826938,-0.5063844411856468,-0.5633909958114717,-1.423484987360328,-0.3505478749336994,-0.8522985847370655,0.5217658546826225,0.0
62,-0.3284768696771811,0.37807439170316004,0.8171478552439813,0.041086101221449206,0.048558380604409694,-0.741914304352726,0.6674707341571675,-0.41146339640081453,0.02061116438323199,0.2930755076688963,0.44436815443027156,-0.22678870328791292,0.10652843022011799,-0.43008079064638144,-0.10338362800870611,-0.11499451302523486,0.40749108735506495,-0.20102245496876997,0.08153675810684867,0.0030270665412171754,-0.3373478615565396,1.4550100407690871,0.5632568813119672,-0.6101339668324464,-0.5013539796157492,-0.5821514855694249,-1.4240144253947147,-0.33802118351534327,-0.9006573792624437,0.5450598385764837,0.0
63,-0.3278831493102482,0.37825920885556924,0.8171051933104319,0.04175319099088189,0.04793511252698942,-0.7426747645268476,0.6666281498437452,-0.41007718563596673,0.018384695210514404,0.29627469894981895,0.4421363298395974,-0.22623618960407155,0.10721966385178464,-0.4331510357713447,-0.10541911431021554,-0.11145703838506496,0.4098706888245953,-0.2007945146426738,0.08318183728860301,0.0021654049423751867,-0.33317791877885283,1.44806435186006,0.5627442506050901,-0.6049063976886049,-0.488453998564082,-0.6036027429466109,-1.423516712782989,-0.3203523049730912,-0.9613984912961174,0.5723636507768712,0.0
64,-0.3271581182152137,0.37841108999051287,0.8170870562173302,0.042772578540074664,0.046972765326929705,-0.7436411848638609,0.665553794983431,-0.4076317191480827,0.014915234841342356,0.3006160668094043,0.4382618939313735,-0.2251375175024309,0.10808852605672578,-0.4371264604920319,-0.10846115403603468,-0.10674352265924868,0.4130238070851094,-0.2007074929561599,0.08525125259731033,0.001160606045268073,-0.32355191497857305,1.4364814470682095,0.5567004997493009,-0.5955715071493192,-0.4766202800829436,-0.6284047963210784,-1.4224543510706802,-0.3035709510070847,-1.0335399461542385,0.575714912967337,0.0
65,-0.3262185071164597,0.37848425045660467,0.8170672753269208,0.044067970413997355,0.04586703731204977,-0.7446484711496428,0.6644192074935109,-0.4046970320382348,0.01041035295249067,0.3055294412883475,0.433381207828719,-0.22376118944924325,0.10929044539043378,-0.4418392031774483,-0.11239027934605991,-0.10146859125383484,0.4167520878378359,-0.20078063057558182,0.08793917037389545,0.0002876361311098929,-0.3076290718001018,1.418578145367333,0.5515726205783947,-0.5906636977406449,-0.46137579862014305,-0.6587250570310484,-1.4217245674172776,-0.2837123043028646,-1.1094328665864315,0.5547485355714699,0.0
66,-0.3252213558173309,0.37846063997751345,0.8170646031524561,0.04563952160243531,0.04514683267702361,-0.7458816492963002,0.6629776488013482,-0.4026870979941814,0.006174233654892124,0.31074977699211825,0.42857381038738673,-0.22251780880690217,0.11048433401944795,-0.447597252458522,-0.11580952382296,-0.09545954997636605,0.4202221633095372,-0.20056955829803505,0.09097572132845652,7.95872958586118e-05,-0.28648642672508656,1.3937449609751518,0.5490878817734872,-0.5901056152297917,-0.4456346160202709,-0.6790010914367892,-1.4180159297717347,-0.27673013245074196,-1.1957453020920243,0.5066085065022459,0.0
67,-0.32430262010290273,0.3782575675142294,0.8170446000332798,0.04722848756773878,0.04473752310162995,-0.7475178620327485,0.6610484626188787,-0.40132232298107506,0.0030070946661131573,0.31665166858977256,0.4247524699866529,-0.22205499645464258,0.11139612748734302,-0.4537741945859051,-0.11818717850154342,-0.08860400690349055,0.42348813988642087,-0.20022274551407948,0.09422154956906957,0.000909647815295519,-0.26199525845086924,1.359773143963427,0.5515054446890781,-0.5918369192700658,-0.44838586661132507,-0.6934298048574311,-1.4104458817833927,-0.2834266610198392,-1.2888515264037799,0.4472298681838649,0.0
68,-0.3232710547478967,0.37776959818095446,0.817010397829718,0.049186818911867554,0.04445200699808672,-0.7493814259281668,0.6588111674774798,-0.40011838630703705,-0.0005332827426324394,0.32324366785274006,0.4207046934342502,-0.22199067977243392,0.11234203453380714,-0.46104249374233003,-0.12073241847699906,-0.08064129067114748,0.4272477615167581,-0.1999117647160138,0.09804889425477825,0.0023069583992912177,-0.2208610125809966,1.3152293343259427,0.569500095983462,-0.5975329219415848,-0.4481670703268013,-0.7101490074256619,-1.3985458503707164,-0.29315406697039464,-1.3829411868092278,0.3837038404196858,0.0
69,-0.3220583547722044,0.37699365898290704,0.8169798928856173,0.051579105899778856,0.044029614099368064,-0.75153036308366,0.6562035524745212,-0.39822098135435774,-0.005019756378359905,0.3310461862158033,0.41549767236200186,-0.221962562045173,0.11345901423614958,-0.4693922014459255,-0.12389984777200994,-0.07125757422838931,0.43171177806280514,-0.199753809758543,0.1026989651662886,0.0037999296595628207,-0.16524895613096235,1.2561894711310262,0.5966161094148776,-0.6082059197809602,-0.4505749899549479,-0.7275642857037247,-1.3807285097659534,-0.3025575978014649,-1.4778746582878814,0.3136809615331023,0.0
70,-0.32061847847191005,0.375792131596145,0.8169317917556665,0.05435972421228954,0.04372770256704614,-0.7540570462320357,0.6530933160273411,-0.39598373351096283,-0.010070746988753883,0.3401283898681633,0.40955412428842364,-0.22235568640454173,0.11474713014225395,-0.47880125881510577,-0.1272116019930087,-0.06032410828639469,0.43653080678912876,-0.20000805051421974,0.10767864110374299,0.004065331231945421,-0.0941792514570317,1.18223768588754,0.6334672373767598,-0.6289939506529073,-0.4562066635822973,-0.7436800751312562,-1.35610098527668,-0.31377174593639845,-1.5743592635762305,0.23068718117312045,0.0
71,-0.318862429951686,0.369605236451506,0.8176585158747495,0.0561299345372167,0.0404310194346781,-0.7563485587895814,0.6505010535988722,-0.37722755345208114,-0.02067192141982583,0.3507392969333833,0.39865809132810887,-0.23256541216846213,0.11096555247971218,-0.4762443618393093,-0.13818763796480937,-0.052766928217029614,0.4442579196878893,-0.21454405776995178,0.11654081367954347,0.005661396168298818,-0.020286564002139962,1.0985882381882417,0.6398738869681393,-0.6507305864843823,-0.4521834697032524,-0.7629452796450941,-1.339362444427669,-0.315403542596377,-1.6680814575910206,0.15328573370995044,0.0
72,-0.3165556962820831,0.36625569292098287,0.8174626516464725,0.059051126684821535,0.03834778216733702,-0.7586365319293628,0.6476982510878718,-0.36588243187736963,-0.03169627615489334,0.3628035181686635,0.3860658630896346,-0.2344680831858624,0.1123468711298192,-0.48423017553393544,-0.14741273052168757,-0.04084613569516442,0.4546277691610377,-0.22257568953335377,0.1247201243677118,-0.00689131331654667,0.07789699248436766,1.0030222612878636,0.6561681427713582,-0.6803137851786007,-0.464136646441418,-0.7711103082114771,-1.3050859213948247,-0.3168946349655618,-1.7774379097959876,0.07769680100555872,0.0
73,-0.31521650756479946,0.3643094144419564,0.8173805651482414,0.06068468506603231,0.039721540151966744,-0.7616529837891785,0.6439132709701151,-0.36527859457859857,-0.031690619091997475,0.37180305956024096,0.38378738908890797,-0.23697112440009854,0.1139087510501859,-0.4897291623932797,-0.14573326824550903,-0.03154922847660953,0.4539877641714787,-0.22184056904848268,0.12988031993193327,-0.02435482573331666,0.161485911716771,0.9152288329318304,0.6445089426302916,-0.7033576894231549,-0.47223663610540695,-0.7712809001175626,-1.255752874197452,-0.3168914518811994,-1.8918591201100485,0.011514638714213852,0.0
74,-0.3148105133023216,0.36345178370774756,0.8175147108238471,0.0612569192136848,0.04448476344035161,-0.7656634094249031,0.6387708815670426,-0.37473758042755234,-0.020853345836141752,0.37881221529405223,0.39161807116606784,-0.24173891998496674,0.11462113396464879,-0.4925258730016824,-0.1335891551743102,-0.024240030222725983,0.44209922010469777,-0.21340762144858982,0.13225407573686487,-0.042180413449067714,0.22682177138304457,0.8390881577097219,0.6030111019619668,-0.7193948316750123,-0.47338771397380686,-0.7732664452362891,-1.2009639630344062,-0.30896606093743073,-2.001370579524274,-0.036211093820822875,0.0
75,-0.3147667783922582,0.3621233217273775,0.8176612884280333,0.06066631969960178,0.049723875704200164,-0.7693794439650198,0.6339577312748349,-0.38439721998050064,-0.006482667723405479,0.3841645200988213,0.4034747129993837,-0.24993206921089361,0.11399130927848226,-0.49093757612972,-0.11946560339010531,-0.019901851337950662,0.4281299096028945,-0.20576304282646346,0.13396009372491624,-0.06276890579764349,0.27763434683322036,0.7687668230776412,0.5415807807713362,-0.7317475289694685,-0.46394711274123074,-0.7741580562682179,-1.1468158078090278,-0.2956308288368889,-2.1073270634049943,-0.05637197373889824,0.0
76,-0.31514857356519027,0.36106478208993864,0.8177851115529353,0.059275737400999486,0.05602166730185476,-0.7732821159702473,0.6287946635181192,-0.397127412977324,0.012401834119610503,0.38787598995956607,0.42001356526298245,-0.26032135467408685,0.11239364201844122,-0.4872089058097064,-0.10171496154847647,-0.016894950833661895,0.41070875788425165,-0.19670989471967557,0.13443292574615837,-0.0804586041231842,0.3075140369157177,0.7083939608436529,0.4662134282045354,-0.7378958003223511,-0.447212249447529,-0.7823582355707376,-1.0989292950573597,-0.27808737277103146,-2.1947890658829254,-0.062395438312611004,0.0
77,-0.3162841548516071,0.3648672535581118,0.8171809271807243,0.058437904304865125,0.06826142285580147,-0.7792926714231881,0.6201841031147665,-0.4355132916132957,0.04636617464931456,0.38855529637360464,0.45260884486982134,-0.2671138152772993,0.11189904122434612,-0.4927842395994489,-0.06715298247488911,-0.008273978503284634,0.3800626565763728,-0.16960419711203772,0.1277469937305326,-0.0792668631691958,0.3082300278817728,0.6590101544051818,0.37150818147557096,-0.7446003090137763,-0.42148328100573035,-0.8329520358949549,-1.0713530625659737,-0.2452721337174042,-2.1947999999316616,-0.061090515508721493,0.0
78,-0.31642971537302905,0.3649649122027312,0.8168776196875427,0.05585780084895227,0.0751089794876228,-0.7836323535242671,0.6141326255742028,-0.4517436596383402,0.06961713547812676,0.39061566661592184,0.47479693264448297,-0.2790923716670883,0.10982499189752362,-0.4882557140422475,-0.04623986242023491,-0.003966872011042834,0.36088062436208035,-0.15831044297974917,0.12719990640298634,-0.08667602248606558,0.2996548170117494,0.6157706630728743,0.2719261799232431,-0.7326448392276604,-0.382365556337035,-0.8739932989230244,-1.047986244996421,-0.21008603194454367,-2.1947999999999994,-0.04092804278047472,0.0
79,-0.31631228982722615,0.3649905693842474,0.816621292338623,0.053793968098898755,0.08048347063984682,-0.7875177122257082,0.6086414978299831,-0.4634843605970674,0.08808915750540787,0.3935464111918074,0.4911939376945032,-0.28857886442405106,0.10831753341982542,-0.4846394010065771,-0.02962402917467614,0.0006883240146540199,0.3451367891044495,-0.1488990841855082,0.12786963011687721,-0.09738925141415625,0.2835234743992096,0.5738021621301319,0.18058531223693003,-0.7158406982939357,-0.3465695307458385,-0.9062852249254402,-1.0259558665929294,-0.18139857423950342,-2.1948,0.006701642844489909,0.0
80,-0.31593861120260697,0.3650032767808534,0.8164129043877626,0.05246005636093449,0.08471480359575162,-0.7911874891776796,0.6034017745309168,-0.4722298905809599,0.10250191631649705,0.3978169807024882,0.5031319331065955,-0.29611329372220874,0.10736089244352597,-0.48306111190463485,-0.01657270463845375,0.006237948348292136,0.3328637908989226,-0.14079340204368213,0.12979395237218455,-0.1098293608890093,0.2638105871128139,0.5345010869740685,0.09832187974761589,-0.6891127106096312,-0.2957320887355428,-0.9255885566738719,-1.0067737751307049,-0.15945482598957483,-2.1948,0.0701173272398081,0.0
81,-0.31537076899281563,0.3651194554674877,0.8162836940475431,0.05183634563045187,0.08804408710978714,-0.7945589197399352,0.5985293268156466,-0.4790542982859207,0.11339477046079564,0.40288117907530085,0.5115010881139059,-0.30183606672710617,0.10693965762239857,-0.48333495032771384,-0.006546701465176335,0.01232400482814917,0.32321456596648124,-0.1334443821148598,0.13303512697644182,-0.12279074900369134,0.24510544414585347,0.5032511779608699,0.021066967256995958,-0.6706619823386935,-0.25055443162304447,-0.9357150470794192,-0.9910553468855747,-0.1407718195793677,-2.1948,0.1097530035562778,0.0
82,-0.31459879284832193,0.3652257882824142,0.8162487018508917,0.05191033037748544,0.09054089970136221,-0.7977150945188591,0.5939345848308002,-0.4838586838998002,0.12090213333736768,0.4089766156273852,0.5163337189743522,-0.30593864929095693,0.10701453363299016,-0.48490404666182285,0.0006636247713604775,0.018837265449861938,0.31526992904564266,-0.12680991498342623,0.13739179997697779,-0.13584194992421042,0.2264763026526559,0.4779211869231658,-0.04750833412397202,-0.6484784734386556,-0.20878731744318696,-0.9434864053673641,-0.9808244468684988,-0.1270130817397558,-2.1948,0.15218577661707344,0.0
83,-0.3126423113691025,0.3615682342711961,0.8170550635547823,0.04943977520164122,0.09231727090496213,-0.7998133516747,0.5910430040221719,-0.4777714562308436,0.12731142511872617,0.41281929075500196,0.5211742450639811,-0.3230902033847102,0.10720125382392816,-0.4757795947599811,0.004221025008739592,0.018412496569844197,0.3096401086042256,-0.13208423136704284,0.15025245951507168,-0.16239768281121675,0.22133962003775526,0.4727737042024366,-0.0730743145528347,-0.6182432069362923,-0.15559119754955655,-0.9563910538210857,-0.9551140566624889,-0.11206519588367501,-2.1948,0.17911532543955147,0.0
84,-0.3116169245124853,0.3614609141389878,0.8170049132769132,0.04987648155243392,0.094145202472262,-0.8021782103663345,0.5875024563802868,-0.48173851958286307,0.1319684234452072,0.41805756042809294,0.5251849759318303,-0.32775228914229676,0.10797170892497973,-0.4794970897376352,0.008286654778409919,0.022800121918595113,0.3067108752270247,-0.12784213030218294,0.15585585754541875,-0.17715359890275695,0.2116779673916153,0.4637004903111741,-0.10735945867350905,-0.5973194500665387,-0.12117857394052006,-0.968665276366305,-0.9407604765503924,-0.1008172647656264,-2.1948,0.17391529177972392,0.0
85,-0.31044431826348934,0.36160738404468407,0.8169072889162344,0.05107154110144174,0.09595357996279934,-0.8043617153500247,0.5841120090025643,-0.48704156582707625,0.13507386367241228,0.4232050441913109,0.5282852241653888,-0.3307161871199193,0.10912866091806082,-0.48714863005450965,0.011423850174022029,0.02727525049600031,0.30719140714447846,-0.12271829880576932,0.1604664939564658,-0.1884364209265462,0.2019981223535537,0.46135955840578813,-0.13619929808017128,-0.5848100179377579,-0.10836415208139548,-0.9770243949690167,-0.9310646031939406,-0.09602083071939374,-2.1948,0.17525598883420934,0.0
86,-0.3093516518731508,0.36181977489343553,0.8167010734067598,0.05286774893916088,0.09742539969434821,-0.8067674501620528,0.5803788193719013,-0.492575446835867,0.13728829306921445,0.42955419751496887,0.5311954939350799,-0.33332229465490115,0.1102032861285185,-0.4992597926778693,0.01391093122914103,0.03338072670128688,0.3134689508014164,-0.11809998010541765,0.16424047253823562,-0.1972487691150227,0.19589840536040362,0.4653793892261078,-0.15172532016705453,-0.5767422196084936,-0.10401127269012994,-0.9808050111939475,-0.9240139879202561,-0.09232268207918436,-2.1948,0.1775894580539882,0.0
87,-0.3084433829689962,0.3618998803771702,0.8163610424529323,0.05494352558989608,0.09870056314657943,-0.8092163494446785,0.5765486168760868,-0.49826650962204166,0.1393143544558414,0.436323203353296,0.5347568349668381,-0.3361963790768652,0.11103321016040343,-0.5156143697308317,0.016261456359615838,0.03814503992790496,0.3265938418190496,-0.11411526773051159,0.16619054092014635,-0.2036853030120013,0.19278582378139197,0.4725017133048011,-0.15584323365286215,-0.5725877697325157,-0.09981659227511493,-0.9777835858735284,-0.9165351559590749,-0.0867174653607995,-2.1948,0.15578851853435946,0.0
88,-0.3077871032995564,0.3617253623938076,0.8159863837649277,0.05702610431462983,0.09975546017849891,-0.8113663329024619,0.5731330957322956,-0.5031833959515493,0.14086238767186468,0.44259224200177916,0.5380345822900101,-0.33896913493138564,0.11159928336704072,-0.5343107034458946,0.017726813228559513,0.03541568984271257,0.34551015402449436,-0.11033353264941312,0.1648612367715444,-0.20858938014355954,0.1919421128102415,0.4824343546359343,-0.14786747028505384,-0.5729455136290982,-0.09834446193692117,-0.9735274420196026,-0.9131030931155486,-0.08409913765301066,-2.1948,0.14503965714814165,0.0
89,-0.3073662609016344,0.3614472767360905,0.8156962784353856,0.05902047104465871,0.10121473769573723,-0.8137209625258106,0.569324473404155,-0.508237327655861,0.14379172966948586,0.4491617537545534,0.5413205392227758,-0.3417544918205783,0.11165676189586556,-0.5557712828507463,0.018773004847773507,0.018884695813888467,0.3675647132256714,-0.1029530700399563,0.16058874399952885,-0.21117529447184685,0.19536099513855754,0.49732434570067885,-0.13466996940613782,-0.5811291171182804,-0.09797408390022955,-0.9749555607957411,-0.911791666272806,-0.0785719620194992,-2.1948,0.1537983971377779,0.0
90,-0.30701611023978254,0.3612544726847311,0.8154179754739027,0.06135928958474352,0.10298985361663861,-0.8171254038343444,0.5638565438497977,-0.5136563793644212,0.14842910852944174,0.45883135240858264,0.5447451296635568,-0.34468714242586,0.11111068133065716,-0.5817056543541255,0.01866044450126555,-0.018693778580028193,0.39283351722388327,-0.0917691718611431,0.15253186643949326,-0.20953120028583694,0.2026175327430149,0.5158224953757415,-0.11891718062350451,-0.5927808878104702,-0.09508791148691456,-0.9777350721315211,-0.9122126789193953,-0.06821172971921846,-2.1948,0.17592388728134123,0.0
91,-0.3067092683371271,0.3612067445544797,0.8147019000434695,0.06449952648708897,0.10435164095663858,-0.8215268711274033,0.5568160792651533,-0.519954106512144,0.15344243324855997,0.471993796841203,0.5501908810648197,-0.34868907125804216,0.1101054709669918,-0.6120168136431248,0.01560944072910235,-0.07219926943008347,0.4223036514845092,-0.08049082148721795,0.13629061084180322,-0.2044256030218929,0.21162806293576092,0.535257237107972,-0.09939855338682758,-0.6092217288340158,-0.09029301596306924,-0.9806571105498595,-0.9140655505318358,-0.058478607193052645,-2.1948,0.19688329487034456,0.0
92,-0.30633628487201664,0.36095805641990053,0.8138121827215116,0.06838181754330433,0.10490477506605371,-0.8262781423424648,0.5491660465514062,-0.5247549216099081,0.1564273369931446,0.48770044930591533,0.5544126289716675,-0.35278914395860794,0.10891323754647274,-0.6414856670933925,0.007281526496659486,-0.14556135712709511,0.4502524205111211,-0.06945964194498688,0.10759300334412172,-0.19833090721684954,0.22112370313931926,0.5537759338676602,-0.07921702847899356,-0.6289442870422223,-0.09435703674666267,-0.9840067822857755,-0.9146892449585606,-0.057052500758169984,-2.1948,0.210412946606766,0.0
93,-0.30582178065757665,0.36036269444950025,0.8126836375378399,0.0728476152284089,0.10440573612959345,-0.8308445569186002,0.5417471637743086,-0.5275694557185583,0.15617226692521574,0.5046595186375851,0.5570842165708838,-0.3566088684631744,0.10785912433745999,-0.6650790213273922,-0.006407149441861161,-0.24002729596380204,0.47268961773130413,-0.06457651148769276,0.0670463903285094,-0.19339999436963212,0.23091030782198127,0.5686128544107985,-0.06040904767216016,-0.6462802310286746,-0.10517149305901094,-0.9926199884168332,-0.9148707961983735,-0.07012464925581431,-2.1948,0.23785829086042967,0.0
94,-0.3053598622538754,0.35946290409380754,0.8113296489628256,0.07749015467713931,0.10246557930458632,-0.8350131657331147,0.5350225173188994,-0.5277339371162334,0.15248758711928487,0.5218072687436487,0.5587474492602217,-0.36020882180213826,0.1067788840717303,-0.680349690211541,-0.02216953895638618,-0.33797804316952124,0.48742812804127605,-0.06856767184630369,0.02004775450878575,-0.19062035057808346,0.2382048545093261,0.5776478386967443,-0.04352426021613362,-0.660485276173507,-0.11453530089370309,-1.0044291319102054,-0.9160601706206585,-0.08296375351317169,-2.1948,0.24916515135718248,0.0
95,-0.3051290444827266,0.3581755653622337,0.8100951250507354,0.08186556945561703,0.09985749938956565,-0.8384324131215672,0.5294880517825851,-0.5257214119092536,0.14674514879856057,0.5372925823945166,0.5589158948960423,-0.36347158279467556,0.10548267209896808,-0.6855494742305654,-0.03588298953294439,-0.4315639984102275,0.4925622601041065,-0.08032605675192737,-0.029400178786988498,-0.19037857182960885,0.24344986276194305,0.585621827036045,-0.030794541176526278,-0.6713417445232572,-0.1201161089907969,-1.013386991558338,-0.9187818979387468,-0.09023148765105947,-2.1948,0.24981406440662726,0.0
96,-0.3055914067326554,0.3563466675991032,0.808946403055205,0.08560747763382764,0.09716992543760622,-0.8411919906926236,0.5250003811029151,-0.5222366888913944,0.14160298702108093,0.5507791676517122,0.5595032993348982,-0.36721931160072885,0.10324744539871954,-0.6817694239913499,-0.04406382689275604,-0.5120922590290515,0.4876689811272821,-0.0977680088123591,-0.07820926613844864,-0.18967595778214055,0.24458023661897602,0.591347732163998,-0.02140320502028545,-0.6768162668104523,-0.12292523684054318,-1.0170477846731634,-0.9218166863464765,-0.09755851842643769,-2.1948,0.25846036090061014,0.0
97,-0.30686146018852495,0.35425442961855963,0.8078185048849502,0.0887990035328957,0.09380933802216711,-0.8433897463219797,0.5215441312778385,-0.5167803669925657,0.1363818366000294,0.5628210238452965,0.5605397176926339,-0.3707302757415284,0.09988412287244616,-0.6729612124514718,-0.049119083495065906,-0.5783626984992769,0.4778287474751582,-0.12104494315495237,-0.12564133021967105,-0.18947368354748834,0.24130461517416832,0.5901609983864301,-0.013343996741729258,-0.674388826801798,-0.12294471962060785,-1.0109992033551534,-0.9229931690695741,-0.10807489976336576,-2.1948,0.260551336391095,0.0
98,-0.3089337487198774,0.3519989029590144,0.8069551331910448,0.0913191787385625,0.08916943790943586,-0.844382043375693,0.5203158500008622,-0.507685921792751,0.12854622337650382,0.5719076537698313,0.5591736254059496,-0.37190408396597474,0.09557551920971706,-0.6621782376148618,-0.05403241946837603,-0.6161528359963948,0.4687435174804757,-0.14836644394615753,-0.1645505726086254,-0.19559040757464474,0.23669227380634267,0.5832761728472955,-0.005791216407408428,-0.6697898382494292,-0.11989570778821712,-0.9974702720190363,-0.9197073680437692,-0.12733360625844914,-2.1948,0.23938717656665962,0.0
99,-0.3119488377379772,0.34947587934233365,0.8062866299476019,0.09307595311366802,0.08384122063989284,-0.8438739472745403,0.5217128307650503,-0.4965580521680337,0.11937575577348801,0.5762862540410842,0.5569814192586144,-0.3710517902677034,0.0903152885694662,-0.6515692001407094,-0.060368009075952134,-0.6205873799912652,0.46457123469705036,-0.1773726475761317,-0.17774637639778207,-0.20906948337074224,0.233267902073674,0.5733476431659875,-0.0013604994250763502,-0.6654197472902427,-0.11971162030262641,-0.9776528033772697,-0.9120726877794834,-0.15709834006091136,-2.1948,0.20885367180605358,0.0
100,-0.31610305947107126,0.34644837504144704,0.806150148698466,0.09362347705752656,0.07863446936359565,-0.8417129998013034,0.5258996964603195,-0.4830708985753225,0.11054193050408087,0.5748525191928998,0.5529042614749325,-0.36836016252120884,0.08380972721976895,-0.6399562471576001,-0.06982677025141569,-0.6132574491770496,0.4663900166640142,-0.20123059149925737,-0.1731001709451975,-0.22945157020114962,0.23153865067663207,0.5621715971421408,-0.0005070039341292451,-0.66033168537964,-0.11975624452137144,-0.9492889243420193,-0.8997962269026368,-0.1991243615755326,-2.1948,0.2070266077953452,0.0
101,-0.3211249680266891,0.3431248194405279,0.8065509368646986,0.09363701909589366,0.07291592372188159,-0.83930669484762,0.5305465565872468,-0.46595775814260243,0.10153253315432942,0.573098365242882,0.5455264969260538,-0.36325195350601874,0.07614505572371608,-0.6280953776216244,-0.08217875030804951,-0.6127296210380336,0.4734812903590088,-0.21988280343722671,-0.1695904187164888,-0.25233936057795925,0.22921877844713395,0.5457283304072367,-0.00025616833072358153,-0.6518461371628802,-0.11841647117532252,-0.908255761524289,-0.8790974171740347,-0.2479204771425359,-2.1948,0.22729746482049695,0.0
102,-0.3265147213900182,0.3391097528889073,0.8070551318067583,0.09340161007739838,0.06539395037987171,-0.8367076474562822,0.5356492165371279,-0.44272856240231545,0.08882141122033467,0.5729781160496018,0.5337467484366767,-0.35636784038233316,0.06729984996135205,-0.6169058194570796,-0.10143258354632655,-0.6138687236414936,0.48955203080989945,-0.24039102837459675,-0.16456598195144986,-0.28440582545573495,0.22639735438536232,0.5209956079879189,0.004784320290781331,-0.6340581453797682,-0.10895835801264832,-0.8481106031860873,-0.8444474572797088,-0.29711482474310974,-2.1948,0.23514231706728833,0.0
103,-0.33174507508978296,0.3356164687838899,0.8070672768025831,0.09451222149096516,0.057714917779638816,-0.8355577994989783,0.5381260000696474,-0.42339464221408973,0.07781560371700169,0.5782191103467992,0.5266699128746137,-0.3487592077565393,0.05848953381286941,-0.6134710654789414,-0.12142992707060342,-0.6104390904290679,0.5117269818527848,-0.2585421718158293,-0.16194535548188999,-0.3118302050658996,0.2210525932749458,0.49256262692849045,0.0038736745256569283,-0.6170566956619539,-0.10230374440019747,-0.7730139909277438,-0.8047252845559716,-0.3494969202341831,-2.1948,0.24099159721875418,0.0
104,-0.33690443096126177,0.33226424790338527,0.8068311765768336,0.09632116816693646,0.05120934595083152,-0.8348239945133776,0.5396005315369636,-0.4102936521406696,0.07054470772714318,0.5832193117726715,0.5264345063988881,-0.3413822153341381,0.04934682472168446,-0.6123887674129779,-0.13842971647098876,-0.6064551635716267,0.5322257767064094,-0.27658219332814354,-0.1598479709892834,-0.3376519814700483,0.21539455923885253,0.466384401059525,0.00019011522659571206,-0.6005965451657377,-0.09701817226523748,-0.6825668047911362,-0.7556515905528431,-0.4003732288870999,-2.1948,0.24849352536048544,0.0
105,-0.3424251744374208,0.3289926222996322,0.8064744282492037,0.09816429610284028,0.04659883375071359,-0.8345655918569473,0.5400857270398575,-0.40331110195390013,0.06947671006371353,0.5864540687558384,0.5336192120685042,-0.33598496545062695,0.03966612778845118,-0.6108117858228415,-0.1491089775186287,-0.6029776749745219,0.5479018262941576,-0.2932869803739735,-0.15780554010115902,-0.36142559876164687,0.20986639303971868,0.444475664068696,-0.0035582413628132276,-0.5850510202798556,-0.09136819940969501,-0.5723351534978729,-0.6931229993952366,-0.4445239432368724,-2.1948,0.2400360607537273,0.0
106,-0.34888440100441087,0.3256330564493331,0.8065595999812614,0.0994741327294398,0.04491009204212609,-0.8347398481785967,0.5397197109734531,-0.4041065147823199,0.07864988846285251,0.5860136910987886,0.5507369577298409,-0.3281687744352461,0.026980252892100372,-0.6039584213211511,-0.1487966861799358,-0.6027675264555474,0.5517100867620157,-0.3057027948271397,-0.154940642421171,-0.3770622623015354,0.20538116637791384,0.4313891772796225,-0.009892337772265211,-0.5732184498885047,-0.0914521230466337,-0.4498032177409951,-0.6199799611836043,-0.4797520531052216,-2.1948,0.22747400211702778,0.0
107,-0.3563020021629776,0.3221650566214556,0.8070298177901192,0.10018720805073492,0.04554582009240545,-0.8366758547449226,0.5365273671509809,-0.4109237897733238,0.09817302214164413,0.5849332613333381,0.5779342664373085,-0.31783930489861917,0.013902407012301594,-0.5923592313225694,-0.13651702905843685,-0.6022496818578356,0.5437331272430841,-0.31264864352511856,-0.15118506679635244,-0.38196832621639926,0.203447485261062,0.42578017779237304,-0.01718904410926695,-0.5637282766077274,-0.09116201897998163,-0.31683422118413934,-0.5410634068670243,-0.49917216759231364,-2.1948,0.21724226599666924,0.0
108,-0.3645146734358129,0.3186748834128822,0.8074844711680336,0.09982589778312222,0.04770046167774985,-0.8400504863542025,0.5311069915408687,-0.4233638531960248,0.12743961646726065,0.5812599443323102,0.617515247655679,-0.3048364291102122,0.00031379853842002786,-0.5764497420809684,-0.11505363555055968,-0.6005500831815027,0.5279704492764412,-0.31593251275164075,-0.1487396453947008,-0.3794071803503931,0.20588142507532306,0.42684162827985644,-0.022701762402529795,-0.5561097492068275,-0.08530343144924268,-0.18582983505944978,-0.46723167851925324,-0.4977273773582118,-2.194799847885,0.24836439558305867,0.0
109,-0.37356865345883933,0.3151110545526406,0.8079184986657137,0.09815845035121742,0.05101358105025055,-0.8438835077032271,0.5249982462823813,-0.44263930560281056,0.16610667624660444,0.5717480547632395,0.6700188880723026,-0.28219696041791303,-0.01783298724079066,-0.5548109367139472,-0.08671844533903336,-0.5996363164652407,0.5048859860630753,-0.31653253666972236,-0.14663150186516716,-0.3715587630085537,0.21311385635258825,0.43337536166705215,-0.0305310483392668,-0.5524059599853393,-0.0824298584525412,-0.06210044942328555,-0.3918060663192406,-0.475071836431022,-2.1925753486543695,0.30564971578690514,0.0
110,-0.38338187738143403,0.31122750704262897,0.8079472982346141,0.09527637157511866,0.05519956840601858,-0.8488623495347479,0.5170185027729838,-0.4697160059089973,0.2125121015676122,0.5544447341020183,0.7363438321354893,-0.25168980320770934,-0.028916603530355862,-0.5291832444794218,-0.052338722900510164,-0.5963188479118026,0.4774698080364848,-0.31577677358175155,-0.14503661517272562,-0.3568721784837587,0.2253756501335975,0.4448283702150633,-0.040982960414205974,-0.5566393509035843,-0.0809820120952476,0.056781313649075,-0.31215173420751363,-0.4344861775503026,-2.180249008395464,0.35407907961696844,0.0
111,-0.39256489390580124,0.3069698101214188,0.8071998727854969,0.09171949452846738,0.05900199236240761,-0.8564423107914693,0.504591783035434,-0.5000438679763316,0.2631480724202946,0.5400704966906971,0.8129321993096272,-0.21674827767071086,-0.02389975806287703,-0.5052321613363359,-0.016678151688125864,-0.5830857249321336,0.45358331232811927,-0.31490766224135214,-0.14392516720318513,-0.3294945577872779,0.24068554853310253,0.4585869547443909,-0.056072805405113765,-0.5674510630886059,-0.08252434929566516,0.14452378612238398,-0.25346396789517245,-0.38081703666443595,-2.1331544816547674,0.4117168233033112,0.0
112,-0.4010076855744997,0.3024410886458027,0.8063110331431766,0.0889258493729469,0.060849972511234016,-0.8649597348204306,0.4901368495614803,-0.5340772755435415,0.308716442450104,0.5282783328651257,0.8932932590132098,-0.18487684682935682,0.03329181251979798,-0.4851016914929166,0.01245356328519533,-0.562423450380361,0.43692665000392206,-0.3161533987646623,-0.14287461000187504,-0.30174865530646505,0.25517553080127875,0.46912662031709773,-0.07208879904668088,-0.5790465174898222,-0.08350046906775616,0.19887939498632423,-0.22511332147128163,-0.3114092916888851,-2.059782636747979,0.4898185909105608,0.0
113,-0.4077748972746631,0.2980556304164833,0.805477404085635,0.08819979533263629,0.06105411696979157,-0.873555943548951,0.47475594192660997,-0.569522450110883,0.34350152257153477,0.5184016126736413,0.9683182952892536,-0.18432331923520995,0.10807555380662065,-0.4734392511586014,0.03225323794566909,-0.5364093716960932,0.4293268106640935,-0.3188178880323531,-0.14167526775339132,-0.2744525521994382,0.266598490076479,0.4771815181150833,-0.08856265523546542,-0.5941760629086252,-0.07737022645799417,0.22653108684034873,-0.21641971638026755,-0.233217290205613,-1.955997467679024,0.5614588979926507,0.0
114,-0.41158618139932374,0.2929230330020729,0.8042984012728779,0.08920571405640505,0.06030961564829087,-0.8834736274107353,0.45593797879729253,-0.6078315044239773,0.3570634587982353,0.4896456120346171,1.0254015691130756,-0.20566188938225838,0.13125077655651307,-0.4734022676354369,0.043340979949488004,-0.5009082538515329,0.43528513364447396,-0.3231702615582647,-0.13820890426996787,-0.24324609672353295,0.2718403456235828,0.48299637150870806,-0.11038269576846008,-0.6075823092491662,-0.07721313928313277,0.23361062351389192,-0.21998783182590756,-0.14432454687777474,-1.8297679695216726,0.5714517477000263,0.0
115,-0.4140677293689777,0.2863177164170151,0.8036505830844457,0.09118156507812003,0.05856696263453559,-0.8942474040400658,0.43425500969507913,-0.6470888552540559,0.34863038801647944,0.44283950725515864,1.058223777838449,-0.21411242921908458,0.12442594786941608,-0.47635602056698695,0.05017060388639185,-0.4586652691702743,0.44408184615950075,-0.3272841023757653,-0.13216855027263172,-0.21120740762750181,0.27373622086436233,0.48909499938106765,-0.1409003037389162,-0.6195184182964817,-0.07575230559410279,0.2322935004443002,-0.22897655837042769,-0.05380449260126497,-1.7043215964436236,0.559207786319628,0.0
116,-0.41553686256107625,0.27822542038188597,0.8038805716658667,0.09433498760242762,0.055687360152571086,-0.9053512672470937,0.41029125134149474,-0.6795362590745125,0.32919090213293045,0.3981315411634185,1.0627781133663066,-0.20869336770826025,0.09867321646977943,-0.4803561804323128,0.05334438577946056,-0.41017616601817314,0.45093824499365276,-0.32915136212388435,-0.12321365546989578,-0.17675285794526685,0.27196605311048305,0.4922063450625046,-0.17553281369928594,-0.6307703918610774,-0.07337380592033657,0.2289175903719904,-0.24118160284413065,0.021583628810875617,-1.6024368920378296,0.5599878778624113,0.0
117,-0.4156078758699624,0.2690257032649954,0.8048664315818511,0.0988268109097306,0.051494034500624696,-0.9153647964639968,0.3868965174961997,-0.7057983361166542,0.3005439269570463,0.35403663296662374,1.0419332859902335,-0.19379819026951456,0.057633794826550185,-0.4865319279222535,0.049963891036967495,-0.36074207406159303,0.4563104830426668,-0.3291171067651903,-0.1117239739733771,-0.14355388302238803,0.26526939082979145,0.492142086877126,-0.20964660883814473,-0.6448689807049341,-0.08307547784698607,0.23458544632370207,-0.254112648633662,0.07485104189998779,-1.5283340151427278,0.579275384658246,0.0
118,-0.4161503149352472,0.25959942999594826,0.8058178441333318,0.10285353783879828,0.047390848653089915,-0.924419413468133,0.36417578890038316,-0.725646694408234,0.2751957043874148,0.3132023403720038,1.0038678262957572,-0.18707382724320754,0.03362958307376171,-0.4897132249330714,0.04746766334085047,-0.31234058203409193,0.45787618699250165,-0.3308821937562875,-0.09868727952220571,-0.12018935921336751,0.2596100164717595,0.4935274930004665,-0.22975325632924576,-0.6580197597607259,-0.09200833861006812,0.2414048982162974,-0.26287957234348286,0.1232324310619772,-1.469880186445284,0.589233650889717,0.0
119,-0.41670738343704633,0.24961822217055107,0.8071249425505576,0.1068417027338877,0.042840474758404315,-0.9326518168820652,0.3419212376351922,-0.7383754023673827,0.2580645818333774,0.2831599948504545,0.953892372390028,-0.17953892511989109,0.015808059020580127,-0.4915658493595983,0.04287919577822812,-0.26505823796642625,0.4570937377374511,-0.3322889479221368,-0.08339353318919568,-0.10740640433620158,0.2560390628157699,0.4936115875399725,-0.24066445403904635,-0.670595939946896,-0.09893606088195617,0.24847898629009213,-0.2682218186321803,0.15914248981632037,-1.4217683592456916,0.5820936828549975,0.0
120,-0.4174015178768976,0.23907444790538326,0.8085557146816952,0.11047030156546804,0.03777677731833664,-0.9408748403818514,0.3179996262637771,-0.7427248951362311,0.2471385681339944,0.2653419719074273,0.895328666069965,-0.17511006402799317,0.01799331043165119,-0.4933079692428218,0.037209825345330225,-0.2156690618812906,0.4566359281181905,-0.3338016081792767,-0.06479405732516054,-0.09925949823598516,0.2547125374627258,0.49153221063542735,-0.24095148537951927,-0.6827073517062264,-0.10203694120649291,0.2571273946300973,-0.2727361392093766,0.18097373462196584,-1.385572203245517,0.5718343083063768,0.0
121,-0.41808048324630437,0.22731333114592808,0.8100763530176558,0.11335483818286575,0.03202067830268375,-0.949022331704902,0.29237299934666394,-0.742125562503253,0.2339258614270522,0.23971726680625588,0.8332617708802702,-0.1641213283408272,0.014510048687817866,-0.49468797396518194,0.02975958750014894,-0.16284259395475859,0.4571994585604439,-0.3345571105677585,-0.045663399660500176,-0.09348593483218663,0.2560103346787197,0.48710114477477573,-0.2366265550728457,-0.6945536329752228,-0.11123602790100946,0.2676138210053443,-0.2793499915046159,0.18349618691357483,-1.354296506966933,0.5602060028443829,0.0
122,-0.4189691767417218,0.21468512521930272,0.8113610150987708,0.11561234240628238,0.026438829277468635,-0.9567746017744878,0.2655506279206301,-0.7388784781632345,0.21542610597407105,0.1968681157234804,0.7680225732040705,-0.1551247147197734,0.003974545174706803,-0.4965256123943355,0.022358277516830012,-0.1080080741247608,0.45892219077529367,-0.3351403709830924,-0.026604878720929717,-0.09126217939096168,0.25962337473939634,0.4863987501724256,-0.2312450542302238,-0.7096442707829975,-0.12559852897233684,0.2763639177323361,-0.29024012283016054,0.17133373806329127,-1.3229740610705158,0.5708960832092982,0.0
123,-0.42006774784746015,0.20128245884287826,0.8122421664838227,0.11714087494116486,0.021537022160611766,-0.9641774428255059,0.23701483253362288,-0.7329850153982623,0.1930562665252408,0.13404503158591025,0.7018016540959283,-0.15097762477471044,-0.01391136350037657,-0.498812561368879,0.01636072070294317,-0.05116039182820698,0.46124262203754357,-0.3350593754987197,-0.006836659613055221,-0.09003258202511581,0.26393169663864,0.49019381442865123,-0.2194861233312415,-0.7225303417299519,-0.15645055299318789,0.28129910155212867,-0.30220497888756015,0.1422052844104038,-1.2866002424704917,0.6108829834302245,0.0
124,-0.4218042861990722,0.18737575726495426,0.813112504239868,0.11778225459494934,0.017090747362090545,-0.9712434380646076,0.20620725223322703,-0.7205450803370642,0.16481426080342362,0.044878119182751273,0.6371437838627978,-0.1502304839218733,-0.037652403342843574,-0.4989134270126651,0.01218241201297637,0.007987924704516279,0.4605036028166287,-0.3333379263052746,0.013991770673492698,-0.09010538339343109,0.26904900937493864,0.49163789679518627,-0.19871165653626455,-0.7321549270108625,-0.192205185867154,0.28284984726250706,-0.3112996795023635,0.10515941910590051,-1.2397409105947006,0.6685505472995404,0.0
125,-0.4243042534315592,0.17264099452674478,0.813599383525214,0.11695948925565677,0.013487026867671885,-0.9778836071905525,0.17286477017403257,-0.6979883663470761,0.13389904179800502,-0.07385484778960916,0.5757452626843732,-0.15070550341967823,-0.0814342248050776,-0.4963934871018088,0.010116826175472073,0.06983015022992192,0.4585274344722545,-0.33095134042313973,0.036904364853458736,-0.09101218662527505,0.2751482482319166,0.48635941870091143,-0.17537748920596535,-0.7345667839915222,-0.20628397416530175,0.279309888124738,-0.30902386312587543,0.05162865872197553,-1.1777635523808656,0.6656627107098567,0.0
126,-0.4273701105318206,0.15805983225892128,0.8139613964728645,0.1150251302157653,0.011118113995285986,-0.9836740564137237,0.1379527371914214,-0.66528191762683,0.10386598207306491,-0.20651857721319827,0.5220264833773198,-0.1596547931555637,-0.12566294297225286,-0.4914920921372466,0.010991623943533868,0.13235381421880593,0.45348254406309624,-0.326761095966402,0.06078087197398411,-0.09311657891666728,0.2828017882764404,0.4773940442126272,-0.15697815171730997,-0.7328379663071686,-0.19900603720408744,0.27423857301780563,-0.3091493238614377,0.00281471755515195,-1.1119819297824032,0.617193226752859,0.0
127,-0.4303599561978856,0.1433888990965243,0.8140936267634,0.11252277805117486,0.010215675897220484,-0.9882754345010515,0.10269337830341235,-0.6266323315239423,0.08649684804494549,-0.3155554574612738,0.4781670437023714,-0.16413388404879115,-0.16548906436417388,-0.4863866225802933,0.013580014335427208,0.19396897570740204,0.44637026117828293,-0.3207746976306683,0.08705641106360414,-0.09872481165838086,0.29179107798220943,0.4726071143523347,-0.14351325889003483,-0.729935518097086,-0.19509452939420568,0.2692373875639657,-0.3179129802402992,-0.03658700519906385,-1.058245391999866,0.5443859420559679,0.0
128,-0.4330972838374534,0.12780295380903525,0.8142023871432383,0.10995185651527771,0.009499500142860348,-0.9916237949452742,0.06710140120901491,-0.5897774114052092,0.0799786145053612,-0.3737378060679351,0.45905072635324895,-0.1605916889152063,-0.17499681529923472,-0.48269813547731155,0.01400295876543949,0.2549461156040486,0.4373194340719639,-0.3124991677181371,0.11639167121810094,-0.104877679131847,0.3013798885046195,0.47108823648007214,-0.13527835299376634,-0.7304292072649886,-0.1966098167207567,0.2705565787639219,-0.3413121547451658,-0.06033576677302592,-1.0235945397734856,0.47719026548276194,0.0
129,-0.43355626856807,0.10933080968645138,0.8132545171246831,0.10921957455940692,0.009307012189220915,-0.9932201505972863,0.0387065434348881,-0.5711923564623588,0.0784116994283568,-0.3411883424991753,0.4754524197341546,-0.1950949228110022,-0.1702596078995047,-0.4892165245890143,0.006937206636394422,0.30677482217786045,0.4329519486884756,-0.30217757815500423,0.14775274355683338,-0.12550275864566796,0.3101467720877424,0.4748495105581961,-0.12815001662472963,-0.7346102830994329,-0.19521095948877193,0.2736377975097317,-0.3688887096862072,-0.07717438090733811,-0.9989680315734055,0.43787074057029235,0.0
130,-0.432516501751409,0.08937590350371985,0.8118353535769293,0.11125562430107482,0.0095779910703708,-0.993599013240155,0.017071878532414365,-0.579439009168098,0.06771316391537646,-0.28828945152246754,0.5119838319732377,-0.22866020285550123,-0.1273628175244641,-0.5049290613663169,-0.005344177579496848,0.34565469795280107,0.4290022457562889,-0.2891800344409758,0.17860555883848642,-0.15870113617887494,0.3152421332954473,0.4824667043410178,-0.12239408454513345,-0.7403595250309418,-0.1931113562926684,0.2741460839466257,-0.3939792537578364,-0.09177231457683785,-0.9827888348409113,0.41456339613769516,0.0
131,-0.43041122736711585,0.06798888577902727,0.8109818126523455,0.11543915192395014,0.009035817412093184,-0.9932633910184722,-0.004471271548622065,-0.5975101996544576,0.05322393847390833,-0.2357582088359814,0.5499353217385554,-0.25095287774148,-0.09120818565148434,-0.525315288759841,-0.02076404711081778,0.3839113828480832,0.4154642234878219,-0.2664359796848303,0.2069303867669947,-0.1998851643880282,0.31856761995911653,0.49143501848557053,-0.1176298790150582,-0.7435946881745128,-0.19060725664817788,0.264355092111326,-0.4126152972144669,-0.11120264119559947,-0.9644225443822894,0.4062601701275356,0.0
132,-0.42794425693936156,0.04482186513047231,0.8115267003346676,0.12083768301846218,0.008604080878868874,-0.992164855796655,-0.03054706331161206,-0.6092174016934571,0.041210384045822945,-0.18516617729242799,0.5696253111091327,-0.2658648824104273,-0.05806669447770406,-0.543354569097203,-0.03520933303967386,0.4257788308789903,0.38200616532528475,-0.22788553929051708,0.22414908677265832,-0.23403815184975113,0.3212201913482415,0.5012882132652763,-0.11232878250296104,-0.7477551965957085,-0.1855219006120416,0.24556916299530837,-0.4228267562952964,-0.1389373386520894,-0.9413515729034255,0.39122323383454743,0.0
133,-0.4245178650078072,0.02183489122290564,0.8121317592800762,0.127803446143273,0.008891941864651514,-0.9899590542679803,-0.059735110250392465,-0.624239347172698,0.0357087862513359,-0.13077137324091306,0.5820862058815802,-0.27584925239416574,-0.030489845781609397,-0.5668708551512835,-0.04898584231129508,0.43361665305061514,0.33809797712418405,-0.17463632842316668,0.23510269981479823,-0.2611427749248241,0.3253095282084823,0.5164454742105131,-0.10428501301759904,-0.7528342196798329,-0.18286096346947944,0.2194271815119618,-0.42475243889253855,-0.162824869560012,-0.9158253387027042,0.39460142347171845,0.0
134,-0.4195849310701838,0.0008009833474242646,0.8125926935406513,0.13663340440685204,0.009117956630572487,-0.9859764768978274,-0.09538638619439481,-0.6441337688857453,0.04025667713140822,-0.06674204513564486,0.590250070678501,-0.28105132063068033,-0.006449740824418302,-0.6087330561054023,-0.06447808967662133,0.3069023069605697,0.30662000926342625,-0.1106254407074592,0.25060074138100713,-0.2709306767533549,0.32870503321833794,0.538513739308252,-0.09711589454320207,-0.7614831186934318,-0.178533183580135,0.1935903095708864,-0.4201979894412222,-0.17767506566197724,-0.8948872454814419,0.39535446274241387,0.0
135,-0.41485877853193204,-0.01846175000282445,0.8131378012858171,0.14428548745970574,0.009269655099204322,-0.9798930007737731,-0.13749719501658603,-0.6583646598365872,0.054532394813442985,0.006189475906754702,0.5938218520650769,-0.2872646176607129,0.018620406945270222,-0.6472345971137273,-0.08435957421113476,0.05366467756910965,0.31740023709888326,-0.08070850350349908,0.2270030187834052,-0.2623207449676045,0.3396797555457362,0.5733979571954488,-0.08959145822535053,-0.7733311199482732,-0.15746867516421703,0.17850062686129756,-0.4252739097315631,-0.15863436583711504,-0.8854688648266565,0.39496255432239114,0.0
136,-0.40918350127490627,-0.03877508763998966,0.8120890850158164,0.15103033267826887,0.0061851929693551525,-0.9716325900224719,-0.18188373210721173,-0.67481837307798,0.06493669115724304,0.08348666953958842,0.6002986161527312,-0.2911173071174659,0.044146035925994496,-0.686625420400427,-0.0998654682093538,-0.1552659219847392,0.39225815401125097,-0.13042345834868874,0.0836259738786404,-0.23634756811675658,0.3405780990613113,0.6023132182757696,-0.08409025040586457,-0.785284264116289,-0.1478890737137955,0.17926297038388492,-0.44289093130676976,-0.12246356000405764,-0.8896659200283646,0.4186149477788623,0.0
137,-0.40371232067189816,-0.059225490965836215,0.8089958487866918,0.15554723442579124,-0.00024229356876295967,-0.9615246865636152,-0.22644044754649595,-0.6906802390581459,0.0726712662435966,0.16560771390697296,0.6114033847865252,-0.2974469610816175,0.06794797220657818,-0.722732216663412,-0.117652714282478,-0.2932788316569627,0.5106109412000651,-0.18812563042415034,-0.0021546484985982793,-0.20257501250600757,0.3300449134654379,0.618131298143334,-0.07052270970702182,-0.7870440573673361,-0.14483138604850768,0.1879592904659792,-0.46961878129693213,-0.0776919988390179,-0.9005148477932202,0.46070915622801517,0.0
138,-0.3991426423883999,-0.08071715296985595,0.8062757046602462,0.1574646394841535,-0.006051680321961645,-0.9512122180697127,-0.265261344097298,-0.6997407562396083,0.07480487891703021,0.23873628169813502,0.6137383269726906,-0.29905982251667423,0.09252011679050857,-0.7425373849795291,-0.1257524973035321,-0.353168885256145,0.631920668063444,-0.22069339840551724,-0.021754591113042766,-0.17319426458249682,0.31414380132072317,0.6230579607566287,-0.045626263476875366,-0.7818143720468178,-0.14275707762669,0.20028990270255248,-0.4904628471445097,-0.04572888123024478,-0.9007723802716641,0.5010834860845198,0.0
139,-0.39869394824891485,-0.10157808939744918,0.8032781215616882,0.15280223393863962,-0.012287646422846254,-0.9430710602338668,-0.29515668110025944,-0.6871351594739927,0.06582282008467807,0.307637621248737,0.6067911398725379,-0.3053978010178997,0.11841608091567632,-0.7471904606964038,-0.13312690680777692,-0.3471572506963667,0.7636937490044693,-0.24508336664291455,0.024740892696283975,-0.1672919948797959,0.31010943370167227,0.618318885206155,-0.006270893853757745,-0.7661694614708302,-0.12428031832333528,0.21879217895829084,-0.5117428427302557,-0.020889939181736997,-0.8958670024847615,0.5157955105031584,0.0
140,-0.3971750316880545,-0.12272479195939415,0.8011563183505528,0.149102078976469,-0.016232719866747302,-0.9346022739119095,-0.32252698871460656,-0.6799052390636859,0.056711026550220825,0.36482108921292605,0.5941636270459482,-0.3039858886106648,0.14412970632110264,-0.7353455766142645,-0.12774392306219004,-0.3457057446649466,0.8677883726345973,-0.24841664088962268,0.06757762876338748,-0.16605851630278992,0.3060148158814503,0.613930858050974,0.031247070919753858,-0.7554258871566136,-0.10584975925584678,0.22090933404948007,-0.5132270194044921,-0.022971718188544446,-0.8724388884229197,0.5084436478005928,0.0
141,-0.3980053745143415,-0.1447581759707301,0.7996060044693659,0.1437031473025728,-0.019744077026004756,-0.9242297141702667,-0.3532124181317453,-0.6647803458931009,0.04798491072835592,0.42976718955179666,0.5756932799576169,-0.30520668167101067,0.17064697596026532,-0.707798481157087,-0.1306497287976621,-0.3669308192000155,0.9587997069200543,-0.25326592734624176,0.11293408317898501,-0.16001978416100068,0.3057111641617255,0.6046314529181728,0.06648715797652258,-0.7463281002726181,-0.0991252030994477,0.21660695765470897,-0.5139012277192148,-0.03267697205911503,-0.8475758011133423,0.48855625118342483,0.0
142,-0.3999802831802253,-0.1669769014624627,0.7981115094015248,0.138098274165009,-0.02304602387806985,-0.9118838023796371,-0.3858311527257925,-0.6516431217230375,0.04121885074424433,0.49756849396431013,0.5589461192267912,-0.30697782994714556,0.19646974126733044,-0.6726484661298251,-0.13264245370239577,-0.3921400131466254,1.0342285895988943,-0.2505448418699029,0.16139897239485487,-0.14745320871428297,0.30653902916266457,0.5925162546872115,0.09302664606421181,-0.73987996369584,-0.10195369077476205,0.2098786741710952,-0.5132814711349449,-0.05042245165122282,-0.8224250475229202,0.4654875049795274,0.0
143,-0.40220498844399344,-0.18842714218401593,0.796185259321247,0.13276069005722954,-0.02609479941948318,-0.8991162026500246,-0.4162736056381508,-0.6444994118247269,0.035764434147585566,0.5607479387292179,0.5475699741504766,-0.30887113572601055,0.2216022508710492,-0.639560692442607,-0.115483532100619,-0.3908333759683756,1.0887289536769063,-0.23175827222516193,0.22280363544747186,-0.13634763281986642,0.3085720460850081,0.5818130006542163,0.11021256409766714,-0.7377769901563954,-0.09397373181211355,0.20271807386470128,-0.5107533804439885,-0.07089177733750539,-0.7962227788499611,0.4491682895601548,0.0
144,-0.3988385025526424,-0.2076683460060754,0.7945122865882615,0.12928882506582107,-0.0282328133541517,-0.8867325639423571,-0.4429364153097196,-0.6523406851210044,0.04065555057903221,0.6118431161360158,0.5437709335246663,-0.3034187483868292,0.2433716129445086,-0.6126416670239108,-0.07546079545687272,-0.3775008373227622,1.1169045993433047,-0.17751366577899233,0.2617951254544309,-0.1295756193435337,0.3089094572282533,0.578460311445636,0.116979928758837,-0.7370920553699101,-0.09904837109769235,0.19528841902687685,-0.5004805020302197,-0.08351768968302381,-0.770770189137337,0.44056524061612706,0.0
145,-0.3930749520817735,-0.2250542477291269,0.7936591789598442,0.12810154271791274,-0.028545119862536238,-0.8739366778762164,-0.4679848864525521,-0.668826912184257,0.057424992240810345,0.6551067433637803,0.5459810047390601,-0.2950809481681556,0.2612789891351648,-0.5858372486301942,-0.004259913942506367,-0.3426322407438193,1.0967282833815397,-0.0712659258048924,0.26179999996953407,-0.12200672656285272,0.3086233534484299,0.5823679790938375,0.12338392365802535,-0.7405275527281169,-0.10537660473696078,0.18828207789615384,-0.48708050860865204,-0.07637107396398343,-0.7452519410259889,0.43153411265612307,0.0
146,-0.39426240197586127,-0.24045415771816442,0.7913819553919789,0.1274438590132791,-0.030220406426863022,-0.8635977085027662,-0.4868714283093346,-0.6832402917419309,0.06341249145945033,0.6877856263600123,0.5549592160576533,-0.29549202465284935,0.2617999348736419,-0.5552185684870469,0.06523722340816204,-0.2851351552977603,1.0322230005092279,0.019848768858933274,0.26179999999999615,-0.12213057869344292,0.30756049033649774,0.583501942449611,0.12274377528135275,-0.7530693603910432,-0.11138240672963094,0.1862619341974769,-0.4715149266341767,-0.06254845846093596,-0.7242639612752559,0.4332479635220052,0.0
147,-0.4039732880799433,-0.25646832377489814,0.7899253553924256,0.1274935313478858,-0.030741112753163317,-0.8525597541061811,-0.5059073523181418,-0.6887232816607736,0.062347524626897174,0.7243822843589255,0.5583362351483357,-0.3011050763601987,0.26179999999185916,-0.5011638996568236,0.11664974009939133,-0.21792443486910149,0.911343570727437,-0.016354135269965327,0.21476463632124024,-0.11648242187725368,0.3087243169846863,0.5864397545207815,0.11950428409610804,-0.7685648586646715,-0.12055116811570947,0.19021257694296947,-0.4570759610644745,-0.04028470546222935,-0.7092019290558382,0.4422315581583962,0.0
148,-0.4040146407266759,-0.27122392439104065,0.7871013654390732,0.12867795829045414,-0.030032837271236613,-0.8407638796181748,-0.5250296281782929,-0.7232616579255118,0.0898544729897766,0.7402955015731743,0.5998145672642813,-0.2990906001013269,0.2617999999999999,-0.4325675564276227,0.16017302227016544,-0.18404061702828545,0.7980699426056543,-0.1725547484559633,0.09928299813514095,-0.10640614946624537,0.3125484663950058,0.5978975844759569,0.11642807897614786,-0.7884807604005067,-0.13134309811046652,0.20046300768390826,-0.4414884208263782,-0.011558863783292097,-0.705890590512629,0.4507158268581247,0.0
149,-0.40214604893139516,-0.2881074938179264,0.7828624229592677,0.13204379146305392,-0.0323032689566192,-0.829048304968784,-0.5424019210688377,-0.7869170061098787,0.12466064933217053,0.7329379284938566,0.671281036406139,-0.27161712059474274,0.2618,-0.3974298617986096,0.17652678389899293,-0.18957087236304504,0.7147832068302589,-0.2962779264991052,0.006645360940515259,-0.0994456874542045,0.31107667857369203,0.609630431151753,0.10371210231123094,-0.8123064904940733,-0.14717871321697215,0.2084955516537365,-0.4266797699718414,0.013064792031497584,-0.7125655431254574,0.4543566738762258,0.0
150,-0.3992904222938428,-0.30386916233316436,0.7783417697450566,0.13637201991227352,-0.03258593977445517,-0.8170775201945742,-0.5592183426057739,-0.8737379840437721,0.17621370853662943,0.6884749044499319,0.7765269858348283,-0.2267254580569363,0.2618,-0.3801173509081841,0.19317913759039715,-0.18875934342496492,0.6519143123481582,-0.3841209186810983,-0.03090373117043548,-0.09197551024037548,0.30866622049263165,0.6214767431948736,0.09225335712243364,-0.832345836338084,-0.17729556250298176,0.21547002438507376,-0.40669758528382505,0.035243414504891435,-0.720600610610136,0.4532660660771194,0.0
151,-0.39400037901852797,-0.31356392922647996,0.7724590700648772,0.14309195228045374,-0.02303349414077244,-0.7994545778174524,-0.5829807281093909,-1.005025781955066,0.2600375842965497,0.5433077874406627,0.9383624040776443,-0.18299005365299834,0.212458948613274,-0.35770636542430234,0.24115027971735117,-0.15051263552203475,0.5971825346856777,-0.4363118855794834,-0.04465391816345177,-0.06574530526341194,0.3286632484352478,0.6478055670417199,0.09247507015216948,-0.8547759042307826,-0.2036753527509095,0.22649412710410305,-0.36830181819647845,0.05867600426466598,-0.72860365498042,0.4457943492112544,0.0
152,-0.39235377604848876,-0.33019787305584886,0.7693727818542856,0.1440625034311973,-0.029681475162887477,-0.7796654967924236,-0.6086762014804882,-1.100328292608712,0.2658257703962846,0.3888271903462933,1.0222653536403656,-0.12262619159432445,0.1017958843960773,-0.3935777884477953,0.24578893280821573,-0.08899159763734256,0.6070904042297345,-0.4646066765240317,-0.05734904684488437,-0.040046056897898225,0.3209294729054667,0.6214436707481035,0.054885051836135706,-0.8796667217704169,-0.24373021929933705,0.22954483809964013,-0.3564746674549264,0.05447811699062013,-0.7309910692723586,0.4617584140709718,0.0
153,-0.3985123787669399,-0.3422669775334085,0.7728525629878189,0.13992972256313244,-0.031365171810834605,-0.7667404198450593,-0.6257355889802856,-1.1202371100149975,0.2674072393245734,0.28696335096649894,1.0755181294102392,-0.1428132743723457,0.007076801597027414,-0.3881726175266896,0.2360666640130132,-0.05400902943370445,0.5788192397821921,-0.47009092548742776,-0.04491880890032246,-0.05343527216134932,0.3380322891959551,0.6217888106034268,0.04070398202711226,-0.8788070327919031,-0.24946760698375156,0.2375607559379801,-0.355706566001872,0.07619046034162302,-0.7428376342314809,0.4554231110228279,0.0
154,-0.40086770414418227,-0.35467316049197445,0.7779102051227669,0.1368139711874146,-0.03625397413260787,-0.7552497600739624,-0.6399729576753574,-1.1055388396355619,0.30983504564946074,0.2709321968250111,1.1077905039248388,-0.16576929281760328,0.0074445454758199255,-0.3936854707652987,0.2272088820200683,-0.026101700051743653,0.5511570664248395,-0.455459573484948,-0.043899411408940464,-0.07347009563518428,0.3477966699012526,0.6070669411299268,0.011281483512384907,-0.8828456577182977,-0.25247736181504454,0.2388725775401229,-0.3491987384681084,0.08213888466160588,-0.7502976417970708,0.45200301046952573,0.0
155,-0.40501547273442373,-0.3672143444577284,0.7847154101261151,0.1319837927465726,-0.043033217000933946,-0.7456908357128256,-0.6516698536994706,-1.0610351312896644,0.3546587567256375,0.28339468101114745,1.1187792163422232,-0.18411135227939943,0.05617425464797851,-0.3980454967835405,0.20951484973815057,-0.00034812556575093863,0.5189897163134171,-0.4324631097241863,-0.03913977042565946,-0.10266026192520324,0.3502675205997276,0.587411713635759,-0.026873208336400275,-0.8721008778699305,-0.2531981857930762,0.24029660731355965,-0.34269946906200033,0.07439368728690657,-0.7501736803297452,0.4503892513684532,0.0
156,-0.4117245083061122,-0.3787619686617137,0.7924155852695147,0.12481223625318867,-0.05148472408018723,-0.736394510190016,-0.6629437036656075,-0.993627460051277,0.3749597624581772,0.28639536239689634,1.1089460536245452,-0.19732254888453868,0.09095841902565074,-0.39918206806747447,0.18283936582031532,0.031029248741078288,0.4835576656549175,-0.40693168790318374,-0.028161398044222255,-0.13141801132068806,0.34521124191109565,0.5641072314505748,-0.07149500997579716,-0.8487348710180174,-0.24668995579240666,0.24612889906967078,-0.34210627480066325,0.06395002894525346,-0.7522863293524563,0.4433916668306142,0.0
157,-0.4202377316699535,-0.38891554815191937,0.7991503719996299,0.11654152439220335,-0.05922384376949056,-0.7240378002506312,-0.6772590887022019,-0.9169649443723048,0.37118592576308,0.2625950703296225,1.089768917092532,-0.20593988197761698,0.11206171791128415,-0.398473721171324,0.15497887254033607,0.06937359684432129,0.45068716184763313,-0.38417296505136833,-0.01234449936286068,-0.1469871298428826,0.33457048566958475,0.541187147671663,-0.11631944166177327,-0.8206796170128402,-0.23120479995634483,0.25885192640579363,-0.34602537087505886,0.05668787232971351,-0.7568871412418966,0.42615247050415334,0.0
158,-0.4296683634591722,-0.3977499103918115,0.8041113796326815,0.10853271903605514,-0.06481334132225784,-0.7089375151140762,-0.6938497527196835,-0.8332786760983458,0.34681048024747146,0.2144212473024776,1.0589076083678635,-0.21425175722404152,0.10784827912077423,-0.3979551169883481,0.1311939963378569,0.11251539143556495,0.42377739726262714,-0.36532895239792496,0.007529746511657529,-0.15003495619162868,0.32198715407102396,0.5214837551482442,-0.15365103831985677,-0.7943046725990909,-0.2231621941560235,0.2742366721404687,-0.35252250514799466,0.05487377943848111,-0.7593605012069102,0.41798241979834794,0.0
159,-0.43852033856385064,-0.40612734930101946,0.8067306415235198,0.10331717545395001,-0.06738888989005697,-0.6939051644645499,-0.7094222448619942,-0.7483772640275745,0.3096269459617427,0.14426094718856905,1.0110661912109762,-0.21657821668702612,0.08480200843119845,-0.40185826917986334,0.11688728114332843,0.15404432896919518,0.405561899149871,-0.3501754987103953,0.03186341455049557,-0.1474879731732217,0.3116688816208005,0.5107915299538942,-0.17888798718492688,-0.772647273597257,-0.21784595965985523,0.28981911568100194,-0.3556045836655861,0.06208617221705301,-0.7603951542435687,0.4107548033883396,0.0
160,-0.4461631128969965,-0.4148535543753474,0.8084730776582988,0.1013667296592695,-0.06863514058063545,-0.6824232933378906,-0.7206333688537676,-0.6620045382598042,0.27175725002075557,0.07584932127417295,0.9389622168839684,-0.2078211520524534,0.05245974600173212,-0.40923145036647257,0.10892878419677898,0.1852987465037445,0.3886506806568671,-0.3352844396606381,0.05507041445031943,-0.1513216409176623,0.30637141502819537,0.5129385462077073,-0.19403255406780734,-0.7623963199584463,-0.21254380089141003,0.29994124957454144,-0.351708827018134,0.06786588743608445,-0.751875773392286,0.4114266219713542,0.0
161,-0.4537092396455595,-0.42383961169935835,0.8100132121512562,0.10138070873980408,-0.06958634797217736,-0.6745441704894972,-0.7279215988895686,-0.5691253769890922,0.2453965124452378,0.03455270590126905,0.8297375551637979,-0.1861683844373126,-0.030590420866070563,-0.4195139201647444,0.10227504273726999,0.20721585654661273,0.37277562956361177,-0.3192112265613603,0.07915331469858801,-0.16385094472174605,0.3076507784343667,0.5255186289660407,-0.2002924409732608,-0.7625679230658571,-0.2095243479970576,0.29882776568869174,-0.34195905494439915,0.0700969662987799,-0.7315820166420458,0.41229101644061644,0.0
162,-0.4615937023688352,-0.43354378139147,0.8115557928014868,0.10270519869328189,-0.07129028562456113,-0.669448239335566,-0.7322625158967601,-0.4758475656311008,0.22713200454382385,0.025963930828309535,0.6903281836935609,-0.23216600974099957,-0.14142098145785512,-0.43460352730872975,0.09476791013977631,0.22259972157721739,0.3580657988907111,-0.2999569278025487,0.10310622652536065,-0.18193388912063166,0.3110819903917367,0.5422811870435591,-0.19943557854634472,-0.7702274009120504,-0.2099987664500434,0.2902937095147035,-0.3288124366085474,0.06905769221092323,-0.7033876188253801,0.4081983220363655,0.0
163,-0.46945235951698405,-0.441995503328841,0.8136936002673892,0.10383637334632553,-0.0733845903840825,-0.6657198962593442,-0.7352888746532829,-0.402073118561155,0.21559273614530633,0.06935491442902285,0.5681202166254343,-0.2925476671161216,-0.15805280256850507,-0.4461624009104969,0.08475244576946779,0.23360388821730427,0.33926965600336106,-0.2804109176377266,0.1277843637788815,-0.20155370072250686,0.31509027532403716,0.5600298966160896,-0.19444398429862736,-0.7862834627992266,-0.2123818589603691,0.27748671856192336,-0.3162403878825703,0.061941581424047355,-0.674058715490085,0.396282794640379,0.0
